;FLAVOR:Marlin
;TIME:28098
;Filament used: 15.3919m
;Layer height: 0.2
;MINX:111.023
;MINY:120.335
;MINZ:0.2
;MAXX:188.72
;MAXY:178.655
;MAXZ:99.8
;Generated with Cura_SteamEngine 4.10.0
M140 S60
M105
M190 S60
M104 S200
M105
M109 S200
M82 ;absolute extrusion mode
; Ender 3 Custom Start G-code
G92 E0 ; Reset Extruder
G28 ; Home all axes
G1 Z2.0 F3000 ; Move Z Axis up little to prevent scratching of Heat Bed
G1 X0.1 Y20 Z0.3 F5000.0 ; Move to start position
G1 X0.1 Y200.0 Z0.3 F1500.0 E15 ; Draw the first line
G1 X0.4 Y200.0 Z0.3 F5000.0 ; Move to side a little
G1 X0.4 Y20 Z0.3 F1500.0 E30 ; Draw the second line
G92 E0 ; Reset Extruder
G1 Z2.0 F3000 ; Move Z Axis up little to prevent scratching of Heat Bed
G1 X5 Y20 Z0.3 F5000.0 ; Move over to prevent blob squish
G92 E0
G92 E0
G1 F1500 E-6.5
;LAYER_COUNT:500
;LAYER:0
M107
G0 F1200 X115.087 Y165.401 Z0.2
;TYPE:SKIRT
G1 F1500 E0
G1 F1200 X117.417 Y165.4 E0.0775
G1 X117.355 Y165.599 E0.08443
G1 X115.088 Y165.6 E0.15983
G1 X115.087 Y165.401 E0.16645
G0 X114.687 Y165.001
G1 X117.963 Y165 E0.27541
G1 X117.649 Y165.999 E0.31024
G1 X114.688 Y166 E0.40872
G1 X114.687 Y165.001 E0.44195
G0 X114.287 Y164.601
G1 X118.509 Y164.6 E0.58237
G1 X117.942 Y166.399 E0.64511
G1 X114.288 Y166.4 E0.76664
G1 X114.287 Y164.601 E0.82648
G0 X113.887 Y164.201
G1 X119.054 Y164.2 E0.99833
G1 X118.235 Y166.799 E1.08897
G1 X113.888 Y166.8 E1.23355
G1 X113.887 Y164.201 E1.31999
G0 X113.487 Y163.801
G1 X119.599 Y163.8 E1.52328
G1 X118.528 Y167.199 E1.64181
G1 X113.488 Y167.2 E1.80944
G1 X113.487 Y163.801 E1.92249
G0 X113.087 Y163.401
G1 X120.145 Y163.4 E2.15724
G1 X118.822 Y167.599 E2.30367
G1 X113.088 Y167.6 E2.49438
G1 X113.087 Y163.401 E2.63404
G0 X112.687 Y163.001
G1 X120.69 Y163 E2.90022
G1 X119.115 Y167.999 E3.07454
G1 X112.688 Y168 E3.28831
G1 X112.687 Y163.001 E3.45457
G0 X112.287 Y162.601
G1 X121.236 Y162.6 E3.75222
G1 X119.409 Y168.399 E3.95444
G1 X112.288 Y168.4 E4.19129
G1 X112.287 Y162.601 E4.38416
G0 X111.896 Y162.201
G1 X121.781 Y162.2 E4.71294
G1 X119.72 Y168.741 E4.94104
G1 X119.708 Y168.799 E4.94301
G1 X111.897 Y168.8 E5.2028
G1 X111.888 Y168.79 E5.20325
G1 X111.887 Y162.209 E5.42213
G1 X111.896 Y162.201 E5.42253
G1 F1500 E-1.07747
G0 F1200 X120.033 Y178.431
G0 X121.483 Y178.653
G0 X133.795 Y139.537
G0 X146.361 Y126.536
G1 F1500 E5.42253
G1 F1200 X146.202 Y126.346 E5.43078
G1 X146.121 Y126.121 E5.43873
G1 X146.121 Y125.878 E5.44681
G1 X146.209 Y125.642 E5.45519
G1 X146.363 Y125.46 E5.46312
G1 X146.572 Y125.34 E5.47113
G1 X146.816 Y125.298 E5.47937
G1 X147.053 Y125.341 E5.48738
G1 X147.269 Y125.467 E5.4957
G1 X147.419 Y125.647 E5.50349
G1 X147.505 Y125.881 E5.51178
G1 X147.504 Y126.12 E5.51973
G1 X147.423 Y126.346 E5.52772
G1 X147.267 Y126.535 E5.53587
G1 X147.051 Y126.66 E5.54417
G1 X146.809 Y126.702 E5.55234
G1 X146.572 Y126.659 E5.56035
G1 X146.361 Y126.536 E5.56847
G0 X146.713 Y126.283
G1 X146.551 Y126.148 E5.57549
G1 X146.517 Y125.946 E5.5823
G1 X146.623 Y125.766 E5.58925
G1 X146.813 Y125.7 E5.59594
G1 X147.01 Y125.774 E5.60294
G1 X147.108 Y125.946 E5.60952
G1 X147.074 Y126.148 E5.61633
G1 X146.916 Y126.282 E5.62322
G1 X146.713 Y126.283 E5.62997
G1 F1500 E-0.87003
G0 F1200 X172.694 Y130.077
G0 X172.467 Y130.846
G0 X172.803 Y131.658
G0 X177.619 Y131.653
G0 X177.63 Y130.799
G0 X177.166 Y130.8
G1 F1500 E5.62997
G1 F1200 X177.165 Y121.2 E5.94927
G1 X183.026 Y121.2 E6.14421
G1 X183.05 Y121.224 E6.14534
G1 X183.051 Y130.8 E6.46384
G1 X177.166 Y130.8 E6.65957
G0 X177.566 Y130.4
G1 X177.565 Y121.6 E6.95226
G1 X182.65 Y121.6 E7.12139
G1 X182.651 Y130.4 E7.41408
G1 X177.566 Y130.4 E7.58321
G0 X177.966 Y130
G1 X177.965 Y122 E7.84929
G1 X182.25 Y122 E7.99181
G1 X182.251 Y130 E8.25789
G1 X177.966 Y130 E8.40041
G0 X178.366 Y129.6
G1 X178.365 Y122.4 E8.63988
G1 X181.85 Y122.4 E8.75579
G1 X181.851 Y129.6 E8.99527
G1 X178.366 Y129.6 E9.11118
G0 X178.766 Y129.2
G1 X178.765 Y122.8 E9.32404
G1 X181.45 Y122.8 E9.41335
G1 X181.451 Y129.2 E9.62621
G1 X178.766 Y129.2 E9.71551
G0 X179.166 Y128.8
G1 X179.165 Y123.2 E9.90177
G1 X181.05 Y123.2 E9.96447
G1 X181.051 Y128.8 E10.15072
G1 X179.166 Y128.8 E10.21342
G0 X179.566 Y128.4
G1 X179.565 Y123.6 E10.37307
G1 X180.65 Y123.6 E10.40915
G1 X180.651 Y128.4 E10.5688
G1 X179.566 Y128.4 E10.60489
G0 X179.966 Y128
G1 X179.965 Y124 E10.73793
G1 X180.25 Y124 E10.74741
G1 X180.251 Y128 E10.88045
G1 X179.966 Y128 E10.88993
G1 F1500 E4.38993
G0 F1200 X177.63 Y130.799
G0 X176.766 Y130.8
;TYPE:SUPPORT-INTERFACE
G1 F1500 E10.88993
G1 F1200 X173.56 Y130.8 E10.99656
G1 X173.559 Y121.2 E11.31586
G1 X176.765 Y121.2 E11.42249
G1 X176.766 Y130.8 E11.74179
G0 X176.565 Y129.047
G1 X173.758 Y126.241 E11.8738
G0 X173.758 Y124.923
G1 X176.564 Y122.117 E12.00578
G0 X176.565 Y122.259
G1 X175.706 Y121.4 E12.04619
G0 X173.888 Y121.399
G1 X173.758 Y121.529 E12.0523
G0 X173.758 Y122.846
G1 X176.565 Y125.653 E12.18434
G0 X176.564 Y125.511
G1 X173.759 Y128.316 E12.31627
G0 X173.758 Y129.635
G1 X174.723 Y130.6 E12.36166
G0 X174.869 Y130.6
G1 X176.564 Y128.905 E12.44139
G1 F1500 E5.94139
;MESH:FOOTING.STL
G0 F1200 X177.63 Y128.904
G0 X177.619 Y131.653
G0 X172.803 Y131.658
G0 X172.467 Y130.846
G0 X172.694 Y128.558
G0 X147.483 Y126.794
G0 X148.419 Y127.914
G0 X147.214 Y128.273
;TYPE:WALL-INNER
G1 F1500 E12.44139
G1 F1200 X147.549 Y128.182 E12.45294
G1 X147.63 Y128.155 E12.45578
G1 X147.966 Y127.999 E12.4681
G1 X148.296 Y127.768 E12.4815
G1 X148.581 Y127.483 E12.4949
G1 X148.811 Y127.154 E12.50825
G1 X148.981 Y126.79 E12.52162
G1 X149.085 Y126.401 E12.53501
G1 X149.119 Y126.01 E12.54806
G1 X149.086 Y125.6 E12.56174
G1 X148.981 Y125.21 E12.57518
G1 X148.811 Y124.847 E12.58851
G1 X148.581 Y124.517 E12.60189
G1 X148.296 Y124.232 E12.61529
G1 X147.966 Y124.001 E12.62869
G1 X147.602 Y123.832 E12.64204
G1 X147.214 Y123.728 E12.6554
G1 X146.823 Y123.694 E12.66845
G1 X146.411 Y123.727 E12.6822
G1 X146.074 Y123.818 E12.69381
G1 X145.995 Y123.845 E12.69659
G1 X145.658 Y124.001 E12.70894
G1 X145.33 Y124.233 E12.7223
G1 X145.044 Y124.517 E12.73571
G1 X144.814 Y124.847 E12.74908
G1 X144.644 Y125.21 E12.76242
G1 X144.539 Y125.6 E12.77585
G1 X144.506 Y126 E12.7892
G1 X144.539 Y126.4 E12.80255
G1 X144.644 Y126.79 E12.81598
G1 X144.814 Y127.154 E12.82934
G1 X145.044 Y127.483 E12.8427
G1 X145.33 Y127.768 E12.85612
G1 X145.659 Y127.999 E12.86949
G1 X146.023 Y128.168 E12.88284
G1 X146.411 Y128.272 E12.8962
G1 X146.803 Y128.306 E12.90929
G1 X147.214 Y128.273 E12.923
G0 X147.145 Y127.877
;TYPE:WALL-OUTER
G1 X147.434 Y127.799 E12.93296
G1 X147.482 Y127.783 E12.93464
G1 X147.765 Y127.651 E12.94503
G1 X148.038 Y127.46 E12.95611
G1 X148.273 Y127.225 E12.96716
G1 X148.463 Y126.953 E12.9782
G1 X148.604 Y126.652 E12.98925
G1 X148.69 Y126.331 E13.00031
G1 X148.718 Y126.009 E13.01106
G1 X148.69 Y125.669 E13.0224
G1 X148.604 Y125.348 E13.03346
G1 X148.463 Y125.048 E13.04448
G1 X148.273 Y124.775 E13.05555
G1 X148.038 Y124.54 E13.0666
G1 X147.765 Y124.349 E13.07768
G1 X147.465 Y124.209 E13.08869
G1 X147.144 Y124.123 E13.09975
G1 X146.822 Y124.095 E13.1105
G1 X146.48 Y124.123 E13.12191
G1 X146.191 Y124.201 E13.13186
G1 X146.144 Y124.217 E13.13352
G1 X145.859 Y124.349 E13.14396
G1 X145.588 Y124.54 E13.15499
G1 X145.352 Y124.775 E13.16607
G1 X145.162 Y125.048 E13.17713
G1 X145.021 Y125.348 E13.18815
G1 X144.935 Y125.669 E13.19921
G1 X144.907 Y126 E13.21026
G1 X144.935 Y126.331 E13.2213
G1 X145.021 Y126.652 E13.23236
G1 X145.162 Y126.953 E13.24341
G1 X145.352 Y127.225 E13.25445
G1 X145.588 Y127.46 E13.26553
G1 X145.86 Y127.651 E13.27658
G1 X146.16 Y127.791 E13.28759
G1 X146.481 Y127.877 E13.29864
G1 X146.804 Y127.905 E13.30943
G1 X147.145 Y127.877 E13.32081
G0 X147.22 Y128.31
G1 F1500 E6.82081
G0 F1200 X146.377 Y128.461
G0 X146.377 Y130.58
G0 X135.915 Y130.488
G0 X135.38 Y130.709
G0 X121.288 Y175.096
;TYPE:WALL-INNER
G1 F1500 E13.32081
G1 F1200 X121.288 Y173.801 E13.36388
G1 X121.288 Y173.8 E13.36391
G1 X121.287 Y169.095 E13.5204
G1 X136.254 Y121.601 E15.17664
G1 X170.212 Y121.6 E16.30609
G1 X170.214 Y130.201 E16.59216
G1 X170.214 Y130.4 E16.59878
G1 X170.015 Y130.4 E16.60306
G1 X136.063 Y130.4 E17.73231
G1 X135.954 Y130.291 E17.73743
G1 X135.213 Y130.597 E17.7641
G1 X135.213 Y130.906 E17.77438
G1 X121.677 Y173.86 E19.27229
G1 X121.288 Y175.096 E19.29409
G1 F1500 E12.79409
G0 F1200 X121.103 Y176.299
G0 X120.888 Y177.697
;TYPE:WALL-OUTER
G1 F1500 E19.29409
G1 F1200 X120.887 Y169.032 E19.58229
G1 X135.96 Y121.201 E21.25027
G1 X170.612 Y121.2 E22.40281
G1 X170.614 Y130.8 E22.7221
G1 X135.897 Y130.8 E23.87679
G1 X135.86 Y130.763 E23.87853
G1 X135.613 Y130.865 E23.88742
G1 X135.613 Y130.969 E23.89088
G1 X120.888 Y177.697 E25.5204
G0 X121.103 Y176.299
G0 X121.944 Y172.647
G0 X121.678 Y172.562
;TYPE:SKIN
G1 X121.677 Y169.154 E25.63375
G1 X136.54 Y121.991 E27.27845
G1 X169.822 Y121.99 E28.38541
G1 X169.824 Y130.01 E28.65216
G1 X136.224 Y130.01 E29.7697
G1 X136.046 Y129.831 E29.7781
G1 X134.823 Y130.336 E29.82211
G1 X134.823 Y130.847 E29.8391
G1 X121.678 Y172.562 E31.2938
G1 F1500 E24.7938
G0 F1200 X121.944 Y172.648
G0 X135.38 Y130.709
G0 X135.861 Y130.511
G0 X145.605 Y130.58
G0 X146.185 Y128.429
G0 X145.605 Y128.096
G0 X145.464 Y128.338
G1 F1500 E31.2938
G1 F1200 X145.889 Y128.536 E31.3094
G1 X146.343 Y128.658 E31.32503
G1 X146.801 Y128.698 E31.34032
G1 X147.282 Y128.659 E31.35638
G1 X147.662 Y128.556 E31.36947
G1 X147.775 Y128.518 E31.37344
G1 X148.161 Y128.338 E31.3876
G1 X148.548 Y128.068 E31.4033
G1 X148.881 Y127.735 E31.41896
G1 X149.15 Y127.349 E31.43461
G1 X149.349 Y126.924 E31.45022
G1 X149.471 Y126.469 E31.46588
G1 X149.511 Y126.012 E31.48114
G1 X149.472 Y125.533 E31.49713
G1 X149.349 Y125.075 E31.5129
G1 X149.15 Y124.652 E31.52845
G1 X148.881 Y124.266 E31.5441
G1 X148.548 Y123.932 E31.55978
G1 X148.161 Y123.662 E31.57548
G1 X147.736 Y123.464 E31.59107
G1 X147.282 Y123.342 E31.60671
G1 X146.825 Y123.302 E31.62197
G1 X146.344 Y123.341 E31.63802
G1 X145.961 Y123.445 E31.65122
G1 X145.85 Y123.482 E31.65511
G1 X145.461 Y123.662 E31.66936
G1 X145.078 Y123.933 E31.68497
G1 X144.744 Y124.265 E31.70063
G1 X144.475 Y124.652 E31.71631
G1 X144.276 Y125.075 E31.73186
G1 X144.153 Y125.532 E31.7476
G1 X144.114 Y126 E31.76322
G1 X144.153 Y126.468 E31.77884
G1 X144.276 Y126.924 E31.79454
G1 X144.475 Y127.349 E31.81015
G1 X144.744 Y127.735 E31.8258
G1 X145.078 Y128.068 E31.84149
G1 X145.464 Y128.338 E31.85716
G1 F1500 E25.35716
G0 F1200 X145.605 Y128.096
G0 X147.186 Y128.114
G0 X147.884 Y127.859
G0 X148.399 Y127.427
G0 X149.31 Y126.011
G0 X147.836 Y125.818
G0 X149.309 Y120.336
G0 X149.31 Y121.81
G0 X169.102 Y121.71
G0 X169.102 Y122.15
G1 F1500 E31.85716
G1 F1200 X169.662 Y122.71 E31.8835
G0 X169.662 Y123.276
G1 X168.536 Y122.15 E31.93646
G0 X167.971 Y122.15
G1 X169.662 Y123.841 E32.016
G0 X169.662 Y124.407
G1 X167.405 Y122.15 E32.12216
G0 X166.839 Y122.15
G1 X169.662 Y124.973 E32.25495
G0 X169.662 Y125.539
G1 X166.274 Y122.15 E32.41433
G0 X165.708 Y122.15
G1 X169.663 Y126.105 E32.60036
G0 X169.663 Y126.671
G1 X165.142 Y122.15 E32.81302
G0 X164.576 Y122.15
G1 X169.663 Y127.236 E33.05227
G0 X169.663 Y127.802
G1 X164.011 Y122.15 E33.31812
G0 X163.445 Y122.15
G1 X169.663 Y128.368 E33.6106
G0 X169.663 Y128.933
G1 X162.879 Y122.15 E33.92967
G0 X162.314 Y122.15
G1 X169.663 Y129.499 E34.27535
G0 X169.448 Y129.85
G1 X161.748 Y122.15 E34.63753
G0 X161.182 Y122.15
G1 X168.882 Y129.85 E34.99972
G0 X168.316 Y129.85
G1 X160.617 Y122.15 E35.36188
G0 X160.051 Y122.15
G1 X167.751 Y129.85 E35.72406
G0 X167.185 Y129.85
G1 X159.485 Y122.15 E36.08625
G0 X158.92 Y122.15
G1 X166.619 Y129.85 E36.44841
G0 X166.054 Y129.85
G1 X158.354 Y122.15 E36.81059
G0 X157.788 Y122.15
G1 X165.488 Y129.85 E37.17278
G0 X164.922 Y129.85
G1 X157.223 Y122.15 E37.53494
G0 X156.657 Y122.15
G1 X164.357 Y129.85 E37.89712
G0 X163.791 Y129.85
G1 X156.091 Y122.15 E38.25931
G0 X155.526 Y122.15
G1 X163.225 Y129.85 E38.62147
G0 X162.66 Y129.85
G1 X154.96 Y122.15 E38.98365
G0 X154.394 Y122.15
G1 X162.094 Y129.85 E39.34584
G0 X161.528 Y129.85
G1 X153.828 Y122.15 E39.70802
G0 X153.263 Y122.15
G1 X160.962 Y129.85 E40.07018
G0 X160.397 Y129.85
G1 X152.698 Y122.151 E40.43232
G0 X152.132 Y122.151
G1 X159.831 Y129.85 E40.79446
G0 X159.265 Y129.85
G1 X151.566 Y122.151 E41.15659
G0 X151.001 Y122.151
G1 X158.7 Y129.85 E41.51873
G0 X158.134 Y129.85
G1 X150.435 Y122.151 E41.88087
G0 X149.869 Y122.151
G1 X157.568 Y129.85 E42.24301
G0 X157.003 Y129.85
G1 X149.304 Y122.151 E42.60514
G0 X148.738 Y122.151
G1 X156.437 Y129.85 E42.96728
G0 X155.871 Y129.85
G1 X148.172 Y122.151 E43.32942
G0 X147.607 Y122.151
G1 X155.306 Y129.85 E43.69155
G0 X154.74 Y129.85
G1 X147.041 Y122.151 E44.05369
G0 X146.475 Y122.151
G1 X147.582 Y123.257 E44.10574
G0 X146.907 Y123.148
G1 X145.91 Y122.151 E44.15263
G0 X145.344 Y122.151
G1 X146.371 Y123.178 E44.20094
G0 X145.917 Y123.289
G1 X144.778 Y122.151 E44.25449
G0 X144.213 Y122.151
G1 X145.519 Y123.457 E44.31592
G0 X145.167 Y123.671
G1 X143.647 Y122.151 E44.38742
G0 X143.081 Y122.151
G1 X144.855 Y123.925 E44.47086
G0 X144.582 Y124.217
G1 X142.515 Y122.151 E44.56806
G0 X141.95 Y122.151
G1 X144.35 Y124.551 E44.68095
G0 X144.165 Y124.932
G1 X141.384 Y122.151 E44.81176
G0 X140.818 Y122.151
G1 X144.031 Y125.364 E44.96289
G0 X143.964 Y125.862
G1 X140.253 Y122.151 E45.13745
G0 X139.687 Y122.151
G1 X143.99 Y126.454 E45.33985
G0 X144.277 Y127.306
G1 X139.121 Y122.151 E45.58235
G0 X138.556 Y122.151
G1 X146.255 Y129.85 E45.94448
G0 X146.82 Y129.85
G1 X145.504 Y128.534 E46.00638
G0 X146.356 Y128.82
G1 X147.386 Y129.85 E46.05483
G0 X147.952 Y129.85
G1 X146.948 Y128.846 E46.10206
G0 X147.447 Y128.779
G1 X148.517 Y129.85 E46.15241
G0 X149.083 Y129.85
G1 X147.879 Y128.646 E46.20904
G0 X148.261 Y128.462
G1 X149.649 Y129.85 E46.27433
G0 X150.214 Y129.85
G1 X148.594 Y128.23 E46.35053
G0 X148.886 Y127.955
G1 X150.78 Y129.85 E46.43964
G0 X151.346 Y129.85
G1 X149.138 Y127.642 E46.5435
G0 X149.352 Y127.291
G1 X151.911 Y129.85 E46.66387
G0 X152.477 Y129.85
G1 X149.521 Y126.893 E46.80293
G0 X149.633 Y126.44
G1 X153.043 Y129.85 E46.96333
G0 X153.609 Y129.85
G1 X149.661 Y125.903 E47.149
G0 X149.555 Y125.231
G1 X154.174 Y129.85 E47.36627
G0 X154.174 Y130.29
G0 X145.689 Y130.29
G0 X145.689 Y129.85
G1 X137.99 Y122.151 E47.72841
G0 X137.424 Y122.151
G1 X145.123 Y129.85 E48.09054
G0 X144.558 Y129.85
G1 X136.859 Y122.151 E48.45268
G0 X136.569 Y122.427
G1 X143.992 Y129.85 E48.80184
G0 X143.426 Y129.85
G1 X136.434 Y122.857 E49.13074
G0 X136.298 Y123.287
G1 X142.861 Y129.85 E49.43944
G0 X142.295 Y129.85
G1 X136.162 Y123.717 E49.72792
G0 X136.027 Y124.148
G1 X141.729 Y129.85 E49.99613
G0 X141.163 Y129.85
G1 X135.891 Y124.578 E50.24411
G0 X135.756 Y125.007
G1 X140.598 Y129.85 E50.47188
G0 X140.032 Y129.85
G1 X135.62 Y125.437 E50.67943
G0 X135.485 Y125.868
G1 X139.466 Y129.85 E50.86671
G0 X138.901 Y129.85
G1 X135.349 Y126.298 E51.03378
G0 X135.213 Y126.728
G1 X138.335 Y129.85 E51.18063
G0 X137.769 Y129.85
G1 X135.078 Y127.159 E51.30721
G0 X134.942 Y127.588
G1 X137.204 Y129.85 E51.41361
G0 X136.638 Y129.85
G1 X134.807 Y128.018 E51.49976
G0 X134.672 Y128.449
G1 X135.927 Y129.705 E51.55881
G0 X135.527 Y129.87
G1 X134.536 Y128.879 E51.60542
G0 X134.4 Y129.309
G1 X135.127 Y130.036 E51.63962
G0 X134.727 Y130.201
G1 X134.265 Y129.739 E51.66135
G0 X134.129 Y130.169
G1 X134.662 Y130.702 E51.68642
G0 X134.556 Y131.161
G1 X133.993 Y130.599 E51.71288
G0 X133.858 Y131.029
G1 X134.42 Y131.591 E51.73932
G0 X134.284 Y132.021
G1 X133.723 Y131.46 E51.7657
G0 X133.587 Y131.89
G1 X134.149 Y132.452 E51.79214
G0 X134.013 Y132.882
G1 X133.451 Y132.32 E51.81857
G0 X133.316 Y132.75
G1 X133.877 Y133.312 E51.84498
G0 X133.742 Y133.742
G1 X133.18 Y133.18 E51.87142
G0 X133.044 Y133.61
G1 X133.607 Y134.172 E51.89788
G0 X133.471 Y134.602
G1 X132.909 Y134.041 E51.92429
G0 X132.774 Y134.471
G1 X133.335 Y135.032 E51.95068
G0 X133.2 Y135.463
G1 X132.638 Y134.901 E51.97711
G0 X132.502 Y135.331
G1 X133.064 Y135.893 E52.00355
G0 X132.929 Y136.323
G1 X132.367 Y135.761 E52.02998
G0 X132.231 Y136.191
G1 X132.793 Y136.753 E52.05641
G0 X132.658 Y137.183
G1 X132.096 Y136.621 E52.08285
G0 X131.96 Y137.052
G1 X132.522 Y137.613 E52.10926
