;FLAVOR:Marlin
;TIME:18126
;Filament used: 14.9326m
;Layer height: 0.2
;MINX:53.674
;MINY:64.009
;MINZ:0.2
;MAXX:246.346
;MAXY:236.035
;MAXZ:9.8
;Generated with Cura_SteamEngine 4.10.0
M140 S60
M105
M190 S60
M104 S200
M105
M109 S200
M82 ;absolute extrusion mode
; Ender 3 Custom Start G-code
G92 E0 ; Reset Extruder
G28 ; Home all axes
G1 Z2.0 F3000 ; Move Z Axis up little to prevent scratching of Heat Bed
G1 X0.1 Y20 Z0.3 F5000.0 ; Move to start position
G1 X0.1 Y200.0 Z0.3 F1500.0 E15 ; Draw the first line
G1 X0.4 Y200.0 Z0.3 F5000.0 ; Move to side a little
G1 X0.4 Y20 Z0.3 F1500.0 E30 ; Draw the second line
G92 E0 ; Reset Extruder
G1 Z2.0 F3000 ; Move Z Axis up little to prevent scratching of Heat Bed
G1 X5 Y20 Z0.3 F5000.0 ; Move over to prevent blob squish
G92 E0
G92 E0
G1 F1500 E-6.5
;LAYER_COUNT:50
;LAYER:0
M107
;MESH:mirfa9.STL(1)
G0 F1200 X102.874 Y179.379 Z0.2
;TYPE:WALL-INNER
G1 F1500 E0
G1 F1200 X102.675 Y179.379 E0.00662
G1 X54.274 Y179.38 E1.61644
G1 X54.075 Y179.38 E1.62306
G1 X54.075 Y179.181 E1.62734
G1 X54.074 Y120.581 E3.57639
G1 X57.674 Y120.58 E3.69612
G1 X57.873 Y120.58 E3.70274
G1 X57.873 Y120.779 E3.70703
G1 X57.874 Y175.58 E5.52971
G1 X102.873 Y175.58 E7.02639
G1 X102.874 Y179.18 E7.14612
G1 X102.874 Y179.379 E7.15041
G0 X103.274 Y179.779
;TYPE:WALL-OUTER
G1 X53.675 Y179.78 E8.80007
G1 X53.674 Y120.181 E10.78235
G1 X58.273 Y120.18 E10.93531
G1 X58.274 Y175.18 E12.76462
G1 X103.273 Y175.18 E14.26129
G1 X103.274 Y179.779 E14.41425
G0 X103.004 Y179.509
G0 X102.764 Y178.989
G0 X102.484 Y178.989
;TYPE:SKIN
G1 X54.465 Y178.99 E16.01137
G1 X54.464 Y120.971 E17.94109
G1 X57.483 Y120.97 E18.0415
G1 X57.484 Y175.97 E19.87081
G1 X102.483 Y175.97 E21.36748
G1 X102.484 Y178.989 E21.4679
G1 F1500 E14.9679
G0 F1200 X102.764 Y178.989
G0 X54.943 Y179.27
G0 X54.943 Y178.828
G1 F1500 E21.4679
G1 F1200 X54.623 Y178.509 E21.48292
G0 X54.623 Y177.943
G1 X55.509 Y178.828 E21.52458
G0 X56.074 Y178.828
G1 X54.623 Y177.377 E21.59283
G0 X54.623 Y176.812
G1 X56.64 Y178.828 E21.68768
G0 X57.206 Y178.828
G1 X54.623 Y176.246 E21.80915
G0 X54.623 Y175.68
G1 X57.772 Y178.828 E21.95724
G0 X58.337 Y178.828
G1 X54.623 Y175.114 E22.13194
G0 X54.623 Y174.549
G1 X58.903 Y178.828 E22.33323
G0 X59.469 Y178.828
G1 X54.623 Y173.983 E22.56115
G0 X54.623 Y173.417
G1 X57.323 Y176.117 E22.68815
G0 X57.335 Y176.129
G1 X60.034 Y178.828 E22.8151
G0 X60.6 Y178.828
G1 X57.901 Y176.129 E22.94206
G0 X58.467 Y176.129
G1 X61.166 Y178.828 E23.06901
G0 X61.731 Y178.828
G1 X59.032 Y176.129 E23.19596
G0 X59.598 Y176.129
G1 X62.297 Y178.828 E23.32291
G0 X62.863 Y178.828
G1 X60.164 Y176.129 E23.44987
G0 X60.729 Y176.129
G1 X63.428 Y178.828 E23.57682
G0 X63.994 Y178.828
G1 X61.295 Y176.129 E23.70377
G0 X61.861 Y176.129
G1 X64.56 Y178.828 E23.83073
G0 X65.125 Y178.828
G1 X62.426 Y176.129 E23.95768
G0 X62.992 Y176.129
G1 X65.691 Y178.828 E24.08463
G0 X66.257 Y178.828
G1 X63.558 Y176.129 E24.21158
G0 X64.123 Y176.129
G1 X66.823 Y178.828 E24.33856
G0 X67.388 Y178.828
G1 X64.689 Y176.129 E24.46551
G0 X65.255 Y176.129
G1 X67.954 Y178.828 E24.59247
G0 X68.52 Y178.828
G1 X65.821 Y176.129 E24.71942
G0 X66.386 Y176.129
G1 X69.085 Y178.828 E24.84637
G0 X69.651 Y178.828
G1 X66.952 Y176.129 E24.97332
G0 X67.518 Y176.129
G1 X70.217 Y178.828 E25.10028
G0 X70.782 Y178.828
G1 X68.083 Y176.129 E25.22723
G0 X68.649 Y176.129
G1 X71.348 Y178.828 E25.35418
G0 X71.914 Y178.828
G1 X69.215 Y176.129 E25.48113
G0 X69.78 Y176.129
G1 X72.479 Y178.828 E25.60809
G0 X73.045 Y178.828
G1 X70.346 Y176.129 E25.73504
G0 X70.912 Y176.129
G1 X73.611 Y178.828 E25.86199
G0 X74.176 Y178.828
G1 X71.477 Y176.129 E25.98894
G0 X72.043 Y176.129
G1 X74.742 Y178.828 E26.1159
G0 X75.308 Y178.828
G1 X72.609 Y176.129 E26.24285
G0 X73.174 Y176.129
G1 X75.873 Y178.828 E26.3698
G0 X76.439 Y178.828
G1 X73.74 Y176.129 E26.49676
G0 X74.306 Y176.129
G1 X77.005 Y178.828 E26.62371
G0 X77.571 Y178.828
G1 X74.872 Y176.129 E26.75066
G0 X75.437 Y176.129
G1 X78.136 Y178.828 E26.87761
G0 X78.702 Y178.828
G1 X76.003 Y176.129 E27.00457
G0 X76.569 Y176.129
G1 X79.268 Y178.828 E27.13152
G0 X79.833 Y178.828
G1 X77.134 Y176.129 E27.25847
G0 X77.7 Y176.129
G1 X80.399 Y178.828 E27.38542
G0 X80.965 Y178.828
G1 X78.266 Y176.129 E27.51238
G0 X78.831 Y176.129
G1 X81.53 Y178.828 E27.63933
G0 X82.096 Y178.828
G1 X79.397 Y176.129 E27.76628
G0 X79.963 Y176.129
G1 X82.662 Y178.828 E27.89324
G0 X83.227 Y178.828
G1 X80.528 Y176.129 E28.02019
G0 X81.094 Y176.129
G1 X83.793 Y178.828 E28.14714
G0 X84.359 Y178.828
G1 X81.66 Y176.129 E28.27409
G0 X82.225 Y176.129
G1 X84.924 Y178.828 E28.40105
G0 X85.49 Y178.828
G1 X82.791 Y176.129 E28.528
G0 X83.357 Y176.129
G1 X86.056 Y178.828 E28.65495
G0 X86.621 Y178.828
G1 X83.922 Y176.129 E28.7819
G0 X84.488 Y176.129
G1 X87.187 Y178.828 E28.90886
G0 X87.753 Y178.828
G1 X85.054 Y176.129 E29.03581
G0 X85.62 Y176.129
G1 X88.319 Y178.828 E29.16276
G0 X88.884 Y178.828
G1 X86.185 Y176.129 E29.28971
G0 X86.751 Y176.129
G1 X89.45 Y178.828 E29.41667
G0 X90.016 Y178.828
G1 X87.317 Y176.129 E29.54362
G0 X87.882 Y176.129
G1 X90.581 Y178.828 E29.67057
G0 X91.147 Y178.828
G1 X88.448 Y176.129 E29.79753
G0 X89.014 Y176.129
G1 X91.713 Y178.828 E29.92448
G0 X92.278 Y178.828
G1 X89.579 Y176.129 E30.05143
G0 X90.145 Y176.129
G1 X92.844 Y178.828 E30.17838
G0 X93.41 Y178.828
G1 X90.711 Y176.129 E30.30534
G0 X91.276 Y176.129
G1 X93.975 Y178.828 E30.43229
G0 X94.541 Y178.828
G1 X91.842 Y176.129 E30.55924
G0 X92.408 Y176.129
G1 X95.107 Y178.828 E30.68619
G0 X95.672 Y178.828
G1 X92.973 Y176.129 E30.81315
G0 X93.539 Y176.129
G1 X96.238 Y178.828 E30.9401
G0 X96.804 Y178.828
G1 X94.105 Y176.129 E31.06705
G0 X94.67 Y176.129
G1 X97.37 Y178.828 E31.19403
G0 X97.935 Y178.828
G1 X95.236 Y176.129 E31.32098
G0 X95.802 Y176.129
G1 X98.501 Y178.828 E31.44793
G0 X99.067 Y178.828
G1 X96.368 Y176.129 E31.57489
G0 X96.933 Y176.129
G1 X99.632 Y178.828 E31.70184
G0 X100.198 Y178.828
G1 X97.499 Y176.129 E31.82879
G0 X98.065 Y176.129
G1 X100.764 Y178.828 E31.95574
G0 X101.329 Y178.828
G1 X98.63 Y176.129 E32.0827
G0 X99.196 Y176.129
G1 X101.895 Y178.828 E32.20965
G0 X102.324 Y178.691
G1 X99.762 Y176.129 E32.33016
G0 X100.327 Y176.129
G1 X102.324 Y178.125 E32.42407
G0 X102.324 Y177.56
G1 X100.893 Y176.129 E32.49138
G0 X101.459 Y176.129
G1 X102.324 Y176.994 E32.53206
G0 X102.324 Y176.428
G1 X102.024 Y176.129 E32.54615
G1 F1500 E26.04615
G0 F1200 X102.024 Y175.69
G0 X57.764 Y175.551
G0 X57.323 Y175.551
G1 F1500 E32.54615
G1 F1200 X54.623 Y172.852 E32.67313
G0 X54.623 Y172.286
G1 X57.323 Y174.986 E32.80013
G0 X57.323 Y174.42
G1 X54.623 Y171.72 E32.92713
G0 X54.623 Y171.155
G1 X57.323 Y173.854 E33.0541
G0 X57.323 Y173.289
G1 X54.623 Y170.589 E33.1811
G0 X54.623 Y170.023
G1 X57.323 Y172.723 E33.3081
G0 X57.323 Y172.157
G1 X54.623 Y169.458 E33.43508
G0 X54.623 Y168.892
G1 X57.323 Y171.592 E33.56208
G0 X57.323 Y171.026
G1 X54.623 Y168.326 E33.68908
G0 X54.623 Y167.761
G1 X57.323 Y170.46 E33.81606
G0 X57.323 Y169.895
G1 X54.623 Y167.195 E33.94305
G0 X54.623 Y166.629
G1 X57.323 Y169.329 E34.07005
G0 X57.323 Y168.763
G1 X54.623 Y166.064 E34.19703
G0 X54.623 Y165.498
G1 X57.323 Y168.198 E34.32403
G0 X57.323 Y167.632
G1 X54.623 Y164.932 E34.45103
G0 X54.623 Y164.366
G1 X57.323 Y167.066 E34.57803
G0 X57.323 Y166.501
G1 X54.623 Y163.801 E34.70503
G0 X54.623 Y163.235
G1 X57.323 Y165.935 E34.83203
G0 X57.323 Y165.369
G1 X54.623 Y162.669 E34.95903
G0 X54.623 Y162.104
G1 X57.323 Y164.803 E35.08601
G0 X57.323 Y164.238
G1 X54.623 Y161.538 E35.21301
G0 X54.623 Y160.972
G1 X57.323 Y163.672 E35.34
G0 X57.323 Y163.106
G1 X54.623 Y160.407 E35.46698
G0 X54.623 Y159.841
G1 X57.323 Y162.541 E35.59398
G0 X57.323 Y161.975
G1 X54.623 Y159.275 E35.72098
G0 X54.623 Y158.71
G1 X57.323 Y161.409 E35.84796
G0 X57.323 Y160.844
G1 X54.623 Y158.144 E35.97496
G0 X54.623 Y157.578
G1 X57.323 Y160.278 E36.10196
G0 X57.323 Y159.712
G1 X54.623 Y157.013 E36.22893
G0 X54.623 Y156.447
G1 X57.323 Y159.147 E36.35593
G0 X57.323 Y158.581
G1 X54.623 Y155.881 E36.48293
G0 X54.623 Y155.316
G1 X57.323 Y158.015 E36.60991
G0 X57.323 Y157.45
G1 X54.623 Y154.75 E36.73691
G0 X54.623 Y154.184
G1 X57.323 Y156.884 E36.86391
G0 X57.323 Y156.318
G1 X54.623 Y153.618 E36.99091
G0 X54.623 Y153.053
G1 X57.323 Y155.752 E37.11788
G0 X57.323 Y155.187
G1 X54.623 Y152.487 E37.24488
G0 X54.623 Y151.921
G1 X57.323 Y154.621 E37.37188
G0 X57.323 Y154.055
G1 X54.623 Y151.356 E37.49886
G0 X54.623 Y150.79
G1 X57.323 Y153.49 E37.62586
G0 X57.323 Y152.924
G1 X54.623 Y150.224 E37.75286
G0 X54.623 Y149.659
G1 X57.323 Y152.358 E37.87983
G0 X57.323 Y151.793
G1 X54.623 Y149.093 E38.00683
G0 X54.623 Y148.527
G1 X57.323 Y151.227 E38.13383
G0 X57.323 Y150.661
G1 X54.623 Y147.962 E38.26081
G0 X54.623 Y147.396
G1 X57.323 Y150.096 E38.38781
G0 X57.323 Y149.53
G1 X54.623 Y146.83 E38.51481
G0 X54.623 Y146.265
G1 X57.323 Y148.964 E38.64179
G0 X57.323 Y148.399
G1 X54.623 Y145.699 E38.76879
G0 X54.623 Y145.133
G1 X57.323 Y147.833 E38.89579
G0 X57.323 Y147.267
G1 X54.623 Y144.567 E39.02279
G0 X54.623 Y144.002
G1 X57.323 Y146.702 E39.14978
G0 X57.323 Y146.136
G1 X54.623 Y143.436 E39.27678
G0 X54.623 Y142.87
G1 X57.323 Y145.57 E39.40378
G0 X57.323 Y145.004
G1 X54.623 Y142.305 E39.53076
G0 X54.623 Y141.739
G1 X57.323 Y144.439 E39.65776
G0 X57.323 Y143.873
G1 X54.623 Y141.173 E39.78476
G0 X54.623 Y140.608
G1 X57.323 Y143.307 E39.91174
G0 X57.323 Y142.742
G1 X54.623 Y140.042 E40.03874
G0 X54.623 Y139.476
G1 X57.323 Y142.176 E40.16574
G0 X57.323 Y141.61
G1 X54.623 Y138.911 E40.29271
G0 X54.623 Y138.345
G1 X57.323 Y141.045 E40.41971
G0 X57.323 Y140.479
G1 X54.623 Y137.779 E40.54671
G0 X54.623 Y137.214
G1 X57.323 Y139.913 E40.67369
G0 X57.323 Y139.348
G1 X54.623 Y136.648 E40.80069
G0 X54.623 Y136.082
G1 X57.323 Y138.782 E40.92769
G0 X57.323 Y138.216
G1 X54.623 Y135.517 E41.05466
G0 X54.623 Y134.951
G1 X57.323 Y137.651 E41.18166
G0 X57.323 Y137.085
G1 X54.623 Y134.385 E41.30866
G0 X54.623 Y133.819
G1 X57.323 Y136.519 E41.43566
G0 X57.323 Y135.954
G1 X54.623 Y133.254 E41.56266
G0 X54.623 Y132.688
G1 X57.323 Y135.388 E41.68966
G0 X57.323 Y134.822
G1 X54.623 Y132.122 E41.81666
G0 X54.623 Y131.557
G1 X57.323 Y134.256 E41.94364
G0 X57.323 Y133.691
G1 X54.623 Y130.991 E42.07064
G0 X54.623 Y130.425
G1 X57.323 Y133.125 E42.19764
G0 X57.323 Y132.559
G1 X54.623 Y129.86 E42.32461
G0 X54.623 Y129.294
G1 X57.323 Y131.994 E42.45161
G0 X57.323 Y131.428
G1 X54.623 Y128.728 E42.57861
G0 X54.623 Y128.163
G1 X57.323 Y130.862 E42.70559
G0 X57.323 Y130.297
G1 X54.623 Y127.597 E42.83259
G0 X54.623 Y127.031
G1 X57.323 Y129.731 E42.95959
G0 X57.323 Y129.165
G1 X54.623 Y126.466 E43.08656
G0 X54.623 Y125.9
G1 X57.323 Y128.6 E43.21356
G0 X57.323 Y128.034
G1 X54.623 Y125.334 E43.34056
G0 X54.623 Y124.768
G1 X57.323 Y127.468 E43.46756
G0 X57.323 Y126.903
G1 X54.623 Y124.203 E43.59456
G0 X54.623 Y123.637
G1 X57.323 Y126.337 E43.72156
G0 X57.323 Y125.771
G1 X54.623 Y123.071 E43.84856
G0 X54.623 Y122.506
G1 X57.323 Y125.205 E43.97554
G0 X57.323 Y124.64
G1 X54.623 Y121.94 E44.10254
G0 X54.623 Y121.374
G1 X57.323 Y124.074 E44.22954
G0 X57.323 Y123.508
G1 X54.945 Y121.13 E44.34139
G0 X55.51 Y121.13
G1 X57.323 Y122.943 E44.42667
G0 X57.323 Y122.377
G1 X56.076 Y121.13 E44.48533
G0 X56.642 Y121.13
G1 X57.323 Y121.811 E44.51736
G0 X57.323 Y121.246
G1 X57.207 Y121.13 E44.52281
G0 X57.206 Y120.781
G1 F1500 E38.02281
;MESH:seat_back.STL
G0 F1200 X57.207 Y120.69
G0 X57.691 Y120.762
G0 X58.046 Y175.408
G0 X102.691 Y175.762
G0 X103.054 Y179.559
G0 X105.451 Y179.559
G0 X105.651 Y199.414
;TYPE:WALL-INNER
G1 F1500 E44.52281
G1 F1200 X105.651 Y199.215 E44.52943
G1 X105.65 Y100.615 E47.80888
G1 X194.25 Y100.614 E50.75573
G1 X194.449 Y100.614 E50.76235
G1 X194.449 Y100.813 E50.76663
G1 X194.45 Y199.413 E54.04608
G1 X105.85 Y199.414 E56.99293
G1 X105.651 Y199.414 E56.99721
G0 X105.251 Y199.814
;TYPE:WALL-OUTER
G1 X105.25 Y100.215 E60.30989
G1 X194.849 Y100.214 E63.28996
G1 X194.85 Y199.813 E66.60264
G1 X105.251 Y199.814 E69.58271
G0 X105.521 Y199.544
G0 X106.041 Y199.304
G0 X106.041 Y199.024
;TYPE:SKIN
G1 X106.04 Y101.005 E72.84284
G1 X194.059 Y101.004 E75.77036
G1 X194.06 Y199.023 E79.03049
G1 X106.041 Y199.024 E81.95801
G0 X106.655 Y198.862
G1 X106.2 Y198.407 E81.97941
G0 X106.2 Y197.841
G1 X107.221 Y198.862 E82.02744
G0 X107.787 Y198.862
G1 X106.2 Y197.275 E82.10208
G0 X106.2 Y196.71
G1 X108.352 Y198.862 E82.20331
G0 X108.918 Y198.862
G1 X106.2 Y196.144 E82.33115
G0 X106.2 Y195.578
G1 X109.484 Y198.862 E82.48562
G0 X110.049 Y198.862
G1 X106.2 Y195.012 E82.66669
G0 X106.2 Y194.447
G1 X110.615 Y198.862 E82.87436
G0 X111.181 Y198.862
G1 X106.2 Y193.881 E83.10865
G0 X106.2 Y193.315
G1 X111.746 Y198.862 E83.36954
G0 X112.312 Y198.862
G1 X106.2 Y192.75 E83.65703
G0 X106.2 Y192.184
G1 X112.878 Y198.862 E83.97114
G0 X113.443 Y198.862
G1 X106.2 Y191.618 E84.31186
G0 X106.2 Y191.053
G1 X114.009 Y198.862 E84.67917
G0 X114.575 Y198.862
G1 X106.2 Y190.487 E85.0731
G0 X106.2 Y189.921
G1 X115.141 Y198.862 E85.49366
G0 X115.706 Y198.862
G1 X106.2 Y189.356 E85.94079
G0 X106.2 Y188.79
G1 X116.272 Y198.862 E86.41455
G0 X116.838 Y198.862
G1 X106.2 Y188.224 E86.91493
G0 X106.2 Y187.659
G1 X117.403 Y198.862 E87.44188
G0 X117.969 Y198.862
G1 X106.2 Y187.093 E87.99546
G0 X106.2 Y186.527
G1 X118.535 Y198.862 E88.57566
G0 X119.1 Y198.862
G1 X106.2 Y185.962 E89.18244
G0 X106.2 Y185.396
G1 X119.666 Y198.862 E89.81584
G0 X120.232 Y198.862
G1 X106.2 Y184.83 E90.47586
G0 X106.2 Y184.264
G1 X120.797 Y198.862 E91.16248
G0 X121.363 Y198.862
G1 X106.2 Y183.699 E91.8757
G0 X106.2 Y183.133
G1 X121.929 Y198.862 E92.61555
G0 X122.494 Y198.862
G1 X106.2 Y182.567 E93.38199
G0 X106.2 Y182.002
G1 X123.06 Y198.862 E94.17503
G0 X123.626 Y198.862
G1 X106.2 Y181.436 E94.9947
G0 X106.2 Y180.87
G1 X124.191 Y198.862 E95.84096
G0 X124.757 Y198.862
G1 X106.2 Y180.305 E96.71383
G0 X106.2 Y179.739
G1 X125.323 Y198.862 E97.61331
G0 X125.889 Y198.862
G1 X106.2 Y179.173 E98.53942
G0 X106.2 Y178.608
G1 X126.454 Y198.862 E99.49211
G0 X127.02 Y198.862
G1 X106.2 Y178.042 E100.47142
G0 X106.2 Y177.476
G1 X127.586 Y198.862 E101.47735
G0 X128.151 Y198.862
G1 X106.2 Y176.911 E102.50986
G0 X106.2 Y176.345
G1 X128.717 Y198.862 E103.56899
G0 X129.283 Y198.862
G1 X106.2 Y175.779 E104.65474
G0 X106.2 Y175.213
G1 X129.848 Y198.862 E105.7671
G0 X130.414 Y198.862
G1 X106.2 Y174.648 E106.90605
G0 X106.2 Y174.082
G1 X130.98 Y198.862 E108.07162
G0 X131.545 Y198.862
G1 X106.2 Y173.516 E109.2638
G0 X106.2 Y172.951
G1 X132.111 Y198.862 E110.48257
G0 X132.677 Y198.862
G1 X106.2 Y172.385 E111.72797
G0 X106.2 Y171.819
G1 X133.242 Y198.862 E112.99996
G0 X133.808 Y198.862
G1 X106.2 Y171.254 E114.29856
G0 X106.2 Y170.688
G1 X134.374 Y198.862 E115.62378
G0 X134.94 Y198.862
G1 X106.2 Y170.122 E116.97562
G0 X106.2 Y169.557
G1 X135.505 Y198.862 E118.35404
G0 X136.071 Y198.862
G1 X106.2 Y168.991 E119.75908
G0 X106.2 Y168.425
G1 X136.637 Y198.862 E121.19074
G0 X137.202 Y198.862
G1 X106.2 Y167.86 E122.64898
G0 X106.2 Y167.294
G1 X137.768 Y198.862 E124.13384
G0 X138.334 Y198.862
G1 X106.2 Y166.728 E125.64533
G0 X106.2 Y166.163
G1 X138.899 Y198.862 E127.18339
G0 X139.465 Y198.862
G1 X106.2 Y165.597 E128.74807
G0 X106.2 Y165.031
G1 X140.031 Y198.862 E130.33938
G0 X140.596 Y198.862
G1 X106.2 Y164.465 E131.95728
G0 X106.2 Y163.9
G1 X141.162 Y198.862 E133.60179
G0 X141.728 Y198.862
G1 X106.2 Y163.334 E135.27292
G0 X106.2 Y162.768
G1 X142.293 Y198.862 E136.97064
G0 X142.859 Y198.862
G1 X106.2 Y162.203 E138.69497
G0 X106.2 Y161.637
G1 X143.425 Y198.862 E140.44592
G0 X143.99 Y198.862
G1 X106.2 Y161.071 E142.22347
G0 X106.2 Y160.506
G1 X144.556 Y198.862 E144.02762
G0 X145.122 Y198.862
G1 X106.2 Y159.94 E145.85839
G0 X106.2 Y159.374
G1 X145.688 Y198.862 E147.71579
G0 X146.253 Y198.862
G1 X106.2 Y158.809 E149.59976
G0 X106.2 Y158.243
G1 X146.819 Y198.862 E151.51035
G0 X147.385 Y198.862
G1 X106.2 Y157.677 E153.44757
G0 X106.2 Y157.112
G1 X147.95 Y198.862 E155.41136
G0 X148.516 Y198.862
G1 X106.2 Y156.546 E157.40177
G0 X106.2 Y155.98
G1 X149.082 Y198.862 E159.41881
G0 X149.647 Y198.862
G1 X106.2 Y155.414 E161.46245
G0 X106.2 Y154.849
G1 X150.213 Y198.862 E163.53268
G0 X150.779 Y198.862
