;FLAVOR:Marlin
;TIME:11230
;Filament used: 7.12441m
;Layer height: 0.2
;MINX:100.837
;MINY:100.837
;MINZ:0.2
;MAXX:199.587
;MAXY:199.585
;MAXZ:9.8
;Generated with Cura_SteamEngine 4.10.0
M140 S60
M105
M190 S60
M104 S200
M105
M109 S200
M82 ;absolute extrusion mode
; Ender 3 Custom Start G-code
G92 E0 ; Reset Extruder
G28 ; Home all axes
G1 Z2.0 F3000 ; Move Z Axis up little to prevent scratching of Heat Bed
G1 X0.1 Y20 Z0.3 F5000.0 ; Move to start position
G1 X0.1 Y200.0 Z0.3 F1500.0 E15 ; Draw the first line
G1 X0.4 Y200.0 Z0.3 F5000.0 ; Move to side a little
G1 X0.4 Y20 Z0.3 F1500.0 E30 ; Draw the second line
G92 E0 ; Reset Extruder
G1 Z2.0 F3000 ; Move Z Axis up little to prevent scratching of Heat Bed
G1 X5 Y20 Z0.3 F5000.0 ; Move over to prevent blob squish
G92 E0
G92 E0
G1 F1500 E-6.5
;LAYER_COUNT:50
;LAYER:0
M107
;MESH:WHEEL.STL
G0 F1200 X133.465 Y192.378 Z0.2
;TYPE:WALL-INNER
G1 F1500 E0
G1 F1200 X134.19 Y192.216 E0.02471
G1 X134.876 Y191.931 E0.04942
G1 X135.503 Y191.53 E0.07417
G1 X136.048 Y191.027 E0.09884
G1 X136.501 Y190.437 E0.12358
G1 X136.838 Y189.784 E0.14802
G1 X146.456 Y162.05 E1.12435
G1 X143.417 Y160.696 E1.23501
G1 X129.242 Y186.402 E2.21136
G1 X128.983 Y187.09 E2.23581
G1 X128.846 Y187.82 E2.26052
G1 X128.839 Y188.563 E2.28523
G1 X128.96 Y189.296 E2.30994
G1 X129.206 Y189.997 E2.33465
G1 X129.571 Y190.644 E2.35936
G1 X130.042 Y191.218 E2.38405
G1 X130.606 Y191.702 E2.40877
G1 X131.26 Y192.09 E2.43407
G1 X131.986 Y192.316 E2.45936
G1 X132.723 Y192.412 E2.48407
G1 X133.465 Y192.378 E2.50878
G0 X133.412 Y191.98
;TYPE:WALL-OUTER
G1 X134.069 Y191.833 E2.53117
G1 X134.69 Y191.575 E2.55354
G1 X135.258 Y191.212 E2.57596
G1 X135.752 Y190.756 E2.59832
G1 X136.162 Y190.222 E2.62071
G1 X136.469 Y189.626 E2.64301
G1 X145.958 Y162.266 E3.60618
G1 X143.59 Y161.211 E3.69241
G1 X129.606 Y186.57 E4.65559
G1 X129.37 Y187.198 E4.6779
G1 X129.246 Y187.859 E4.70027
G1 X129.239 Y188.532 E4.72266
G1 X129.349 Y189.196 E4.74504
G1 X129.572 Y189.831 E4.76743
G1 X129.902 Y190.417 E4.7898
G1 X130.329 Y190.937 E4.81217
G1 X130.84 Y191.376 E4.83458
G1 X131.424 Y191.722 E4.85716
G1 X132.072 Y191.924 E4.87973
G1 X132.74 Y192.011 E4.90214
G1 X133.412 Y191.98 E4.92451
G0 X133.47 Y192.416
G1 F1500 E-1.57549
G0 F1200 X132.021 Y192.159
G0 X131.326 Y191.942
G0 X130.7 Y191.571
G0 X130.157 Y191.104
G0 X129.703 Y190.552
G0 X129.42 Y190.049
G0 X128.655 Y187.8
G0 X130.109 Y187.941
G0 X122.147 Y181.895
G0 X123.021 Y183.065
G0 X121.582 Y183.576
;TYPE:WALL-INNER
G1 F1500 E4.92451
G1 F1200 X122.273 Y183.302 E4.94924
G1 X122.906 Y182.912 E4.97397
G1 X123.455 Y182.426 E4.99835
G1 X142.374 Y159.979 E5.97475
G1 X140.021 Y157.626 E6.08543
G1 X117.574 Y176.545 E7.06182
G1 X117.088 Y177.094 E7.08621
G1 X116.698 Y177.727 E7.11094
G1 X116.424 Y178.418 E7.13566
G1 X116.275 Y179.146 E7.16038
G1 X116.254 Y179.889 E7.1851
G1 X116.362 Y180.623 E7.20978
G1 X116.596 Y181.329 E7.23451
G1 X116.95 Y181.983 E7.25925
G1 X117.422 Y182.578 E7.28451
G1 X118.017 Y183.05 E7.30977
G1 X118.671 Y183.404 E7.3345
G1 X119.377 Y183.638 E7.35924
G1 X120.111 Y183.746 E7.38392
G1 X120.854 Y183.725 E7.40864
G1 X121.582 Y183.576 E7.43336
G0 X121.467 Y183.191
;TYPE:WALL-OUTER
G1 X122.093 Y182.943 E7.45575
G1 X122.667 Y182.59 E7.47816
G1 X123.168 Y182.146 E7.50043
G1 X141.831 Y160.002 E8.46363
G1 X139.998 Y158.169 E8.54985
G1 X117.854 Y176.832 E9.51305
G1 X117.41 Y177.333 E9.53532
G1 X117.057 Y177.907 E9.55773
G1 X116.809 Y178.533 E9.58013
G1 X116.674 Y179.192 E9.6025
G1 X116.655 Y179.865 E9.62489
G1 X116.753 Y180.53 E9.64725
G1 X116.965 Y181.17 E9.66967
G1 X117.285 Y181.762 E9.69206
G1 X117.707 Y182.293 E9.71462
G1 X118.238 Y182.715 E9.73718
G1 X118.83 Y183.035 E9.75956
G1 X119.47 Y183.247 E9.78198
G1 X120.135 Y183.345 E9.80434
G1 X120.808 Y183.326 E9.82673
G1 X121.467 Y183.191 E9.84911
G0 X121.592 Y183.612
G1 F1500 E3.34911
G0 F1200 X120.121 Y183.584
G0 X119.415 Y183.48
G0 X118.735 Y183.255
G0 X118.105 Y182.916
G0 X117.537 Y182.463
G0 X117.084 Y181.895
G0 X116.745 Y181.265
G0 X116.52 Y180.585
G0 X116.416 Y179.879
G0 X116.436 Y179.165
G0 X116.551 Y178.598
G0 X117.44 Y176.408
G0 X118.46 Y177.452
G0 X113.069 Y169.607
G0 X113.678 Y170.931
G0 X112.91 Y171.017
;TYPE:WALL-INNER
G1 F1500 E9.84911
G1 F1200 X113.598 Y170.758 E9.87356
G1 X139.304 Y156.584 E10.8499
G1 X138.13 Y153.947 E10.94591
G1 X137.785 Y153.601 E10.96216
G1 X110.216 Y163.162 E11.93268
G1 X109.563 Y163.499 E11.95712
G1 X108.973 Y163.952 E11.98186
G1 X108.47 Y164.497 E12.00653
G1 X108.069 Y165.124 E12.03128
G1 X107.784 Y165.81 E12.05599
G1 X107.622 Y166.535 E12.0807
G1 X107.588 Y167.277 E12.1054
G1 X107.684 Y168.014 E12.13012
G1 X107.91 Y168.74 E12.15541
G1 X108.298 Y169.394 E12.18071
G1 X108.782 Y169.958 E12.20543
G1 X109.356 Y170.429 E12.23012
G1 X110.003 Y170.794 E12.25483
G1 X110.704 Y171.04 E12.27954
G1 X111.437 Y171.161 E12.30425
G1 X112.18 Y171.154 E12.32896
G1 X112.91 Y171.017 E12.35366
G0 X112.802 Y170.63
;TYPE:WALL-OUTER
G1 X113.43 Y170.394 E12.37598
G1 X138.789 Y156.411 E13.33915
G1 X137.795 Y154.177 E13.42047
G1 X137.679 Y154.061 E13.42593
G1 X110.374 Y163.531 E14.38717
G1 X109.778 Y163.838 E14.40947
G1 X109.244 Y164.248 E14.43186
G1 X108.788 Y164.742 E14.45422
G1 X108.425 Y165.31 E14.47664
G1 X108.167 Y165.931 E14.499
G1 X108.02 Y166.588 E14.5214
G1 X107.989 Y167.26 E14.54377
G1 X108.076 Y167.928 E14.56618
G1 X108.278 Y168.576 E14.58875
G1 X108.624 Y169.16 E14.61133
G1 X109.063 Y169.671 E14.63374
G1 X109.583 Y170.098 E14.65611
G1 X110.169 Y170.428 E14.67848
G1 X110.804 Y170.651 E14.70087
G1 X111.468 Y170.761 E14.72325
G1 X112.141 Y170.754 E14.74564
G1 X112.802 Y170.63 E14.76801
G0 X112.92 Y171.053
G1 F1500 E8.26801
G0 F1200 X139.083 Y156.509
G0 X137.995 Y154.04
G0 X137.764 Y153.808
G0 X137.554 Y152.539
G0 X137.654 Y152.313
;TYPE:WALL-INNER
G1 F1500 E14.76801
G1 F1200 X137.482 Y148.973 E14.87924
G1 X136.971 Y148.973 E14.89624
G1 X108.14 Y148.03 E15.85567
G1 X107.411 Y148.111 E15.88007
G1 X106.698 Y148.321 E15.90479
G1 X106.033 Y148.652 E15.9295
G1 X105.434 Y149.093 E15.95424
G1 X104.922 Y149.632 E15.97896
G1 X104.512 Y150.25 E16.00363
G1 X104.214 Y150.931 E16.02836
G1 X104.038 Y151.653 E16.05307
G1 X103.991 Y152.411 E16.07833
G1 X104.117 Y153.161 E16.10363
G1 X104.366 Y153.861 E16.12834
G1 X104.735 Y154.507 E16.15308
G1 X105.207 Y155.079 E16.17775
G1 X105.774 Y155.562 E16.20252
G1 X106.415 Y155.936 E16.2272
G1 X107.111 Y156.196 E16.25192
G1 X107.843 Y156.33 E16.27667
G1 X108.576 Y156.334 E16.30105
G1 X137.654 Y152.313 E17.27739
G0 X137.236 Y151.967
;TYPE:WALL-OUTER
G1 X137.111 Y149.547 E17.35799
G1 X137.102 Y149.373 E17.36378
G1 X136.958 Y149.373 E17.36857
G1 X108.156 Y148.431 E18.32704
G1 X107.49 Y148.505 E18.34933
G1 X106.845 Y148.695 E18.37169
G1 X106.242 Y148.995 E18.39409
G1 X105.7 Y149.394 E18.41648
G1 X105.236 Y149.882 E18.43887
G1 X104.864 Y150.442 E18.46124
G1 X104.594 Y151.059 E18.48364
G1 X104.435 Y151.713 E18.50602
G1 X104.393 Y152.39 E18.52858
G1 X104.506 Y153.06 E18.55118
G1 X104.731 Y153.694 E18.57356
G1 X105.065 Y154.279 E18.59596
G1 X105.493 Y154.797 E18.61831
G1 X106.006 Y155.234 E18.64072
G1 X106.587 Y155.573 E18.6631
G1 X107.218 Y155.809 E18.6855
G1 X107.88 Y155.93 E18.70789
G1 X108.55 Y155.934 E18.73017
G1 X137.236 Y151.967 E19.69335
G1 F1500 E13.19335
G0 F1200 X137.535 Y151.953
G0 X137.647 Y148.783
G0 X137.778 Y147.967
G0 X137.647 Y147.736
;TYPE:WALL-INNER
G1 F1500 E19.69335
G1 F1200 X138.674 Y144.57 E19.80406
G1 X111.627 Y133.16 E20.78041
G1 X110.916 Y132.975 E20.80485
G1 X110.177 Y132.916 E20.82951
G1 X109.437 Y132.984 E20.85422
G1 X108.72 Y133.183 E20.87897
G1 X108.048 Y133.501 E20.9037
G1 X107.443 Y133.931 E20.92839
G1 X106.921 Y134.46 E20.9531
G1 X106.499 Y135.072 E20.97783
G1 X106.183 Y135.763 E21.0031
G1 X106.032 Y136.508 E21.02838
G1 X106.014 Y137.251 E21.0531
G1 X106.126 Y137.985 E21.0778
G1 X106.362 Y138.689 E21.10249
G1 X106.719 Y139.342 E21.12725
G1 X107.182 Y139.923 E21.15196
G1 X107.74 Y140.414 E21.17668
G1 X108.375 Y140.801 E21.20141
G1 X109.057 Y141.068 E21.22577
G1 X137.647 Y147.736 E22.2022
G0 X137.38 Y147.263
;TYPE:WALL-OUTER
G1 X138.18 Y144.796 E22.28846
G1 X111.498 Y133.54 E23.25164
G1 X110.849 Y133.371 E23.27395
G1 X110.179 Y133.317 E23.2963
G1 X109.509 Y133.379 E23.31868
G1 X108.86 Y133.559 E23.34108
G1 X108.251 Y133.847 E23.36349
G1 X107.703 Y134.237 E23.38586
G1 X107.23 Y134.716 E23.40825
G1 X106.848 Y135.27 E23.43063
G1 X106.566 Y135.887 E23.45319
G1 X106.431 Y136.553 E23.4758
G1 X106.415 Y137.226 E23.49819
G1 X106.516 Y137.891 E23.52056
G1 X106.73 Y138.528 E23.54291
G1 X107.053 Y139.12 E23.56534
G1 X107.473 Y139.646 E23.58773
G1 X107.978 Y140.091 E23.61011
G1 X108.553 Y140.441 E23.6325
G1 X109.176 Y140.685 E23.65476
G1 X137.38 Y147.263 E24.618
G1 F1500 E18.118
G0 F1200 X137.665 Y147.355
G0 X138.871 Y144.425
G0 X139.319 Y143.722
G0 X139.279 Y143.459
;TYPE:WALL-INNER
G1 F1500 E24.618
G1 F1200 X141.372 Y140.872 E24.72868
G1 X120.21 Y120.527 E25.70505
G1 X119.613 Y120.099 E25.72948
G1 X118.944 Y119.778 E25.75416
G1 X118.228 Y119.578 E25.77889
G1 X117.488 Y119.505 E25.80362
G1 X116.747 Y119.563 E25.82834
G1 X116.028 Y119.747 E25.85302
G1 X115.351 Y120.054 E25.87775
G1 X114.738 Y120.474 E25.90246
G1 X114.195 Y121.006 E25.92775
G1 X113.788 Y121.647 E25.953
G1 X113.504 Y122.334 E25.97773
G1 X113.346 Y123.061 E26.00247
G1 X113.314 Y123.802 E26.02714
G1 X113.412 Y124.54 E26.0519
G1 X113.637 Y125.248 E26.07661
G1 X113.982 Y125.905 E26.10129
G1 X114.436 Y126.495 E26.12605
G1 X114.978 Y126.989 E26.15044
G1 X139.279 Y143.459 E27.12684
G0 X139.199 Y142.922
;TYPE:WALL-OUTER
G1 X140.83 Y140.906 E27.21309
G1 X119.954 Y120.835 E28.17629
G1 X119.409 Y120.445 E28.19858
G1 X118.803 Y120.154 E28.22094
G1 X118.154 Y119.973 E28.24335
G1 X117.484 Y119.907 E28.26574
G1 X116.813 Y119.959 E28.28812
G1 X116.161 Y120.126 E28.31051
G1 X115.548 Y120.404 E28.3329
G1 X114.993 Y120.784 E28.35527
G1 X114.508 Y121.259 E28.37785
G1 X114.144 Y121.832 E28.40042
G1 X113.887 Y122.454 E28.42281
G1 X113.744 Y123.112 E28.4452
G1 X113.715 Y123.784 E28.46758
G1 X113.804 Y124.452 E28.48999
G1 X114.008 Y125.093 E28.51236
G1 X114.32 Y125.689 E28.53474
G1 X114.731 Y126.223 E28.55715
G1 X115.226 Y126.674 E28.57942
G1 X139.199 Y142.922 E29.54265
G1 F1500 E23.04265
G0 F1200 X139.431 Y143.111
G0 X141.607 Y140.806
G0 X142.277 Y140.309
G0 X142.335 Y140.05
;TYPE:WALL-INNER
G1 F1500 E29.54265
G1 F1200 X144.807 Y138.624 E29.63757
G1 X145.161 Y138.269 E29.65424
G1 X132.752 Y111.809 E30.62628
G1 X132.347 Y111.196 E30.65071
G1 X131.837 Y110.656 E30.67542
G1 X131.241 Y110.213 E30.70012
G1 X130.576 Y109.88 E30.72485
G1 X129.864 Y109.668 E30.74956
G1 X129.126 Y109.582 E30.77427
G1 X128.384 Y109.626 E30.799
G1 X127.661 Y109.798 E30.82371
G1 X126.963 Y110.1 E30.84901
G1 X126.355 Y110.554 E30.87425
G1 X125.843 Y111.092 E30.89895
G1 X125.434 Y111.714 E30.92371
G1 X125.139 Y112.396 E30.94842
G1 X124.967 Y113.118 E30.97311
G1 X124.923 Y113.86 E30.99783
G1 X125.009 Y114.598 E31.02254
G1 X125.221 Y115.311 E31.04728
G1 X125.55 Y115.967 E31.07169
G1 X142.335 Y140.05 E32.04805
G0 X142.453 Y139.52
;TYPE:WALL-OUTER
G1 X144.561 Y138.304 E32.12899
G1 X144.68 Y138.185 E32.13459
G1 X132.402 Y112.005 E33.09634
G1 X132.032 Y111.445 E33.11867
G1 X131.57 Y110.956 E33.14104
G1 X131.03 Y110.555 E33.16341
G1 X130.428 Y110.253 E33.18581
G1 X129.783 Y110.061 E33.2082
G1 X129.115 Y109.983 E33.23057
G1 X128.443 Y110.023 E33.25296
G1 X127.788 Y110.179 E33.27535
G1 X127.165 Y110.449 E33.29794
G1 X126.621 Y110.854 E33.32049
G1 X126.158 Y111.342 E33.34287
G1 X125.787 Y111.905 E33.36529
G1 X125.52 Y112.523 E33.38768
G1 X125.364 Y113.177 E33.41005
G1 X125.324 Y113.849 E33.43244
G1 X125.402 Y114.517 E33.4548
G1 X125.594 Y115.163 E33.47722
G1 X125.895 Y115.762 E33.49952
G1 X142.453 Y139.52 E34.46269
G1 F1500 E27.96269
G0 F1200 X142.6 Y139.781
G0 X144.708 Y138.495
G0 X144.934 Y138.26
G0 X145.2 Y137.858
G0 X146.07 Y137.858
G0 X146.26 Y137.362
;TYPE:WALL-INNER
G1 F1500 E34.46269
G1 F1200 X146.26 Y137.755 E34.47576
G1 X146.26 Y137.756 E34.47579
G1 X146.26 Y137.988 E34.48351
G1 X146.49 Y137.952 E34.48831
G1 X149.111 Y137.537 E34.57657
G1 X149.489 Y137.537 E34.58914
G1 X149.49 Y137.537 E34.58917
G1 X149.703 Y137.537 E34.59626
G1 X149.688 Y137.324 E34.60076
G1 X147.584 Y108.165 E35.57311
G1 X147.426 Y107.447 E35.59756
G1 X147.142 Y106.76 E35.62229
G1 X146.745 Y106.133 E35.64697
G1 X146.244 Y105.583 E35.67172
G1 X145.655 Y105.131 E35.69641
G1 X144.996 Y104.786 E35.72115
G1 X144.289 Y104.561 E35.74583
G1 X143.552 Y104.463 E35.77056
G1 X142.793 Y104.494 E35.79582
G1 X142.061 Y104.699 E35.82111
G1 X141.391 Y105.02 E35.84582
G1 X140.786 Y105.453 E35.87056
G1 X140.267 Y105.984 E35.89526
G1 X139.847 Y106.597 E35.91997
G1 X139.54 Y107.274 E35.9447
G1 X139.356 Y107.993 E35.96938
G1 X139.298 Y108.734 E35.9941
G1 X139.37 Y109.465 E36.01853
G1 X146.26 Y137.362 E36.97427
G0 X146.66 Y137.52
;TYPE:WALL-OUTER
G1 X149.08 Y137.137 E37.05576
G1 X149.273 Y137.137 E37.06218
G1 X147.187 Y108.223 E38.02636
G1 X147.043 Y107.567 E38.0487
G1 X146.786 Y106.945 E38.07109
G1 X146.426 Y106.377 E38.09345
G1 X145.972 Y105.879 E38.11587
G1 X145.439 Y105.469 E38.13823
G1 X144.842 Y105.157 E38.16064
G1 X144.201 Y104.953 E38.18301
G1 X143.534 Y104.864 E38.20539
G1 X142.856 Y104.892 E38.22796
G1 X142.202 Y105.075 E38.25055
G1 X141.595 Y105.366 E38.27294
G1 X141.047 Y105.758 E38.29535
G1 X140.577 Y106.239 E38.31772
G1 X140.197 Y106.794 E38.34009
G1 X139.919 Y107.407 E38.36247
G1 X139.752 Y108.059 E38.38486
G1 X139.7 Y108.73 E38.40724
G1 X139.765 Y109.397 E38.42953
G1 X146.66 Y137.315 E39.38599
G1 X146.66 Y137.52 E39.39281
G1 F1500 E32.89281
G0 F1200 X146.36 Y137.52
G0 X149.915 Y137.734
G0 X150.746 Y137.631
G0 X154.215 Y138.169
;TYPE:WALL-INNER
G1 F1500 E39.39281
G1 F1200 X162.737 Y110.076 E40.36923
G1 X162.846 Y109.351 E40.39361
G1 X162.829 Y108.609 E40.4183
G1 X162.682 Y107.879 E40.44307
G1 X162.411 Y107.189 E40.46772
G1 X162.024 Y106.554 E40.49246
G1 X161.532 Y105.996 E40.5172
G1 X160.951 Y105.533 E40.54191
G1 X160.299 Y105.177 E40.56662
G1 X159.579 Y104.934 E40.59189
G1 X158.822 Y104.862 E40.61718
G1 X158.082 Y104.922 E40.64188
G1 X157.363 Y105.11 E40.66659
G1 X156.688 Y105.419 E40.69129
G1 X156.075 Y105.841 E40.71604
G1 X155.546 Y106.364 E40.74078
G1 X155.117 Y106.969 E40.76545
G1 X154.798 Y107.64 E40.79016
G1 X154.603 Y108.348 E40.81458
G1 X150.962 Y137.477 E41.79096
G1 X154.215 Y138.169 E41.90157
G0 X153.939 Y137.701
;TYPE:WALL-OUTER
G1 X162.346 Y109.988 E42.86479
G1 X162.445 Y109.326 E42.88705
G1 X162.43 Y108.653 E42.90944
G1 X162.297 Y107.993 E42.93184
G1 X162.051 Y107.367 E42.95421
G1 X161.701 Y106.792 E42.9766
G1 X161.255 Y106.287 E42.99901
G1 X160.729 Y105.867 E43.02139
G1 X160.138 Y105.545 E43.04378
G1 X159.495 Y105.328 E43.06635
G1 X158.819 Y105.264 E43.08893
G1 X158.149 Y105.318 E43.11129
G1 X157.498 Y105.488 E43.13367
G1 X156.886 Y105.768 E43.15605
G1 X156.331 Y106.15 E43.17846
G1 X155.852 Y106.624 E43.20088
G1 X155.463 Y107.172 E43.22323
G1 X155.174 Y107.78 E43.24562
G1 X154.996 Y108.426 E43.26791
G1 X151.404 Y137.162 E44.23111
G1 X153.939 Y137.701 E44.31731
G1 F1500 E37.81731
G0 F1200 X153.877 Y137.993
G0 X154.35 Y138.398
G0 X155.128 Y138.72
G0 X158.175 Y140.466
;TYPE:WALL-INNER
G1 F1500 E44.31731
G1 F1200 X176.198 Y117.293 E45.29371
G1 X176.561 Y116.655 E45.31813
G1 X176.81 Y115.955 E45.34284
G1 X176.934 Y115.222 E45.36757
G1 X176.929 Y114.479 E45.39228
G1 X176.795 Y113.748 E45.417
G1 X176.536 Y113.052 E45.4417
G1 X176.16 Y112.412 E45.46638
G1 X175.679 Y111.845 E45.49112
G1 X175.093 Y111.36 E45.51642
G1 X174.411 Y111.022 E45.54173
G1 X173.699 Y110.812 E45.56642
G1 X172.961 Y110.73 E45.59112
G1 X172.219 Y110.776 E45.61584
G1 X171.497 Y110.952 E45.64056
G1 X170.816 Y111.25 E45.66529
G1 X170.198 Y111.66 E45.68995
G1 X169.659 Y112.173 E45.7147
G1 X169.224 Y112.764 E45.73911
G1 X155.385 Y138.653 E46.71548
G1 X158.175 Y140.466 E46.82615
G0 X158.085 Y139.93
;TYPE:WALL-OUTER
G1 X175.865 Y117.07 E47.78938
G1 X176.196 Y116.488 E47.81165
G1 X176.421 Y115.854 E47.83402
G1 X176.534 Y115.19 E47.85643
G1 X176.529 Y114.517 E47.87881
G1 X176.408 Y113.855 E47.90119
