;FLAVOR:Marlin
;TIME:679
;Filament used: 0.360886m
;Layer height: 0.2
;MINX:127.745
;MINY:131.555
;MINZ:0.2
;MAXX:172.255
;MAXY:167.58
;MAXZ:0.6
;Generated with Cura_SteamEngine 4.13.1
M140 S60
M105
M190 S60
M104 S200
M105
M109 S200
M82 ;absolute extrusion mode

; Script based on an original created by tjjfvi (https://github.com/tjjfvi)
; An up-to-date version of the tjjfvi's original script can be found
; here:  https://csi.t6.fyi/
; Note - This script will not work in Cura V4.2 and above!
; max_feedrate_z_override = {max_feedrate_z_override}
; retraction_amount = 6.5
; retraction_hop = 0.2
; retraction_hop_enabled = False
; retraction_prime_speed = 25
; retraction_retract_speed = 25
; retraction_speed = 25
; speed_travel = 150.0
; retraction_enable = True
; layer_height = 0.2
; smooth_spiralized_contours = True


; Ender 3 Custom Start G-code
G92 E0 ; Reset Extruder
G28 ; Home all axes
G1 Z2.0 F3000 ; Move Z Axis up little to prevent scratching of Heat Bed
G1 X0.1 Y20 Z0.3 F5000.0 ; Move to start position
G1 X0.1 Y200.0 Z0.3 F1500.0 E15 ; Draw the first line
G1 X0.4 Y200.0 Z0.3 F5000.0 ; Move to side a little
G1 X0.4 Y20 Z0.3 F1500.0 E30 ; Draw the second line
G92 E0 ; Reset Extruder
G1 Z2.0 F3000 ; Move Z Axis up little to prevent scratching of Heat Bed
G1 X5 Y20 Z0.3 F5000.0 ; Move over to prevent blob squish
G92 E0
G92 E0
G1 F1500 E-6.5
;LAYER_COUNT:4
;LAYER:0
M107
;MESH:wheelchairPCB.STL
G0 F6000 X163.982 Y136.366 Z0.2
;TYPE:WALL-INNER
G1 F1500 E0
G1 F1200 X164.073 Y136.55 E0.00683
G1 X164.492 Y136.273 E0.02353
G1 X164.619 Y136.284 E0.02777
G1 X164.619 Y136.467 E0.03386
G1 X164.982 Y136.366 E0.04221
G1 X165.073 Y136.55 E0.04904
G1 X165.492 Y136.273 E0.06575
G1 X165.619 Y136.284 E0.06999
G1 X165.619 Y136.467 E0.07607
G1 X165.985 Y136.365 E0.08453
G1 X166.079 Y136.549 E0.0914
G1 X166.899 Y136.002 E0.12419
G1 X167.229 Y135.67 E0.13976
G1 X167.455 Y135.217 E0.1566
G1 X167.521 Y134.844 E0.16919
G1 X167.486 Y134.42 E0.18334
G1 X167.346 Y134.042 E0.19675
G1 X167.112 Y133.706 E0.21037
G1 X166.848 Y133.484 E0.22184
G1 X166.848 Y133.32 E0.2273
G1 X170.49 Y133.32 E0.34843
G1 X170.49 Y166.68 E1.45799
G1 X168.098 Y166.68 E1.53755
G1 X168.119 Y166.438 E1.54563
G1 X168.046 Y166.026 E1.55954
G1 X167.87 Y165.646 E1.57347
G1 X167.599 Y165.321 E1.58755
G1 X167.251 Y165.079 E1.60164
G1 X166.857 Y164.938 E1.61556
G1 X166.438 Y164.901 E1.62955
G1 X166.026 Y164.974 E1.64347
G1 X165.646 Y165.15 E1.6574
G1 X165.321 Y165.421 E1.67147
G1 X165.24 Y165.538 E1.67621
G1 X165.059 Y165.321 E1.68184
G1 X164.711 Y165.079 E1.69594
G1 X164.317 Y164.938 E1.70986
G1 X163.898 Y164.901 E1.72385
G1 X163.486 Y164.974 E1.73776
G1 X163.106 Y165.15 E1.75169
G1 X162.781 Y165.421 E1.76577
G1 X162.7 Y165.538 E1.7705
G1 X162.519 Y165.321 E1.77613
G1 X162.171 Y165.079 E1.79023
G1 X161.777 Y164.938 E1.80415
G1 X161.358 Y164.901 E1.81814
G1 X160.946 Y164.974 E1.83206
G1 X160.566 Y165.15 E1.84598
G1 X160.241 Y165.421 E1.86006
G1 X160.16 Y165.538 E1.86479
G1 X159.979 Y165.321 E1.87043
G1 X159.631 Y165.079 E1.88452
G1 X159.237 Y164.938 E1.89844
G1 X158.818 Y164.901 E1.91243
G1 X158.406 Y164.974 E1.92635
G1 X158.026 Y165.15 E1.94028
G1 X157.701 Y165.421 E1.95435
G1 X157.62 Y165.538 E1.95909
G1 X157.439 Y165.321 E1.96472
G1 X157.091 Y165.079 E1.97882
G1 X156.697 Y164.938 E1.99274
G1 X156.278 Y164.901 E2.00673
G1 X155.866 Y164.974 E2.02064
G1 X155.486 Y165.15 E2.03457
G1 X155.161 Y165.421 E2.04865
G1 X155.08 Y165.538 E2.05338
G1 X154.899 Y165.321 E2.05901
G1 X154.551 Y165.079 E2.07311
G1 X154.157 Y164.938 E2.08703
G1 X153.738 Y164.901 E2.10102
G1 X153.326 Y164.974 E2.11494
G1 X152.946 Y165.15 E2.12887
G1 X152.621 Y165.421 E2.14294
G1 X152.54 Y165.538 E2.14767
G1 X152.359 Y165.321 E2.15331
G1 X152.011 Y165.079 E2.16741
G1 X151.617 Y164.938 E2.18132
G1 X151.198 Y164.901 E2.19531
G1 X150.786 Y164.974 E2.20923
G1 X150.406 Y165.15 E2.22316
G1 X150.081 Y165.421 E2.23723
G1 X150 Y165.538 E2.24197
G1 X149.819 Y165.321 E2.2476
G1 X149.471 Y165.079 E2.2617
G1 X149.077 Y164.938 E2.27562
G1 X148.658 Y164.901 E2.28961
G1 X148.246 Y164.974 E2.30352
G1 X147.866 Y165.15 E2.31745
G1 X147.541 Y165.421 E2.33153
G1 X147.46 Y165.538 E2.33626
G1 X147.279 Y165.321 E2.34189
G1 X146.931 Y165.079 E2.35599
G1 X146.537 Y164.938 E2.36991
G1 X146.118 Y164.901 E2.3839
G1 X145.706 Y164.974 E2.39782
G1 X145.326 Y165.15 E2.41175
G1 X145.001 Y165.421 E2.42582
G1 X144.92 Y165.538 E2.43055
G1 X144.739 Y165.321 E2.43619
G1 X144.391 Y165.079 E2.45029
G1 X143.997 Y164.938 E2.4642
G1 X143.578 Y164.901 E2.47819
G1 X143.166 Y164.974 E2.49211
G1 X142.786 Y165.15 E2.50604
G1 X142.461 Y165.421 E2.52011
G1 X142.38 Y165.538 E2.52485
G1 X142.199 Y165.321 E2.53048
G1 X141.851 Y165.079 E2.54458
G1 X141.457 Y164.938 E2.5585
G1 X141.038 Y164.901 E2.57249
G1 X140.626 Y164.974 E2.5864
G1 X140.246 Y165.15 E2.60033
G1 X139.921 Y165.421 E2.61441
G1 X139.84 Y165.538 E2.61914
G1 X139.659 Y165.321 E2.62477
G1 X139.311 Y165.079 E2.63887
G1 X138.917 Y164.938 E2.65279
G1 X138.498 Y164.901 E2.66678
G1 X138.086 Y164.974 E2.6807
G1 X137.706 Y165.15 E2.69463
G1 X137.381 Y165.421 E2.7087
G1 X137.3 Y165.538 E2.71343
G1 X137.119 Y165.321 E2.71907
G1 X136.771 Y165.079 E2.73317
G1 X136.377 Y164.938 E2.74708
G1 X135.958 Y164.901 E2.76108
G1 X135.546 Y164.974 E2.77499
G1 X135.166 Y165.15 E2.78892
G1 X134.841 Y165.421 E2.80299
G1 X134.76 Y165.538 E2.80773
G1 X134.579 Y165.321 E2.81336
G1 X134.231 Y165.079 E2.82746
G1 X133.837 Y164.938 E2.84138
G1 X133.418 Y164.901 E2.85537
G1 X133.006 Y164.974 E2.86929
G1 X132.626 Y165.15 E2.88321
G1 X132.301 Y165.421 E2.89729
G1 X132.22 Y165.538 E2.90202
G1 X132.039 Y165.321 E2.90766
G1 X131.691 Y165.079 E2.92175
G1 X131.297 Y164.938 E2.93567
G1 X130.878 Y164.901 E2.94966
G1 X130.466 Y164.974 E2.96358
G1 X130.086 Y165.15 E2.97751
G1 X129.761 Y165.421 E2.99158
G1 X129.519 Y165.769 E3.00568
G1 X129.51 Y165.794 E3.00656
G1 X129.51 Y139.648 E3.87618
G1 X129.728 Y139.908 E3.88747
G1 X130.117 Y140.179 E3.90324
G1 X130.561 Y140.337 E3.91891
G1 X131.03 Y140.379 E3.93457
G1 X131.493 Y140.297 E3.95021
G1 X131.922 Y140.099 E3.96593
G1 X132.226 Y139.844 E3.97912
G1 X132.389 Y140.007 E3.98679
G1 X132.8 Y140.244 E4.00257
G1 X133.241 Y140.361 E4.01775
G1 X133.579 Y140.378 E4.029
G1 X134.033 Y140.297 E4.04434
G1 X134.462 Y140.099 E4.06006
G1 X134.766 Y139.844 E4.07325
G1 X134.929 Y140.007 E4.08092
G1 X135.34 Y140.244 E4.0967
G1 X135.781 Y140.361 E4.11188
G1 X136.119 Y140.378 E4.12313
G1 X136.573 Y140.297 E4.13847
G1 X137.002 Y140.099 E4.15418
G1 X137.306 Y139.844 E4.16738
G1 X137.469 Y140.007 E4.17505
G1 X137.88 Y140.244 E4.19083
G1 X138.321 Y140.361 E4.206
G1 X138.659 Y140.378 E4.21726
G1 X139.113 Y140.297 E4.2326
G1 X139.542 Y140.099 E4.24831
G1 X139.846 Y139.844 E4.26151
G1 X140.009 Y140.007 E4.26918
G1 X140.42 Y140.244 E4.28496
G1 X140.861 Y140.361 E4.30013
G1 X141.199 Y140.378 E4.31139
G1 X141.653 Y140.297 E4.32673
G1 X142.082 Y140.099 E4.34244
G1 X142.386 Y139.844 E4.35564
G1 X142.549 Y140.007 E4.36331
G1 X142.96 Y140.244 E4.37909
G1 X143.401 Y140.361 E4.39426
G1 X143.739 Y140.378 E4.40552
G1 X144.193 Y140.297 E4.42086
G1 X144.622 Y140.099 E4.43657
G1 X144.926 Y139.844 E4.44977
G1 X145.089 Y140.007 E4.45744
G1 X145.5 Y140.244 E4.47322
G1 X145.941 Y140.361 E4.48839
G1 X146.279 Y140.378 E4.49965
G1 X146.733 Y140.297 E4.51499
G1 X147.162 Y140.099 E4.5307
G1 X147.466 Y139.844 E4.5439
G1 X147.629 Y140.007 E4.55156
G1 X148.04 Y140.244 E4.56734
G1 X148.481 Y140.361 E4.58252
G1 X148.819 Y140.378 E4.59378
G1 X149.273 Y140.297 E4.60911
G1 X149.702 Y140.099 E4.62483
G1 X150.006 Y139.844 E4.63803
G1 X150.169 Y140.007 E4.64569
G1 X150.58 Y140.244 E4.66147
G1 X151.021 Y140.361 E4.67665
G1 X151.359 Y140.378 E4.6879
G1 X151.813 Y140.297 E4.70324
G1 X152.242 Y140.099 E4.71896
G1 X152.546 Y139.844 E4.73216
G1 X152.709 Y140.007 E4.73982
G1 X153.12 Y140.244 E4.7556
G1 X153.561 Y140.361 E4.77078
G1 X153.899 Y140.378 E4.78203
G1 X154.353 Y140.297 E4.79737
G1 X154.782 Y140.099 E4.81309
G1 X155.086 Y139.844 E4.82628
G1 X155.249 Y140.007 E4.83395
G1 X155.66 Y140.244 E4.84973
G1 X156.101 Y140.361 E4.86491
G1 X156.439 Y140.378 E4.87616
G1 X156.893 Y140.297 E4.8915
G1 X157.322 Y140.099 E4.90722
G1 X157.626 Y139.844 E4.92041
G1 X157.789 Y140.007 E4.92808
G1 X158.2 Y140.244 E4.94386
G1 X158.641 Y140.361 E4.95904
G1 X158.979 Y140.378 E4.97029
G1 X159.433 Y140.297 E4.98563
G1 X159.862 Y140.099 E5.00135
G1 X160.166 Y139.844 E5.01454
G1 X160.329 Y140.007 E5.02221
G1 X160.74 Y140.244 E5.03799
G1 X161.181 Y140.361 E5.05316
G1 X161.519 Y140.378 E5.06442
G1 X161.973 Y140.297 E5.07976
G1 X162.402 Y140.099 E5.09547
G1 X162.706 Y139.844 E5.10867
G1 X162.869 Y140.007 E5.11634
G1 X163.28 Y140.244 E5.13212
G1 X163.721 Y140.361 E5.14729
G1 X164.059 Y140.378 E5.15855
G1 X164.513 Y140.297 E5.17389
G1 X164.942 Y140.099 E5.1896
G1 X165.246 Y139.844 E5.2028
G1 X165.409 Y140.007 E5.21047
G1 X165.82 Y140.244 E5.22625
G1 X166.261 Y140.361 E5.24142
G1 X166.599 Y140.378 E5.25268
G1 X167.053 Y140.297 E5.26802
G1 X167.482 Y140.099 E5.28373
G1 X167.848 Y139.792 E5.29962
G1 X168.119 Y139.403 E5.31539
G1 X168.277 Y138.959 E5.33106
G1 X168.319 Y138.49 E5.34673
G1 X168.237 Y138.027 E5.36236
G1 X168.039 Y137.598 E5.37808
G1 X167.732 Y137.232 E5.39397
G1 X167.343 Y136.961 E5.40974
G1 X166.899 Y136.803 E5.42541
G1 X166.43 Y136.761 E5.44107
G1 X165.967 Y136.843 E5.45559
G1 X165.538 Y137.041 E5.47131
G1 X165.234 Y137.296 E5.48451
G1 X165.071 Y137.133 E5.49217
G1 X164.66 Y136.896 E5.50795
G1 X164.219 Y136.779 E5.52313
G1 X163.881 Y136.762 E5.53268
G1 X163.427 Y136.843 E5.54802
G1 X162.998 Y137.041 E5.56374
G1 X162.694 Y137.296 E5.57694
G1 X162.531 Y137.133 E5.5846
G1 X162.12 Y136.896 E5.60038
G1 X161.679 Y136.779 E5.61556
G1 X161.341 Y136.762 E5.62681
G1 X160.887 Y136.843 E5.64215
G1 X160.458 Y137.041 E5.65787
G1 X160.154 Y137.296 E5.67106
G1 X159.991 Y137.133 E5.67873
G1 X159.58 Y136.896 E5.69451
G1 X159.139 Y136.779 E5.70969
G1 X158.801 Y136.762 E5.72094
G1 X158.347 Y136.843 E5.73628
G1 X157.918 Y137.041 E5.752
G1 X157.614 Y137.296 E5.76519
G1 X157.451 Y137.133 E5.77286
G1 X157.04 Y136.896 E5.78864
G1 X156.599 Y136.779 E5.80382
G1 X156.261 Y136.762 E5.81507
G1 X155.807 Y136.843 E5.83041
G1 X155.378 Y137.041 E5.84613
G1 X155.074 Y137.296 E5.85932
G1 X154.911 Y137.133 E5.86699
G1 X154.5 Y136.896 E5.88277
G1 X154.059 Y136.779 E5.89794
G1 X153.721 Y136.762 E5.9092
G1 X153.267 Y136.843 E5.92454
G1 X152.838 Y137.041 E5.94025
G1 X152.534 Y137.296 E5.95345
G1 X152.371 Y137.133 E5.96112
G1 X151.96 Y136.896 E5.9769
G1 X151.519 Y136.779 E5.99207
G1 X151.181 Y136.762 E6.00333
G1 X150.727 Y136.843 E6.01867
G1 X150.298 Y137.041 E6.03438
G1 X149.994 Y137.296 E6.04758
G1 X149.831 Y137.133 E6.05525
G1 X149.42 Y136.896 E6.07103
G1 X148.979 Y136.779 E6.0862
G1 X148.641 Y136.762 E6.09746
G1 X148.187 Y136.843 E6.1128
G1 X147.758 Y137.041 E6.12851
G1 X147.454 Y137.296 E6.14171
G1 X147.291 Y137.133 E6.14938
G1 X146.88 Y136.896 E6.16516
G1 X146.439 Y136.779 E6.18033
G1 X146.101 Y136.762 E6.19159
G1 X145.647 Y136.843 E6.20693
G1 X145.218 Y137.041 E6.22264
G1 X144.914 Y137.296 E6.23584
G1 X144.751 Y137.133 E6.24351
G1 X144.34 Y136.896 E6.25929
G1 X143.899 Y136.779 E6.27446
G1 X143.561 Y136.762 E6.28572
G1 X143.107 Y136.843 E6.30105
G1 X142.678 Y137.041 E6.31677
G1 X142.374 Y137.296 E6.32997
G1 X142.211 Y137.133 E6.33763
G1 X141.8 Y136.896 E6.35341
G1 X141.359 Y136.779 E6.36859
G1 X141.021 Y136.762 E6.37985
G1 X140.567 Y136.843 E6.39518
G1 X140.138 Y137.041 E6.4109
G1 X139.834 Y137.296 E6.4241
G1 X139.671 Y137.133 E6.43176
G1 X139.26 Y136.896 E6.44754
G1 X138.819 Y136.779 E6.46272
G1 X138.481 Y136.762 E6.47397
G1 X138.027 Y136.843 E6.48931
G1 X137.598 Y137.041 E6.50503
G1 X137.294 Y137.296 E6.51823
G1 X137.131 Y137.133 E6.52589
G1 X136.72 Y136.896 E6.54167
G1 X136.279 Y136.779 E6.55685
G1 X135.941 Y136.762 E6.5681
G1 X135.487 Y136.843 E6.58344
G1 X135.058 Y137.041 E6.59916
G1 X134.754 Y137.296 E6.61235
G1 X134.591 Y137.133 E6.62002
G1 X134.18 Y136.896 E6.6358
G1 X133.739 Y136.779 E6.65098
G1 X133.401 Y136.762 E6.66223
G1 X132.947 Y136.843 E6.67757
G1 X132.518 Y137.041 E6.69329
G1 X132.214 Y137.296 E6.70648
G1 X132.051 Y137.133 E6.71415
G1 X131.64 Y136.896 E6.72993
G1 X131.208 Y136.781 E6.7448
G1 X131.023 Y136.763 E6.75098
G1 X130.701 Y136.779 E6.7617
G1 X130.26 Y136.896 E6.77688
G1 X129.849 Y137.133 E6.79266
G1 X129.51 Y137.474 E6.80865
G1 X129.51 Y133.32 E6.94681
G1 X133.938 Y133.32 E7.09409
G1 X133.643 Y133.517 E7.10589
G1 X133.327 Y133.826 E7.12059
G1 X133.135 Y134.161 E7.13343
G1 X133.03 Y134.566 E7.14735
G1 X133.03 Y134.743 E7.15323
G1 X132.781 Y134.869 E7.16252
G1 X133.327 Y135.687 E7.19523
G1 X133.635 Y136.001 E7.20986
G1 X133.692 Y136.034 E7.21205
G1 X133.692 Y136.237 E7.2188
G1 X134.506 Y136.309 E7.24598
G1 X134.553 Y136.305 E7.24755
G1 X134.675 Y136.548 E7.25659
G1 X135.092 Y136.273 E7.2732
G1 X135.219 Y136.284 E7.27744
G1 X135.219 Y136.467 E7.28353
G1 X135.582 Y136.366 E7.29188
G1 X135.673 Y136.55 E7.29765
G1 X136.093 Y136.273 E7.31439
G1 X136.506 Y136.309 E7.32817
G1 X136.553 Y136.305 E7.32974
G1 X136.675 Y136.548 E7.33879
G1 X137.092 Y136.273 E7.3554
G1 X137.506 Y136.309 E7.36922
G1 X137.553 Y136.305 E7.37079
G1 X137.675 Y136.548 E7.37984
G1 X138.092 Y136.273 E7.39645
G1 X138.506 Y136.309 E7.41027
G1 X138.554 Y136.305 E7.41187
G1 X138.677 Y136.55 E7.41929
G1 X139.499 Y136.002 E7.45215
G1 X139.829 Y135.67 E7.46772
G1 X140.055 Y135.217 E7.48456
G1 X140.121 Y134.844 E7.49716
G1 X140.086 Y134.42 E7.51131
G1 X139.946 Y134.042 E7.52471
G1 X139.712 Y133.706 E7.53833
G1 X139.448 Y133.484 E7.5498
G1 X139.448 Y133.32 E7.55526
G1 X145.558 Y133.32 E7.75848
G1 X145.263 Y133.517 E7.77028
G1 X144.947 Y133.826 E7.78498
G1 X144.755 Y134.161 E7.79782
G1 X144.65 Y134.566 E7.81174
G1 X144.65 Y134.743 E7.81762
G1 X144.401 Y134.869 E7.8269
G1 X144.947 Y135.687 E7.85962
G1 X145.255 Y136.001 E7.87424
G1 X145.312 Y136.034 E7.87643
G1 X145.312 Y136.237 E7.88319
G1 X146.126 Y136.309 E7.91037
G1 X146.173 Y136.305 E7.91193
G1 X146.295 Y136.548 E7.9193
G1 X146.712 Y136.273 E7.93591
G1 X146.839 Y136.284 E7.94015
G1 X146.839 Y136.467 E7.94624
G1 X147.205 Y136.365 E7.9547
G1 X147.299 Y136.549 E7.96157
G1 X148.117 Y136.003 E7.99428
G1 X148.433 Y135.694 E8.00898
G1 X148.625 Y135.359 E8.02182
G1 X148.73 Y134.954 E8.03574
G1 X148.73 Y134.777 E8.04162
G1 X148.979 Y134.651 E8.05091
G1 X148.433 Y133.833 E8.08362
G1 X148.127 Y133.519 E8.0982
G1 X148.068 Y133.485 E8.10046
G1 X148.068 Y133.32 E8.10595
G1 X163.338 Y133.32 E8.61383
G1 X163.043 Y133.517 E8.62563
G1 X162.727 Y133.826 E8.64033
G1 X162.535 Y134.161 E8.65317
G1 X162.43 Y134.566 E8.66709
G1 X162.43 Y134.743 E8.67298
G1 X162.181 Y134.869 E8.68226
G1 X162.727 Y135.687 E8.71497
G1 X163.035 Y136.001 E8.7296
G1 X163.092 Y136.034 E8.73179
G1 X163.092 Y136.237 E8.73854
G1 X163.619 Y136.284 E8.75614
G1 X163.619 Y136.467 E8.76223
G1 X163.982 Y136.366 E8.77058
G0 F6000 X164.019 Y135.94
;TYPE:WALL-OUTER
G1 F1200 X164.194 Y135.891 E8.77662
G1 X164.231 Y135.966 E8.7794
G1 X164.481 Y135.801 E8.78937
G1 X164.492 Y135.871 E8.79172
G1 X164.908 Y135.908 E8.80562
G1 X165.019 Y135.908 E8.80931
G1 X165.019 Y135.94 E8.81037
G1 X165.194 Y135.891 E8.81642
G1 X165.231 Y135.966 E8.8192
G1 X165.481 Y135.801 E8.82916
G1 X165.492 Y135.871 E8.83152
G1 X165.908 Y135.908 E8.84541
G1 X166.019 Y135.908 E8.8491
G1 X166.019 Y135.94 E8.85016
G1 X166.194 Y135.891 E8.85621
G1 X166.232 Y135.966 E8.859
G1 X166.644 Y135.691 E8.87548
G1 X166.9 Y135.434 E8.88755
G1 X167.071 Y135.09 E8.90032
G1 X167.118 Y134.825 E8.90927
G1 X167.092 Y134.507 E8.91989
G1 X166.989 Y134.229 E8.92975
G1 X166.814 Y133.978 E8.93992
G1 X166.592 Y133.792 E8.94956
G1 X166.448 Y133.714 E8.955
G1 X166.448 Y133.649 E8.95717
G1 X166.032 Y133.612 E8.97106
G1 X165.749 Y133.634 E8.9805
G1 X165.709 Y133.554 E8.98347
G1 X165.46 Y133.719 E8.99341
G1 X165.448 Y133.649 E8.99577
G1 X165.032 Y133.612 E9.00966
G1 X164.749 Y133.634 E9.0191
G1 X164.709 Y133.554 E9.02208
G1 X164.46 Y133.719 E9.03201
G1 X164.448 Y133.649 E9.03437
G1 X164.032 Y133.612 E9.04826
G1 X163.748 Y133.634 E9.05774
G1 X163.708 Y133.554 E9.06071
