;FLAVOR:Marlin
;TIME:21239
;Filament used: 34.101m
;Layer height: 0.4
;MINX:58.039
;MINY:79.647
;MINZ:0.2
;MAXX:161.782
;MAXY:140.453
;MAXZ:100.2
;Generated with Cura_SteamEngine 5.2.2
M82 ;absolute extrusion mode
; Ender 3 Custom Start G-code
G92 E0 ; Reset Extruder
G28 ; Home all axes
M104 S175 ; Start heating up the nozzle most of the way
M190 S60 ; Start heating the bed, wait until target temperature reached
M109 S200 ; Finish heating the nozzle
G1 Z2.0 F3000 ; Move Z Axis up little to prevent scratching of Heat Bed
G1 X0.1 Y20 Z0.3 F5000.0 ; Move to start position
G1 X0.1 Y200.0 Z0.3 F1500.0 E15 ; Draw the first line
G1 X0.4 Y200.0 Z0.3 F5000.0 ; Move to side a little
G1 X0.4 Y20 Z0.3 F1500.0 E30 ; Draw the second line
G92 E0 ; Reset Extruder
G1 Z2.0 F3000 ; Move Z Axis up little to prevent scratching of Heat Bed
G1 X5 Y20 Z0.3 F5000.0 ; Move over to prevent blob squish
G92 E0
G92 E0
G1 F1500 E-6.5
;LAYER_COUNT:251
;LAYER:0
M107
G0 F6000 X111.679 Y119.5 Z0.2
;TYPE:SKIRT
G1 F1500 E0
G1 F1200 X111.879 Y119.5 E0.00665
G1 X111.879 Y119.9 E0.01996
G1 X111.679 Y119.9 E0.02661
G1 X111.679 Y119.5 E0.03991
G0 F6000 X111.279 Y119.1
G1 F1200 X112.279 Y119.1 E0.07317
G1 X112.279 Y120.3 E0.11308
G1 X111.279 Y120.3 E0.14634
G1 X111.279 Y119.1 E0.18626
G0 F6000 X110.879 Y118.7
G1 F1200 X112.679 Y118.7 E0.24612
G1 X112.679 Y120.7 E0.31265
G1 X110.879 Y120.7 E0.37251
G1 X110.879 Y118.7 E0.43903
G0 F6000 X110.479 Y118.3
G1 F1200 X113.079 Y118.3 E0.52551
G1 X113.079 Y121.1 E0.61864
G1 X110.479 Y121.1 E0.70511
G1 X110.479 Y118.3 E0.79824
G0 F6000 X110.079 Y117.9
G1 F1200 X113.479 Y117.9 E0.91133
G1 X113.479 Y121.5 E1.03106
G1 X110.079 Y121.5 E1.14415
G1 X110.079 Y117.9 E1.26389
G0 F6000 X109.679 Y117.5
G1 F1200 X113.879 Y117.5 E1.40358
G1 X113.879 Y121.9 E1.54992
G1 X109.679 Y121.9 E1.68961
G1 X109.679 Y117.5 E1.83596
G0 F6000 X109.279 Y117.1
G1 F1200 X114.279 Y117.1 E2.00226
G1 X114.279 Y122.3 E2.17521
G1 X109.279 Y122.3 E2.34151
G1 X109.279 Y117.1 E2.51447
G0 F6000 X108.879 Y116.7
G1 F1200 X114.679 Y116.7 E2.70737
G1 X114.679 Y122.7 E2.90694
G1 X108.879 Y122.7 E3.09984
G1 X108.879 Y116.7 E3.29941
G1 F1500 E-3.20059
G0 F6000 X139.763 Y119.701
G1 F1500 E3.29941
G1 F1200 X139.816 Y119.391 E3.30987
G1 X139.974 Y119.116 E3.32041
G1 X140.096 Y118.993 E3.32618
G1 X140.366 Y118.839 E3.33651
G1 X140.515 Y118.798 E3.34165
G1 X140.838 Y118.797 E3.3524
G1 X141.137 Y118.906 E3.36298
G1 X141.379 Y119.11 E3.37351
G1 X141.474 Y119.245 E3.379
G1 X141.581 Y119.535 E3.38928
G1 X141.582 Y119.861 E3.40012
G1 X141.476 Y120.151 E3.41039
G1 X141.27 Y120.399 E3.42112
G1 X141.135 Y120.495 E3.42663
G1 X140.843 Y120.602 E3.43697
G1 X140.518 Y120.603 E3.44778
G1 X140.22 Y120.493 E3.45834
G1 X139.974 Y120.285 E3.46906
G1 X139.885 Y120.157 E3.47424
G1 X139.777 Y119.862 E3.48469
G1 X139.763 Y119.701 E3.49007
G0 F6000 X140.164 Y119.702
G1 F1200 X140.194 Y119.528 E3.49594
G1 X140.355 Y119.3 E3.50522
G1 X140.583 Y119.194 E3.51359
G1 X140.769 Y119.193 E3.51977
G1 X140.94 Y119.256 E3.52583
G1 X141.071 Y119.368 E3.53157
G1 X141.186 Y119.606 E3.54036
G1 X141.186 Y119.791 E3.54651
G1 X141.074 Y120.029 E3.55526
G1 X140.849 Y120.186 E3.56439
G1 X140.676 Y120.214 E3.57021
G1 X140.507 Y120.185 E3.57592
G1 X140.354 Y120.099 E3.58176
G1 X140.194 Y119.873 E3.59097
G1 X140.164 Y119.702 E3.59674
G0 F6000 X140.57 Y119.666
G1 F1200 X140.611 Y119.609 E3.59908
G1 X140.695 Y119.588 E3.60195
G1 X140.78 Y119.649 E3.60543
G1 X140.791 Y119.72 E3.60782
G1 X140.716 Y119.807 E3.61164
G1 X140.583 Y119.761 E3.61633
G1 X140.57 Y119.666 E3.61951
G1 F1500 E-2.88049
G0 F6000 X66.32 Y126.179
G1 F1500 E3.61951
G1 F1200 X66.287 Y126.541 E3.6316
G1 X66.079 Y126.838 E3.64366
G1 X65.872 Y126.958 E3.65162
G1 X65.631 Y127.001 E3.65977
G1 X65.39 Y126.959 E3.6679
G1 X65.173 Y126.832 E3.67626
G1 X65.018 Y126.646 E3.68432
G1 X64.938 Y126.422 E3.69223
G1 X64.938 Y126.178 E3.70034
G1 X65.023 Y125.948 E3.7085
G1 X65.281 Y125.691 E3.72061
G1 X65.508 Y125.609 E3.72864
G1 X65.866 Y125.641 E3.74059
G1 X65.984 Y125.695 E3.74491
G1 X66.237 Y125.949 E3.75683
G1 X66.32 Y126.179 E3.76497
G0 F6000 X65.928 Y126.298
G1 F1200 X65.909 Y126.404 E3.76855
G1 X65.823 Y126.529 E3.77359
G1 X65.631 Y126.599 E3.78039
G1 X65.43 Y126.524 E3.78753
G1 X65.346 Y126.4 E3.79251
G1 X65.335 Y126.244 E3.79771
G1 X65.399 Y126.107 E3.80274
G1 X65.577 Y126.005 E3.80956
G1 X65.735 Y126.02 E3.81484
G1 X65.857 Y126.105 E3.81979
G1 X65.928 Y126.298 E3.82663
G1 F1500 E-2.67337
;MESH:SEAT.STL
G0 F6000 X67.244 Y127.651
G0 X66.801 Y128.287
;TYPE:WALL-INNER
G1 F1500 E3.82663
G1 F1200 X66.421 Y128.467 E3.84061
G1 X66.028 Y128.571 E3.85413
G1 X65.633 Y128.608 E3.86733
G1 X65.225 Y128.572 E3.88095
G1 X64.839 Y128.468 E3.89425
G1 X64.459 Y128.288 E3.90823
G1 X64.147 Y128.067 E3.92095
G1 X63.861 Y127.782 E3.93438
G1 X63.618 Y127.43 E3.9486
G1 X63.454 Y127.065 E3.96191
G1 X63.357 Y126.705 E3.97431
G1 X63.326 Y126.355 E3.986
G1 X63.326 Y126.249 E3.98953
G1 X63.357 Y125.897 E4.00128
G1 X63.457 Y125.526 E4.01406
G1 X63.624 Y125.151 E4.02771
G1 X63.862 Y124.818 E4.04133
G1 X64.141 Y124.537 E4.0545
G1 X64.475 Y124.297 E4.06818
G1 F1045.8 X65.215 Y123.971 E4.09904
G1 F944.9 X65.627 Y123.946 E4.11647
G1 F937.5 X66.099 Y123.98 E4.13662
G1 F1002.1 X66.371 Y124.103 E4.14851
G1 F1153.8 X66.459 Y124.151 E4.15198
G1 F1200 X66.778 Y124.296 E4.16363
G1 X67.111 Y124.533 E4.17723
G1 X67.394 Y124.815 E4.19051
G1 X67.63 Y125.147 E4.20406
G1 X67.796 Y125.509 E4.21731
G1 X67.901 Y125.893 E4.23055
G1 X67.935 Y126.296 E4.244
G1 X67.9 Y126.7 E4.25749
G1 X67.797 Y127.085 E4.27074
G1 X67.631 Y127.449 E4.28405
G1 X67.395 Y127.783 E4.29765
G1 X67.114 Y128.065 E4.31089
G1 X66.801 Y128.287 E4.32365
G0 F6000 X66.282 Y128.09
;TYPE:WALL-OUTER
G1 F1200 X65.962 Y128.177 E4.33468
G1 X65.613 Y128.205 E4.34633
G1 X65.28 Y128.173 E4.35746
G1 X64.995 Y128.096 E4.36728
G1 X64.695 Y127.962 E4.3782
G1 X64.395 Y127.749 E4.39044
G1 X64.16 Y127.511 E4.40157
G1 X63.973 Y127.246 E4.41235
G1 X63.833 Y126.936 E4.42367
G1 X63.75 Y126.616 E4.43466
G1 X63.724 Y126.284 E4.44574
G1 X63.756 Y125.952 E4.45683
G1 X63.836 Y125.655 E4.46706
G1 X63.966 Y125.367 E4.47757
G1 X64.18 Y125.066 E4.48985
G1 X64.393 Y124.852 E4.4999
G1 X64.691 Y124.639 E4.51208
G1 X64.96 Y124.517 E4.5219
G1 X65.294 Y124.423 E4.53344
G1 X65.645 Y124.395 E4.54516
G1 X65.978 Y124.427 E4.55628
G1 X66.263 Y124.504 E4.5661
G1 X66.561 Y124.637 E4.57696
G1 X66.863 Y124.851 E4.58927
G1 X67.077 Y125.064 E4.59931
G1 X67.269 Y125.329 E4.61019
G1 X67.422 Y125.659 E4.62229
G1 X67.508 Y125.982 E4.63341
G1 X67.535 Y126.296 E4.64389
G1 X67.506 Y126.631 E4.65507
G1 X67.413 Y126.964 E4.66657
G1 X67.272 Y127.265 E4.67763
G1 X67.078 Y127.534 E4.68866
G1 X66.865 Y127.748 E4.6987
G1 X66.589 Y127.947 E4.71002
G1 X66.282 Y128.09 E4.72128
G1 F1500 E-1.77872
G0 F6000 X66.31 Y128.601
G0 X63.999 Y128.147
G0 X63.215 Y125.805
G0 X64.849 Y123.958
G0 X65.568 Y123.668
G0 X64.63 Y123.562
G0 X59.981 Y123.577
G0 X61.526 Y129.121
G0 X61.83 Y138.93
G1 F1500 E4.72128
G0 F6000 X61.73 Y139.199
;TYPE:WALL-INNER
G1 F1200 X160.529 Y139.2 E8.00735
G1 X160.529 Y134.8 E8.1537
G1 X160.529 Y130.4 E8.30004
G1 X145.399 Y130.4 E8.80327
G1 X145.208 Y130.336 E8.80997
G1 X145.013 Y130.179 E8.81829
G1 X144.879 Y129.919 E8.82802
G1 X144.879 Y80.9 E10.4584
G1 X115.579 Y80.9 E11.43292
G1 X115.579 Y109.394 E12.38064
G1 X115.509 Y109.583 E12.38734
G1 X115.393 Y109.735 E12.3937
G1 X115.21 Y109.854 E12.40096
G1 X115.056 Y109.9 E12.40631
G1 X107.826 Y109.898 E12.64678
G1 X107.615 Y109.839 E12.65406
G1 X107.414 Y109.68 E12.66259
G1 X107.31 Y109.494 E12.66968
G1 X107.279 Y109.333 E12.67513
G1 X107.279 Y97.1 E13.082
G1 X71.479 Y97.1 E14.27271
G1 X71.478 Y129.849 E15.36195
G1 X71.415 Y130.071 E15.36962
G1 X71.336 Y130.19 E15.37438
G1 X71.142 Y130.34 E15.38253
G1 X70.959 Y130.4 E15.38894
G1 X70.056 Y130.4 E15.41897
G1 X69.761 Y130.275 E15.42963
G1 X69.598 Y130.08 E15.43808
G1 X69.533 Y129.876 E15.4452
G1 X69.529 Y123.4 E15.66059
G1 F1113.7 X66.562 Y123.401 E15.76692
G1 F971.7 X66.167 Y123.464 E15.78335
G1 F937.5 X65.549 Y123.449 E15.80967
G1 F944.9 X65.171 Y123.458 E15.82564
G1 F1041.2 X64.789 Y123.403 E15.84044
G1 F1194 X59.74 Y123.4 E16.00921
G1 F1200 X61.729 Y129.716 E16.22945
G1 X61.73 Y139.199 E16.54486
G0 F6000 X61.33 Y139.599
;TYPE:WALL-OUTER
G1 F1200 X160.929 Y139.6 E19.85753
G1 X160.929 Y134.8 E20.01718
G1 X160.929 Y130 E20.17683
G1 X145.444 Y129.998 E20.69186
G1 X145.323 Y129.927 E20.69653
G1 X145.279 Y129.841 E20.69974
G1 X145.279 Y80.5 E22.34083
G1 X115.179 Y80.5 E23.34196
G1 X115.175 Y109.344 E24.30131
G1 X115.117 Y109.445 E24.30519
G1 X115.014 Y109.498 E24.30904
G1 X107.831 Y109.495 E24.54795
G1 X107.713 Y109.413 E24.55273
G1 X107.679 Y109.311 E24.5563
G1 X107.679 Y96.7 E24.97575
G1 X71.079 Y96.7 E26.19307
G1 X71.079 Y129.817 E27.29454
G1 X70.992 Y129.966 E27.30028
G1 X70.91 Y129.998 E27.30321
G1 X70.094 Y129.998 E27.33035
G1 X69.971 Y129.924 E27.33513
G1 X69.93 Y129.826 E27.33866
G1 X69.929 Y123 E27.56569
G1 X59.194 Y123 E27.92274
G1 X61.326 Y129.761 E28.15853
G1 X61.33 Y139.599 E28.48574
G1 F1500 E21.98574
G0 F6000 X61.599 Y139.33
G0 X114.812 Y139.38
G0 X114.879 Y126.581
G0 X114.812 Y126.397
;TYPE:WALL-INNER
G1 F1500 E28.48574
G1 F1200 X114.625 Y126.345 E28.4922
G1 X114.474 Y126.244 E28.49824
G1 X114.31 Y125.993 E28.50821
G1 X114.279 Y125.8 E28.51471
G1 X114.279 Y124.3 E28.5646
G1 X107.819 Y124.298 E28.77946
G1 X107.504 Y124.17 E28.79077
G1 X107.398 Y124.061 E28.79583
G1 X107.279 Y123.823 E28.80468
G1 X107.28 Y115.654 E29.07638
G1 X107.36 Y115.397 E29.08533
G1 X107.523 Y115.216 E29.09343
G1 X107.826 Y115.102 E29.1042
G1 X114.279 Y115.1 E29.31883
G1 X114.279 Y113.193 E29.38226
G1 X114.357 Y113.002 E29.38912
G1 X114.474 Y112.856 E29.39534
G1 X114.802 Y112.7 E29.40742
G1 X138.55 Y112.704 E30.19728
G1 X138.71 Y112.746 E30.20279
G1 X138.882 Y112.854 E30.20954
G1 X139.023 Y113.045 E30.21744
G1 X139.079 Y113.209 E30.2232
G1 X139.08 Y117.756 E30.37443
G1 X139.415 Y117.514 E30.38818
G1 X139.81 Y117.332 E30.40265
G1 X140.226 Y117.217 E30.417
G1 X140.669 Y117.178 E30.43179
G1 X141.117 Y117.214 E30.44674
G1 X141.544 Y117.331 E30.46147
G1 X141.93 Y117.509 E30.4756
G1 X142.297 Y117.766 E30.49051
G1 X142.604 Y118.073 E30.50495
G1 X142.863 Y118.435 E30.51975
G1 X143.047 Y118.831 E30.53427
G1 X143.162 Y119.251 E30.54876
G1 X143.202 Y119.69 E30.56342
G1 X143.162 Y120.139 E30.57841
G1 X143.05 Y120.559 E30.59287
G1 X142.867 Y120.957 E30.60744
G1 X142.612 Y121.319 E30.62217
G1 X142.311 Y121.622 E30.63637
G1 X141.942 Y121.887 E30.65148
G1 X141.541 Y122.07 E30.66614
G1 X141.127 Y122.183 E30.68042
G1 X140.68 Y122.223 E30.69534
G1 X140.233 Y122.184 E30.71027
G1 X139.818 Y122.071 E30.72457
G1 X139.425 Y121.891 E30.73895
G1 X139.079 Y121.644 E30.75309
G1 X139.079 Y125.879 E30.89394
G1 X138.953 Y126.169 E30.90446
G1 X138.784 Y126.317 E30.91193
G1 X138.535 Y126.398 E30.92064
G1 X114.812 Y126.397 E31.70967
G0 F6000 X114.708 Y125.905
;TYPE:WALL-OUTER
G1 F1200 X114.679 Y125.8 E31.7133
G1 X114.679 Y123.9 E31.77649
G1 X107.859 Y123.9 E32.00332
G1 X107.754 Y123.857 E32.0071
G1 X107.679 Y123.743 E32.01164
G1 X107.679 Y115.684 E32.27968
G1 X107.713 Y115.587 E32.2831
G1 X107.831 Y115.505 E32.28788
G1 X114.679 Y115.5 E32.51564
G1 X114.679 Y113.264 E32.59001
G1 X114.744 Y113.152 E32.59432
G1 X114.844 Y113.102 E32.59804
G1 X138.503 Y113.101 E33.38494
G1 X138.614 Y113.151 E33.38899
G1 X138.675 Y113.256 E33.39303
G1 F1203 X138.678 Y118.957 E33.58217
G1 F1359.8 X138.634 Y119.351 E33.59381
G1 X138.693 Y118.96 E33.60541
G1 F1203 X138.828 Y118.662 E33.61627
G1 F1200 X139.04 Y118.357 E33.62862
G1 X139.305 Y118.087 E33.6412
G1 X139.604 Y117.871 E33.65347
G1 X139.938 Y117.714 E33.66575
G1 X140.284 Y117.616 E33.67771
G1 X140.655 Y117.58 E33.69011
G1 X141.067 Y117.615 E33.70386
G1 X141.419 Y117.714 E33.71602
G1 X141.714 Y117.85 E33.72682
G1 X142.048 Y118.083 E33.74037
G1 X142.287 Y118.322 E33.75161
G1 X142.525 Y118.656 E33.76525
G1 X142.664 Y118.956 E33.77625
G1 X142.769 Y119.34 E33.78949
G1 X142.799 Y119.674 E33.80064
G1 X142.768 Y120.07 E33.81385
G1 X142.665 Y120.439 E33.8266
G1 X142.51 Y120.769 E33.83872
G1 X142.315 Y121.046 E33.84999
G1 X142.061 Y121.306 E33.86208
G1 X141.756 Y121.528 E33.87463
G1 X141.419 Y121.686 E33.88701
G1 X141.038 Y121.79 E33.90014
G1 X140.697 Y121.82 E33.91153
G1 X140.29 Y121.785 E33.92511
G1 X139.969 Y121.698 E33.93617
G1 X139.61 Y121.532 E33.94933
G1 X139.31 Y121.317 E33.96161
G1 X139.044 Y121.049 E33.97416
G1 X138.831 Y120.743 E33.98657
G1 F1215.2 X138.696 Y120.437 E33.99755
G1 F1363.6 X138.637 Y120.082 E34.00808
G1 X138.674 Y120.442 E34.01868
G1 F1215.2 X138.68 Y120.83 E34.03142
G1 F1200 X138.677 Y125.835 E34.19789
G1 X138.61 Y125.952 E34.20237
G1 X138.498 Y126 E34.20642
G1 X114.844 Y125.998 E34.99316
G1 X114.708 Y125.905 E34.99864
G1 F1500 E28.49864
G0 F6000 X114.379 Y125.905
G0 X114.451 Y126.228
G0 X138.637 Y126.2
G0 X137.826 Y125.147
G0 X137.814 Y120.082
G0 X138.637 Y120.082
G1 F1500 E34.99864
G1 F1616.2 X138.619 Y119.721 E35.00757
G1 F1632.7 X138.634 Y119.351 E35.01662
G1 F1500 E28.51662
G0 F6000 X138.634 Y126.2
G0 X114.753 Y126.758
;TYPE:SKIN
G1 F1500 E35.01662
G1 F1200 X114.306 Y126.579 E35.03263
G1 X114.059 Y126.31 E35.04478
G1 X113.961 Y126.078 E35.05316
G1 X113.921 Y125.83 E35.06151
G1 X113.919 Y124.661 E35.10039
G1 X107.77 Y124.655 E35.30491
G1 X107.513 Y124.589 E35.31374
G1 X107.228 Y124.407 E35.32498
G1 X107.07 Y124.222 E35.33307
G1 X106.951 Y123.955 E35.3428
G1 X106.92 Y123.753 E35.34959
G1 X106.921 Y115.64 E35.61943
G1 X107.015 Y115.277 E35.6319
G1 X107.199 Y115.014 E35.64258
G1 X107.449 Y114.84 E35.65271
G1 X107.783 Y114.743 E35.66428
G1 X113.919 Y114.74 E35.86836
G1 X113.919 Y113.13 E35.92191
G1 X114.043 Y112.819 E35.93305
G1 X114.23 Y112.589 E35.94291
G1 X114.517 Y112.407 E35.95421
G1 X114.747 Y112.342 E35.96216
G1 X138.594 Y112.346 E36.75531
G1 X138.821 Y112.404 E36.76311
G1 X138.848 Y112.413 E36.76405
G1 X139.123 Y112.586 E36.77486
G1 X139.328 Y112.854 E36.78608
G1 X139.439 Y113.153 E36.79669
G1 X139.44 Y117.105 E36.92813
G1 X139.704 Y116.986 E36.93777
G1 X140.179 Y116.859 E36.95412
G1 X140.651 Y116.816 E36.96988
G1 X141.165 Y116.857 E36.98703
G1 X141.681 Y116.999 E37.00483
G1 X142.085 Y117.182 E37.01958
G1 X142.519 Y117.482 E37.03713
G1 X142.894 Y117.858 E37.05479
G1 X143.182 Y118.263 E37.07132
G1 X143.392 Y118.721 E37.08808
G1 X143.52 Y119.203 E37.10467
G1 X143.559 Y119.706 E37.12145
G1 X143.518 Y120.201 E37.13797
G1 X143.384 Y120.692 E37.1549
G1 X143.197 Y121.105 E37.16998
G1 X142.871 Y121.571 E37.18889
G1 X142.553 Y121.889 E37.20385
G1 X142.108 Y122.208 E37.22206
G1 X141.648 Y122.414 E37.23882
G1 X141.172 Y122.542 E37.25522
G1 X140.661 Y122.584 E37.27227
G1 X140.194 Y122.543 E37.28786
G1 X139.663 Y122.399 E37.30616
G1 X139.441 Y122.296 E37.3143
G1 X139.437 Y125.955 E37.436
G1 X139.342 Y126.227 E37.44558
G1 X139.11 Y126.525 E37.45814
G1 X138.832 Y126.694 E37.46897
G1 X138.592 Y126.76 E37.47724
G1 X114.753 Y126.758 E38.27013
G1 F1500 E31.77013
G0 F6000 X114.79 Y126.495
G0 X114.353 Y126.378
G0 X66.713 Y138.999
G0 X62.09 Y138.838
G1 F1500 E38.27013
G1 F1200 X160.169 Y138.84 E41.53225
G1 X160.169 Y134.8 E41.66662
G1 X160.169 Y130.76 E41.801
G1 X145.35 Y130.758 E42.29388
G1 X145.047 Y130.659 E42.30448
G1 X144.811 Y130.493 E42.31408
G1 X144.604 Y130.208 E42.32579
G1 X144.52 Y129.825 E42.33883
G1 X144.519 Y81.26 E43.95411
G1 X115.939 Y81.26 E44.90469
G1 X115.939 Y109.459 E45.84259
G1 X115.839 Y109.726 E45.85207
G1 X115.645 Y109.998 E45.86318
G1 X115.352 Y110.189 E45.87482
G1 X115.111 Y110.258 E45.88315
G1 X107.783 Y110.257 E46.12688
G1 X107.449 Y110.16 E46.13845
G1 X107.201 Y109.983 E46.14859
G1 X107.037 Y109.765 E46.15766
G1 X106.922 Y109.377 E46.17112
G1 X106.919 Y97.46 E46.56748
G1 X71.84 Y97.461 E47.73421
G1 X71.837 Y129.876 E48.81234
G1 X71.743 Y130.223 E48.8243
G1 X71.606 Y130.428 E48.8325
G1 X71.304 Y130.663 E48.84523
G1 X71.008 Y130.758 E48.85557
G1 X69.991 Y130.758 E48.88939
G1 X69.66 Y130.64 E48.90108
G1 X69.37 Y130.397 E48.91366
G1 X69.223 Y130.122 E48.92403
G1 X69.17 Y129.894 E48.93182
G1 X69.169 Y123.76 E49.13584
G1 X66.587 Y123.762 E49.22171
