;FLAVOR:Marlin
;TIME:1705
;Filament used: 1.17593m
;Layer height: 0.2
;MINX:87.2
;MINY:87.2
;MINZ:0.2
;MAXX:132.8
;MAXY:133.665
;MAXZ:11
;Generated with Cura_SteamEngine 5.2.2
M82 ;absolute extrusion mode
; Ender 3 Custom Start G-code
G92 E0 ; Reset Extruder
G28 ; Home all axes
M104 S175 ; Start heating up the nozzle most of the way
M190 S60 ; Start heating the bed, wait until target temperature reached
M109 S200 ; Finish heating the nozzle
G1 Z2.0 F3000 ; Move Z Axis up little to prevent scratching of Heat Bed
G1 X0.1 Y20 Z0.3 F5000.0 ; Move to start position
G1 X0.1 Y200.0 Z0.3 F1500.0 E15 ; Draw the first line
G1 X0.4 Y200.0 Z0.3 F5000.0 ; Move to side a little
G1 X0.4 Y20 Z0.3 F1500.0 E30 ; Draw the second line
G92 E0 ; Reset Extruder
G1 Z2.0 F3000 ; Move Z Axis up little to prevent scratching of Heat Bed
G1 X5 Y20 Z0.3 F5000.0 ; Move over to prevent blob squish
G92 E0
G92 E0
G1 F1500 E-6.5
;LAYER_COUNT:55
;LAYER:0
M107
;MESH:ultrasonic_sensor_holder.stl
G0 F6000 X89.944 Y108.033 Z0.2
;TYPE:WALL-INNER
G1 F1500 E0
G1 F1283.4 X89.501 Y108.08 E0.01385
G1 F1304.3 X89.059 Y108.035 E0.02745
G1 F1240.3 X88.671 Y107.876 E0.04094
G1 F1200 X88.325 Y107.596 E0.05575
G1 X88.068 Y107.232 E0.07057
G1 F1237.1 X87.966 Y106.898 E0.08183
G1 F1300.8 X87.941 Y106.744 E0.08662
G1 F1315.1 X87.924 Y106.379 E0.09771
G1 F1276.6 X87.993 Y105.954 E0.11117
G1 F1224.5 X88.186 Y105.575 E0.12503
G1 F1200 X88.486 Y105.253 E0.13967
G1 X88.86 Y105.027 E0.15421
G1 X89.274 Y104.909 E0.16852
G1 X89.731 Y104.909 E0.18372
G1 X90.143 Y105.035 E0.19805
G1 X90.505 Y105.246 E0.21199
G1 X90.818 Y105.584 E0.22731
G1 X91.001 Y105.948 E0.24086
G1 X91.1 Y106.373 E0.25538
G1 X91.066 Y106.845 E0.27112
G1 X90.934 Y107.221 E0.28437
G1 X90.676 Y107.597 E0.29954
G1 X90.328 Y107.876 E0.31437
G1 F1221.4 X89.944 Y108.033 E0.32793
G0 F6000 X90.343 Y107.97
G0 X89.865 Y108.232
G0 X92.563 Y108.727
G0 X93.062 Y108.934
G0 X93.522 Y109.216
G0 X93.933 Y109.567
G0 X94.284 Y109.978
G0 X94.566 Y110.438
G0 X94.773 Y110.937
G0 X94.898 Y111.462
G0 X95.1 Y132.4
G1 F1200 X124.9 Y132.4 E1.31908
G1 X124.901 Y111.952 E1.99918
G1 X124.942 Y111.433 E2.0165
G1 X125.074 Y110.89 E2.03509
G1 X125.292 Y110.358 E2.05421
G1 X125.585 Y109.885 E2.07271
G1 X125.95 Y109.454 E2.0915
G1 X126.385 Y109.084 E2.11049
G1 X126.862 Y108.792 E2.12909
G1 X127.356 Y108.588 E2.14687
G1 X127.932 Y108.442 E2.16663
G1 X128.455 Y108.401 E2.18408
G1 X132.4 Y108.4 E2.31529
G1 X132.4 Y90.236 E2.91943
G1 F1256.5 X132.418 Y89.834 E2.93221
G1 F1340.8 X132.425 Y89.435 E2.94409
G1 F1280 X132.4 Y88.786 E2.96434
G1 F1200 X132.4 Y88.053 E2.98872
G1 X132.4 Y87.6 E3.00379
G1 X131.334 Y87.601 E3.03925
G1 F1273.2 X130.638 Y87.578 E3.06108
G1 F1344.5 X130.231 Y87.579 E3.07316
G1 F1269.8 X129.881 Y87.597 E3.08417
G1 F1212.1 X108.74 Y87.598 E3.78029
G1 F1206 X87.599 Y87.6 E4.47993
G1 F1200 X87.601 Y105.786 E5.0848
G1 F1280 X87.575 Y106.435 E5.10505
G1 F1337 X87.582 Y106.834 E5.11696
G1 F1253.3 X87.601 Y107.236 E5.12978
G1 F1200 X87.602 Y108.398 E5.16843
G1 X88.632 Y108.4 E5.20269
G1 F1237.1 X89.5 Y108.427 E5.2307
G1 X90.368 Y108.4 E5.25872
G1 F1200 X91.548 Y108.401 E5.29797
G1 X92.07 Y108.442 E5.31538
G1 X92.623 Y108.58 E5.33434
G1 X93.164 Y108.806 E5.35384
G1 X93.652 Y109.116 E5.37307
G1 X94.05 Y109.454 E5.39044
G1 X94.415 Y109.885 E5.40922
G1 X94.706 Y110.355 E5.42761
G1 X94.926 Y110.89 E5.44685
G1 X95.058 Y111.435 E5.4655
G1 X95.099 Y111.952 E5.48275
G1 X95.1 Y132.4 E6.16285
G0 F6000 X94.7 Y132.8
;TYPE:WALL-OUTER
G1 F1200 X125.3 Y132.8 E7.18061
G1 X125.3 Y111.984 E7.87296
G1 X125.342 Y111.481 E7.88974
G1 X125.461 Y110.999 E7.90626
G1 X125.657 Y110.528 E7.92322
G1 X125.903 Y110.131 E7.93876
G1 X126.247 Y109.727 E7.95641
G1 X126.631 Y109.403 E7.97312
G1 X127.028 Y109.157 E7.98865
G1 X127.525 Y108.953 E8.00652
G1 X127.983 Y108.842 E8.02219
G1 X128.486 Y108.8 E8.03898
G1 X132.8 Y108.8 E8.18247
G1 X132.8 Y88.053 E8.87251
G1 X132.8 Y87.2 E8.90088
G1 X87.2 Y87.2 E10.41755
G1 X87.201 Y108.799 E11.13593
G1 X91.516 Y108.8 E11.27945
G1 X91.99 Y108.837 E11.29526
G1 X92.493 Y108.958 E11.31247
G1 X92.958 Y109.149 E11.32919
G1 X93.393 Y109.421 E11.34625
G1 X93.776 Y109.75 E11.36305
G1 X94.097 Y110.131 E11.37962
G1 X94.343 Y110.528 E11.39515
G1 X94.547 Y111.024 E11.41299
G1 X94.658 Y111.483 E11.42869
G1 X94.7 Y111.984 E11.44542
G1 X94.7 Y132.8 E12.13776
G1 F1500 E5.63776
G0 F6000 X94.97 Y132.53
G0 X104 Y132.2
G0 X104.003 Y131.781
G0 X104 Y131.6
;TYPE:WALL-INNER
G1 F1500 E12.13776
G1 F1200 X103.639 Y131.481 E12.1504
G1 X103.446 Y131.231 E12.16091
G1 X103.4 Y131 E12.16874
G1 X103.4 Y99.968 E13.20087
G1 X103.441 Y99.779 E13.2073
G1 X103.563 Y99.588 E13.21484
G1 X103.72 Y99.468 E13.22141
G1 X103.926 Y99.404 E13.22859
G1 X116.076 Y99.4 E13.6327
G1 X116.336 Y99.502 E13.64199
G1 X116.518 Y99.695 E13.65081
G1 X116.598 Y99.946 E13.65957
G1 X116.6 Y128.25 E14.60097
G1 X116.6 Y131 E14.69243
G1 X116.554 Y131.232 E14.7003
G1 X116.36 Y131.481 E14.7108
G1 X116.086 Y131.6 E14.72073
G1 X104 Y131.6 E15.12271
G0 F6000 X103.879 Y131.161
;TYPE:WALL-OUTER
G1 F1200 X103.8 Y131.057 E15.12706
G1 X103.803 Y99.961 E16.16132
G1 X103.854 Y99.862 E16.16502
G1 X103.975 Y99.801 E16.16953
G1 X116.035 Y99.802 E16.57064
G1 X116.173 Y99.898 E16.57624
G1 X116.2 Y99.982 E16.57917
G1 X116.2 Y128.25 E17.51937
G1 X116.2 Y131.059 E17.6128
G1 X116.12 Y131.161 E17.61711
G1 X116.035 Y131.198 E17.62019
G1 X104 Y131.2 E18.02048
G1 X103.879 Y131.161 E18.0247
G1 F1500 E11.5247
G0 F6000 X103.879 Y131.5
G0 X103.572 Y131.428
G0 X103.22 Y107.931
G0 X91.225 Y106.995
G0 X89.173 Y107.658
G1 F1500 E18.0247
G1 F1200 X88.876 Y107.527 E18.0355
G1 X88.632 Y107.33 E18.04593
G1 X88.432 Y107.054 E18.05727
G1 X88.321 Y106.717 E18.06907
G1 X88.302 Y106.435 E18.07847
G1 X88.371 Y106.094 E18.09004
G1 X88.517 Y105.807 E18.10075
G1 X88.742 Y105.565 E18.11174
G1 X89.023 Y105.397 E18.12263
G1 X89.332 Y105.309 E18.13332
G1 X89.669 Y105.309 E18.14452
G1 X89.979 Y105.4 E18.15527
G1 X90.266 Y105.574 E18.16643
G1 X90.475 Y105.8 E18.17667
G1 X90.627 Y106.092 E18.18762
G1 X90.7 Y106.42 E18.1988
G1 X90.676 Y106.741 E18.2095
G1 X90.565 Y107.055 E18.22058
G1 X90.379 Y107.321 E18.23138
G1 X90.124 Y107.527 E18.24228
G1 X89.827 Y107.658 E18.25308
G1 X89.5 Y107.703 E18.26405
G1 X89.173 Y107.658 E18.27503
G1 F1500 E11.77503
G0 F6000 X89.053 Y107.931
G0 X89.889 Y107.89
G0 X90.25 Y107.733
G0 X91.239 Y106.755
G0 X90.209 Y104.888
G0 X88.308 Y105.208
G0 X87.783 Y106.038
G0 X87.772 Y87.772
G0 X130.19 Y87.764
G0 X128.758 Y89.272
G0 X129.331 Y90.309
G0 X129.86 Y91.067
G1 F1500 E18.27503
G0 F6000 X130.06 Y91.046
;TYPE:WALL-INNER
G1 F1200 X129.66 Y90.861 E18.28969
G1 X129.336 Y90.607 E18.30338
G1 X129.068 Y90.223 E18.31896
G1 X128.928 Y89.824 E18.33302
G1 X128.897 Y89.393 E18.34739
G1 X128.99 Y88.959 E18.36216
G1 X129.188 Y88.575 E18.37653
G1 X129.488 Y88.25 E18.39124
G1 F1206 X129.866 Y88.024 E18.40581
G1 F1266.5 X130.262 Y87.937 E18.41859
G1 F1322.3 X130.732 Y87.931 E18.43278
G1 F1286.9 X131.148 Y88.032 E18.44605
G1 F1227.6 X131.512 Y88.25 E18.45985
G1 F1200 X131.815 Y88.578 E18.4747
G1 F1233.9 X132.005 Y88.951 E18.48824
G1 F1300.8 X132.065 Y89.313 E18.4995
G1 F1352.1 X132.073 Y89.435 E18.50311
G1 F1340.8 X132.055 Y89.803 E18.51408
G1 F1256.5 X131.935 Y90.226 E18.52804
G1 F1200 X131.672 Y90.6 E18.54325
G1 X131.337 Y90.869 E18.55754
G1 X130.935 Y91.047 E18.57216
G1 X130.5 Y91.106 E18.58676
G1 X130.06 Y91.046 E18.60153
G0 F6000 X129.86 Y91.067
G0 X130.151 Y91.017
G0 X131.314 Y90.758
G0 X131.126 Y90.525
;TYPE:WALL-OUTER
G1 F1200 X130.823 Y90.659 E18.61255
G1 X130.5 Y90.703 E18.62339
G1 X130.176 Y90.659 E18.63427
G1 X129.873 Y90.523 E18.64532
G1 X129.623 Y90.324 E18.65594
G1 X129.435 Y90.055 E18.66686
G1 X129.323 Y89.744 E18.67785
G1 X129.3 Y89.421 E18.68862
G1 X129.37 Y89.096 E18.69968
G1 X129.518 Y88.807 E18.71048
G1 X129.742 Y88.565 E18.72145
G1 X130.02 Y88.399 E18.73222
G1 X130.327 Y88.311 E18.74284
G1 X130.668 Y88.309 E18.75418
G1 X130.976 Y88.396 E18.76483
G1 X131.258 Y88.566 E18.77578
G1 X131.484 Y88.81 E18.78684
G1 X131.629 Y89.094 E18.79744
G1 X131.698 Y89.435 E18.80902
G1 X131.677 Y89.737 E18.81909
G1 X131.568 Y90.053 E18.8302
G1 X131.379 Y90.322 E18.84114
G1 X131.126 Y90.525 E18.85193
G0 F6000 X131.314 Y90.758
G0 X131.782 Y90.163
G0 X131.913 Y89.793
G0 X131.934 Y89.478
G0 X131.718 Y88.324
G0 X132.02 Y88.053
;TYPE:SKIN
G1 F819.1 X131.983 Y88.116 E18.85549
G1 X131.911 Y88.116 E18.85899
G1 X131.874 Y88.053 E18.86255
G1 X131.911 Y87.99 E18.86611
G1 X131.983 Y87.99 E18.86962
G1 F1500 E12.36962
G0 F6000 X131.679 Y88.282
G0 X132.24 Y89.795
G0 X132.228 Y108.228
G0 X126.732 Y108.681
G0 X124.907 Y110.896
G0 X124.728 Y132.228
G0 X116.146 Y132.3
G1 F1500 E18.86962
G0 F6000 X116.146 Y131.999
G1 F995.9 X104.007 Y132 E19.35614
G1 F987.7 X103.93 Y131.994 E19.35926
G1 F1023.5 X103.413 Y131.769 E19.38124
G1 F1134.8 X103.111 Y131.38 E19.39857
G1 F1200 X103.043 Y131.034 E19.41029
G1 X103.041 Y99.868 E20.44688
G1 X103.137 Y99.569 E20.45732
G1 X103.374 Y99.265 E20.47015
G1 X103.809 Y99.042 E20.4864
G1 X116.126 Y99.047 E20.89607
G1 X116.457 Y99.15 E20.9076
G1 X116.688 Y99.328 E20.9173
G1 X116.855 Y99.562 E20.92686
G1 X116.958 Y99.874 E20.93779
G1 X116.957 Y131.035 E21.97421
G1 X116.889 Y131.377 E21.9858
G1 F1170.7 X116.59 Y131.762 E22.00242
G1 F1113.7 X116.157 Y132 E22.02013
G1 F1140.1 X116.586 Y132.039 E22.03521
G1 F1200 X124.539 Y132.039 E22.29973
G1 X124.542 Y111.924 E22.96876
G1 X124.589 Y111.355 E22.98775
G1 X124.725 Y110.801 E23.00672
G1 X124.973 Y110.188 E23.02871
G1 X125.278 Y109.694 E23.04802
G1 X125.676 Y109.218 E23.06866
G1 X126.157 Y108.805 E23.08974
G1 X126.687 Y108.477 E23.11048
G1 X127.267 Y108.234 E23.13139
G1 X127.854 Y108.09 E23.15149
G1 X128.428 Y108.042 E23.17065
G1 X132.04 Y108.04 E23.29079
G1 X132.04 Y90.702 E23.86745
G1 X131.914 Y90.869 E23.87441
G1 X131.524 Y91.182 E23.89104
G1 X131.03 Y91.398 E23.90897
G1 X130.5 Y91.47 E23.92676
G1 X129.966 Y91.397 E23.94469
G1 X129.472 Y91.178 E23.96266
G1 X129.057 Y90.839 E23.98049
G1 X128.743 Y90.385 E23.99885
G1 X128.572 Y89.905 E24.01579
G1 X128.533 Y89.373 E24.03354
G1 X128.645 Y88.841 E24.05162
G1 X128.889 Y88.365 E24.06941
G1 X129.261 Y87.961 E24.08767
G1 X87.961 Y87.961 E25.46132
G1 X87.962 Y105.285 E26.03752
G1 X88.247 Y104.975 E26.05152
G1 X88.709 Y104.696 E26.06947
G1 X89.218 Y104.549 E26.08709
G1 X89.781 Y104.549 E26.10582
G1 X90.259 Y104.686 E26.12236
G1 X90.729 Y104.964 E26.14052
G1 X91.094 Y105.343 E26.15802
G1 X91.356 Y105.852 E26.17706
G1 X91.466 Y106.378 E26.19493
G1 X91.421 Y106.897 E26.21226
G1 X91.264 Y107.378 E26.22909
G1 X90.947 Y107.841 E26.24775
G1 X90.701 Y108.039 E26.25826
G1 X91.576 Y108.042 E26.28736
G1 X92.128 Y108.086 E26.30578
G1 X92.726 Y108.232 E26.32625
G1 X93.288 Y108.463 E26.34646
G1 X93.837 Y108.801 E26.3679
G1 X94.281 Y109.176 E26.38723
G1 X94.695 Y109.657 E26.40834
G1 X95.031 Y110.2 E26.42958
G1 X95.274 Y110.793 E26.45089
G1 X95.411 Y111.358 E26.47023
G1 X95.458 Y111.922 E26.48905
G1 X95.46 Y132.04 E27.15818
G1 X103.439 Y132.04 E27.42356
G1 F1076.2 X103.93 Y131.994 E27.44185
G1 F1500 E20.94185
G0 F6000 X104.026 Y131.704
G0 X103.659 Y131.481
G0 X103.219 Y130.999
G0 X103.219 Y132.2
G0 X96.2 Y131.838
G1 F1500 E27.44185
G1 F1200 X95.658 Y131.297 E27.46732
G0 F6000 X95.658 Y130.731
G1 F1200 X96.766 Y131.838 E27.51942
G0 F6000 X97.331 Y131.838
G1 F1200 X95.658 Y130.165 E27.59811
G0 F6000 X95.658 Y129.599
G1 F1200 X97.897 Y131.838 E27.70343
G0 F6000 X98.463 Y131.838
G1 F1200 X95.658 Y129.034 E27.83534
G0 F6000 X95.658 Y128.468
G1 F1200 X99.028 Y131.838 E27.99385
G0 F6000 X99.594 Y131.838
G1 F1200 X95.658 Y127.902 E28.17899
G0 F6000 X95.658 Y127.337
G1 F1200 X100.16 Y131.838 E28.39073
G0 F6000 X100.725 Y131.838
G1 F1200 X95.658 Y126.771 E28.62907
G0 F6000 X95.658 Y126.205
G1 F1200 X101.291 Y131.838 E28.89402
G0 F6000 X101.857 Y131.838
G1 F1200 X95.658 Y125.64 E29.18558
G0 F6000 X95.658 Y125.073
G1 F1200 X102.423 Y131.838 E29.50379
G0 F6000 X102.988 Y131.838
G1 F1200 X95.658 Y124.508 E29.84857
G0 F6000 X95.658 Y123.942
G1 F1200 X102.862 Y131.146 E30.18742
G0 F6000 X102.84 Y130.559
G1 F1200 X95.658 Y123.376 E30.52527
G0 F6000 X95.658 Y122.811
G1 F1200 X102.84 Y129.993 E30.86308
G0 F6000 X102.84 Y129.428
G1 F1200 X95.658 Y122.245 E31.20093
G0 F6000 X95.658 Y121.679
G1 F1200 X102.84 Y128.862 E31.53877
G0 F6000 X102.84 Y128.296
G1 F1200 X95.658 Y121.113 E31.87661
G0 F6000 X95.658 Y120.548
G1 F1200 X102.84 Y127.731 E32.21446
G0 F6000 X102.84 Y127.165
G1 F1200 X95.658 Y119.982 E32.5523
G0 F6000 X95.658 Y119.416
G1 F1200 X102.84 Y126.599 E32.89014
G0 F6000 X102.84 Y126.034
G1 F1200 X95.658 Y118.851 E33.22798
G0 F6000 X95.657 Y118.284
G1 F1200 X102.84 Y125.468 E33.56587
G0 F6000 X102.84 Y124.902
G1 F1200 X95.657 Y117.719 E33.90374
G0 F6000 X95.657 Y117.153
G1 F1200 X102.84 Y124.336 E34.24161
G0 F6000 X102.84 Y123.771
G1 F1200 X95.657 Y116.587 E34.5795
G0 F6000 X95.657 Y116.022
G1 F1200 X102.84 Y123.205 E34.91736
G0 F6000 X102.84 Y122.639
G1 F1200 X95.657 Y115.456 E35.25523
G0 F6000 X95.657 Y114.89
G1 F1200 X102.84 Y122.074 E35.59312
G0 F6000 X102.84 Y121.508
G1 F1200 X95.657 Y114.325 E35.93098
G0 F6000 X95.657 Y113.759
G1 F1200 X102.84 Y120.942 E36.26885
G0 F6000 X102.84 Y120.377
G1 F1200 X95.657 Y113.193 E36.60674
G0 F6000 X95.657 Y112.627
G1 F1200 X102.84 Y119.811 E36.94463
G0 F6000 X102.84 Y119.245
G1 F1200 X95.657 Y112.062 E37.2825
G0 F6000 X95.617 Y111.456
G1 F1200 X102.84 Y118.68 E37.62227
G0 F6000 X102.84 Y118.114
G1 F1200 X95.464 Y110.737 E37.96924
G0 F6000 X94.963 Y110.715
G0 X94.574 Y109.95
G0 X94.892 Y109.6
G1 F1200 X102.84 Y117.548 E38.34309
G0 F6000 X102.84 Y116.983
G1 F1200 X91.451 Y105.593 E38.87881
G0 F6000 X91.666 Y106.374
G1 F1200 X93.894 Y108.602 E38.98361
G0 F6000 X93.622 Y108.971
G0 X92.516 Y108.448
G0 X92.757 Y108.031
G1 F1200 X91.619 Y106.892 E39.03716
G0 F6000 X91.489 Y107.328
G1 F1200 X92.038 Y107.877 E39.06299
G0 F6000 X91.435 Y107.84
G1 F1200 X91.288 Y107.693 E39.0699
G0 F6000 X90.914 Y107.431
G0 X90.94 Y106.402
G0 X90.876 Y106.091
G0 X90.344 Y105.034
G0 X90.386 Y104.528
G1 F1200 X88.161 Y102.303 E39.17456
G0 F6000 X88.161 Y102.869
G1 F1200 X89.64 Y104.348 E39.24413
G0 F6000 X89.1 Y104.373
G1 F1200 X88.161 Y103.434 E39.28829
G0 F6000 X88.161 Y104
G1 F1200 X88.661 Y104.501 E39.31183
G0 F6000 X88.303 Y104.708
G1 F1200 X88.161 Y104.566 E39.31851
G0 F6000 X87.701 Y104.562
G0 X87.7 Y101.842
G0 X88.161 Y101.737
G1 F1200 X102.84 Y116.417 E40.00899
G0 F6000 X102.84 Y115.851
G1 F1200 X88.161 Y101.172 E40.69945
G0 F6000 X88.161 Y100.606
G1 F1200 X102.841 Y115.286 E41.38995
G0 F6000 X102.841 Y114.721
G1 F1200 X88.161 Y100.04 E42.08048
G0 F6000 X88.161 Y99.475
G1 F1200 X102.841 Y114.155 E42.77098
G0 F6000 X102.841 Y113.589
G1 F1200 X88.161 Y98.909 E43.46148
G0 F6000 X88.161 Y98.343
G1 F1200 X102.841 Y113.023 E44.15198
G0 F6000 X102.841 Y112.458
G1 F1200 X88.161 Y97.778 E44.84248
G0 F6000 X88.161 Y97.212
G1 F1200 X102.841 Y111.892 E45.53299
G0 F6000 X102.841 Y111.326
G1 F1200 X88.161 Y96.646 E46.22349
G0 F6000 X88.16 Y96.08
G1 F1200 X102.841 Y110.761 E46.91404
G0 F6000 X102.841 Y110.195
G1 F1200 X88.16 Y95.514 E47.60459
G0 F6000 X88.16 Y94.948
G1 F1200 X102.841 Y109.629 E48.29514
G0 F6000 X102.841 Y109.064
G1 F1200 X88.16 Y94.383 E48.98569
G0 F6000 X88.16 Y93.817
G1 F1200 X102.841 Y108.498 E49.67624
G0 F6000 X102.841 Y107.932
G1 F1200 X88.16 Y93.251 E50.36678
G0 F6000 X88.16 Y92.686
G1 F1200 X102.841 Y107.367 E51.05733
G0 F6000 X102.841 Y106.801
G1 F1200 X88.16 Y92.12 E51.74788
G0 F6000 X88.16 Y91.554
G1 F1200 X102.841 Y106.235 E52.43843
G0 F6000 X102.841 Y105.67
G1 F1200 X88.16 Y90.989 E53.12898
G0 F6000 X88.16 Y90.423
G1 F1200 X102.841 Y105.104 E53.81953
G0 F6000 X102.841 Y104.538
G1 F1200 X88.16 Y89.857 E54.51008
G0 F6000 X88.16 Y89.292
G1 F1200 X102.841 Y103.972 E55.20061
G0 F6000 X102.841 Y103.407
G1 F1200 X88.16 Y88.726 E55.89115
G0 F6000 X88.16 Y88.16
G1 F1200 X102.841 Y102.841 E56.5817
G0 F6000 X102.841 Y102.275
G1 F1200 X88.727 Y88.161 E57.24558
G0 F6000 X89.292 Y88.161
G1 F1200 X102.841 Y101.71 E57.88289
G0 F6000 X102.841 Y101.144
G1 F1200 X89.858 Y88.161 E58.49357
G0 F6000 X90.424 Y88.161
