;FLAVOR:Marlin
;TIME:6372
;Filament used: 14.7632m
;Layer height: 0.4
;MINX:60.185
;MINY:65.2
;MINZ:0.2
;MAXX:159.785
;MAXY:154.8
;MAXZ:10.2
;Generated with Cura_SteamEngine 5.2.2
M82 ;absolute extrusion mode
; Ender 3 Custom Start G-code
G92 E0 ; Reset Extruder
G28 ; Home all axes
M104 S175 ; Start heating up the nozzle most of the way
M190 S60 ; Start heating the bed, wait until target temperature reached
M109 S200 ; Finish heating the nozzle
G1 Z2.0 F3000 ; Move Z Axis up little to prevent scratching of Heat Bed
G1 X0.1 Y20 Z0.3 F5000.0 ; Move to start position
G1 X0.1 Y200.0 Z0.3 F1500.0 E15 ; Draw the first line
G1 X0.4 Y200.0 Z0.3 F5000.0 ; Move to side a little
G1 X0.4 Y20 Z0.3 F1500.0 E30 ; Draw the second line
G92 E0 ; Reset Extruder
G1 Z2.0 F3000 ; Move Z Axis up little to prevent scratching of Heat Bed
G1 X5 Y20 Z0.3 F5000.0 ; Move over to prevent blob squish
G92 E0
G92 E0
G1 F1500 E-6.5
;LAYER_COUNT:26
;LAYER:0
M107
;MESH:seat_back.STL
G0 F6000 X60.585 Y154.4 Z0.2
;TYPE:WALL-INNER
G1 F1500 E0
G1 F1200 X159.385 Y154.4 E3.2861
G1 X159.385 Y110 E4.76285
G1 X159.385 Y65.6 E6.2396
G1 X60.585 Y65.6 E9.5257
G1 X60.585 Y154.4 E12.4792
G0 F6000 X60.185 Y154.8
;TYPE:WALL-OUTER
G1 F1200 X159.785 Y154.8 E15.79191
G1 X159.785 Y110 E17.28197
G1 X159.785 Y65.2 E18.77202
G1 X60.185 Y65.2 E22.08473
G1 X60.185 Y154.8 E25.06484
G0 F6000 X60.455 Y154.53
G0 X60.685 Y154.04
G0 X60.945 Y154.04
;TYPE:SKIN
G1 F1200 X159.025 Y154.04 E28.32699
G1 X159.025 Y110 E29.79177
G1 X159.025 Y65.96 E31.25654
G1 X60.945 Y65.96 E34.5187
G1 X60.945 Y154.04 E37.44825
G0 F6000 X61.632 Y153.839
G1 F1200 X61.144 Y153.351 E37.47121
G0 F6000 X61.144 Y152.785
G1 F1200 X62.198 Y153.839 E37.52078
G0 F6000 X62.764 Y153.839
G1 F1200 X61.144 Y152.22 E37.59696
G0 F6000 X61.144 Y151.654
G1 F1200 X63.329 Y153.839 E37.69973
G0 F6000 X63.895 Y153.839
G1 F1200 X61.144 Y151.088 E37.82913
G0 F6000 X61.144 Y150.523
G1 F1200 X64.461 Y153.839 E37.98513
G0 F6000 X65.026 Y153.839
G1 F1200 X61.144 Y149.957 E38.16773
G0 F6000 X61.144 Y149.391
G1 F1200 X65.592 Y153.839 E38.37695
G0 F6000 X66.158 Y153.839
G1 F1200 X61.144 Y148.826 E38.61277
G0 F6000 X61.144 Y148.26
G1 F1200 X66.724 Y153.839 E38.87521
G0 F6000 X67.289 Y153.839
G1 F1200 X61.144 Y147.694 E39.16425
G0 F6000 X61.144 Y147.129
G1 F1200 X67.855 Y153.839 E39.47989
G0 F6000 X68.421 Y153.839
G1 F1200 X61.144 Y146.563 E39.82216
G0 F6000 X61.144 Y145.997
G1 F1200 X68.986 Y153.839 E40.19102
G0 F6000 X69.552 Y153.839
G1 F1200 X61.144 Y145.432 E40.58648
G0 F6000 X61.144 Y144.866
G1 F1200 X70.118 Y153.839 E41.00857
G0 F6000 X70.683 Y153.839
G1 F1200 X61.144 Y144.3 E41.45726
G0 F6000 X61.144 Y143.735
G1 F1200 X71.249 Y153.839 E41.93254
G0 F6000 X71.815 Y153.839
G1 F1200 X61.144 Y143.169 E42.43445
G0 F6000 X61.144 Y142.603
G1 F1200 X72.38 Y153.839 E42.96296
G0 F6000 X72.946 Y153.839
G1 F1200 X61.144 Y142.037 E43.51809
G0 F6000 X61.144 Y141.472
G1 F1200 X73.512 Y153.839 E44.09981
G0 F6000 X74.077 Y153.839
G1 F1200 X61.144 Y140.906 E44.70814
G0 F6000 X61.144 Y140.34
G1 F1200 X74.643 Y153.839 E45.34309
G0 F6000 X75.209 Y153.839
G1 F1200 X61.144 Y139.775 E46.00465
G0 F6000 X61.144 Y139.209
G1 F1200 X75.774 Y153.839 E46.6928
G0 F6000 X76.34 Y153.839
G1 F1200 X61.144 Y138.643 E47.40757
G0 F6000 X61.144 Y138.078
G1 F1200 X76.906 Y153.839 E48.14894
G0 F6000 X77.472 Y153.839
G1 F1200 X61.144 Y137.512 E48.91694
G0 F6000 X61.144 Y136.946
G1 F1200 X78.037 Y153.839 E49.71153
G0 F6000 X78.603 Y153.839
G1 F1200 X61.144 Y136.381 E50.53273
G0 F6000 X61.144 Y135.815
G1 F1200 X79.169 Y153.839 E51.38054
G0 F6000 X79.734 Y153.839
G1 F1200 X61.144 Y135.249 E52.25496
G0 F6000 X61.144 Y134.684
G1 F1200 X80.3 Y153.839 E53.15598
G0 F6000 X80.866 Y153.839
G1 F1200 X61.144 Y134.118 E54.08362
G0 F6000 X61.144 Y133.552
G1 F1200 X81.431 Y153.839 E55.03785
G0 F6000 X81.997 Y153.839
G1 F1200 X61.144 Y132.986 E56.01872
G0 F6000 X61.144 Y132.421
G1 F1200 X82.563 Y153.839 E57.02618
G0 F6000 X83.128 Y153.839
G1 F1200 X61.144 Y131.855 E58.06024
G0 F6000 X61.144 Y131.289
G1 F1200 X83.694 Y153.839 E59.12092
G0 F6000 X84.26 Y153.839
G1 F1200 X61.144 Y130.724 E60.2082
G0 F6000 X61.144 Y130.158
G1 F1200 X84.825 Y153.839 E61.32208
G0 F6000 X85.391 Y153.839
G1 F1200 X61.144 Y129.592 E62.46259
G0 F6000 X61.144 Y129.027
G1 F1200 X85.957 Y153.839 E63.62969
G0 F6000 X86.522 Y153.839
G1 F1200 X61.144 Y128.461 E64.82339
G0 F6000 X61.144 Y127.895
G1 F1200 X87.088 Y153.839 E66.04372
G0 F6000 X87.654 Y153.839
G1 F1200 X61.144 Y127.33 E67.29065
G0 F6000 X61.144 Y126.764
G1 F1200 X88.22 Y153.839 E68.56419
G0 F6000 X88.785 Y153.839
G1 F1200 X61.144 Y126.198 E69.86434
G0 F6000 X61.144 Y125.633
G1 F1200 X89.351 Y153.839 E71.19109
G0 F6000 X89.917 Y153.839
G1 F1200 X61.144 Y125.067 E72.54446
G0 F6000 X61.144 Y124.501
G1 F1200 X90.482 Y153.839 E73.92443
G0 F6000 X91.048 Y153.839
G1 F1200 X61.144 Y123.936 E75.331
G0 F6000 X61.144 Y123.37
G1 F1200 X91.614 Y153.839 E76.76419
G0 F6000 X92.179 Y153.839
G1 F1200 X61.144 Y122.804 E78.22398
G0 F6000 X61.144 Y122.238
G1 F1200 X92.745 Y153.839 E79.7104
G0 F6000 X93.311 Y153.839
G1 F1200 X61.144 Y121.673 E81.22341
G0 F6000 X61.144 Y121.107
G1 F1200 X93.876 Y153.839 E82.76302
G0 F6000 X94.442 Y153.839
G1 F1200 X61.144 Y120.541 E84.32926
G0 F6000 X61.144 Y119.976
G1 F1200 X95.008 Y153.839 E85.92209
G0 F6000 X95.573 Y153.839
G1 F1200 X61.144 Y119.41 E87.54153
G0 F6000 X61.144 Y118.844
G1 F1200 X96.139 Y153.839 E89.18759
G0 F6000 X96.705 Y153.839
G1 F1200 X61.144 Y118.279 E90.86024
G0 F6000 X61.144 Y117.713
G1 F1200 X97.271 Y153.839 E92.55952
G0 F6000 X97.836 Y153.839
G1 F1200 X61.144 Y117.147 E94.2854
G0 F6000 X61.144 Y116.582
G1 F1200 X98.402 Y153.839 E96.03788
G0 F6000 X98.968 Y153.839
G1 F1200 X61.144 Y116.016 E97.81698
G0 F6000 X61.144 Y115.45
G1 F1200 X99.533 Y153.839 E99.62268
G0 F6000 X100.099 Y153.839
G1 F1200 X61.144 Y114.885 E101.45498
G0 F6000 X61.144 Y114.319
G1 F1200 X100.665 Y153.839 E103.31391
G0 F6000 X101.23 Y153.839
G1 F1200 X61.144 Y113.753 E105.19943
G0 F6000 X61.144 Y113.187
G1 F1200 X101.796 Y153.839 E107.11157
G0 F6000 X102.362 Y153.839
G1 F1200 X61.144 Y112.622 E109.05032
G0 F6000 X61.144 Y112.056
G1 F1200 X102.927 Y153.839 E111.01566
G0 F6000 X103.493 Y153.839
G1 F1200 X61.144 Y111.49 E113.00763
G0 F6000 X61.144 Y110.925
G1 F1200 X104.059 Y153.839 E115.0262
G0 F6000 X104.624 Y153.839
G1 F1200 X61.144 Y110.359 E117.07136
G0 F6000 X61.144 Y109.793
G1 F1200 X105.19 Y153.839 E119.14315
G0 F6000 X105.756 Y153.839
G1 F1200 X61.144 Y109.228 E121.24154
G0 F6000 X61.144 Y108.662
G1 F1200 X106.321 Y153.839 E123.36653
G0 F6000 X106.887 Y153.839
G1 F1200 X61.144 Y108.096 E125.51814
G0 F6000 X61.144 Y107.531
G1 F1200 X107.453 Y153.839 E127.69635
G0 F6000 X108.019 Y153.839
G1 F1200 X61.144 Y106.965 E129.90118
G0 F6000 X61.144 Y106.399
G1 F1200 X108.584 Y153.839 E132.13261
G0 F6000 X109.15 Y153.839
G1 F1200 X61.144 Y105.834 E134.39064
G0 F6000 X61.144 Y105.268
G1 F1200 X109.716 Y153.839 E136.6753
G0 F6000 X110.281 Y153.839
G1 F1200 X61.144 Y104.702 E138.98655
G0 F6000 X61.144 Y104.137
G1 F1200 X110.847 Y153.839 E141.3244
G0 F6000 X111.413 Y153.839
G1 F1200 X61.144 Y103.571 E143.68888
G0 F6000 X61.144 Y103.005
G1 F1200 X111.978 Y153.839 E146.07996
G0 F6000 X112.544 Y153.839
G1 F1200 X61.144 Y102.439 E148.49765
G0 F6000 X61.144 Y101.874
G1 F1200 X113.11 Y153.839 E150.94195
G0 F6000 X113.675 Y153.839
G1 F1200 X61.144 Y101.308 E153.41285
G0 F6000 X61.144 Y100.742
G1 F1200 X114.241 Y153.839 E155.91037
G0 F6000 X114.807 Y153.839
G1 F1200 X61.144 Y100.177 E158.43449
G0 F6000 X61.144 Y99.611
G1 F1200 X115.372 Y153.839 E160.98521
G0 F6000 X115.938 Y153.839
G1 F1200 X61.144 Y99.045 E163.56255
G0 F6000 X61.144 Y98.48
G1 F1200 X116.504 Y153.839 E166.16649
G0 F6000 X117.07 Y153.839
G1 F1200 X61.144 Y97.914 E168.79706
G0 F6000 X61.144 Y97.348
G1 F1200 X117.635 Y153.839 E171.45422
G0 F6000 X118.201 Y153.839
G1 F1200 X61.144 Y96.783 E174.13798
G0 F6000 X61.144 Y96.217
G1 F1200 X118.767 Y153.839 E176.84837
G0 F6000 X119.332 Y153.839
G1 F1200 X61.144 Y95.651 E179.58535
G0 F6000 X61.144 Y95.086
G1 F1200 X119.898 Y153.839 E182.34894
G0 F6000 X120.464 Y153.839
G1 F1200 X61.144 Y94.52 E185.13914
G0 F6000 X61.144 Y93.954
G1 F1200 X121.029 Y153.839 E187.95595
G0 F6000 X121.595 Y153.839
G1 F1200 X61.144 Y93.389 E190.79936
G0 F6000 X61.144 Y92.823
G1 F1200 X122.161 Y153.839 E193.66939
G0 F6000 X122.726 Y153.839
G1 F1200 X61.144 Y92.257 E196.56601
G0 F6000 X61.144 Y91.691
G1 F1200 X123.292 Y153.839 E199.48927
G0 F6000 X123.858 Y153.839
G1 F1200 X61.144 Y91.126 E202.43912
G0 F6000 X61.144 Y90.56
G1 F1200 X124.423 Y153.839 E205.41557
G0 F6000 X124.989 Y153.839
G1 F1200 X61.144 Y89.994 E208.41864
G0 F6000 X61.144 Y89.429
G1 F1200 X125.555 Y153.839 E211.44831
G0 F6000 X126.12 Y153.839
G1 F1200 X61.144 Y88.863 E214.50458
G0 F6000 X61.144 Y88.297
G1 F1200 X126.686 Y153.839 E217.58748
G0 F6000 X127.252 Y153.839
G1 F1200 X61.144 Y87.732 E220.69697
G0 F6000 X61.144 Y87.166
G1 F1200 X127.818 Y153.839 E223.83309
G0 F6000 X128.383 Y153.839
G1 F1200 X61.144 Y86.6 E226.99581
G0 F6000 X61.144 Y86.035
G1 F1200 X128.949 Y153.839 E230.18512
G0 F6000 X129.515 Y153.839
G1 F1200 X61.144 Y85.469 E233.40106
G0 F6000 X61.144 Y84.903
G1 F1200 X130.08 Y153.839 E236.6436
G0 F6000 X130.646 Y153.839
G1 F1200 X61.144 Y84.338 E239.91274
G0 F6000 X61.144 Y83.772
G1 F1200 X131.212 Y153.839 E243.2085
G0 F6000 X131.777 Y153.839
G1 F1200 X61.144 Y83.206 E246.53086
G0 F6000 X61.144 Y82.64
G1 F1200 X132.343 Y153.839 E249.87984
G0 F6000 X132.909 Y153.839
G1 F1200 X61.144 Y82.075 E253.25542
G0 F6000 X61.144 Y81.509
G1 F1200 X133.474 Y153.839 E256.6576
G0 F6000 X134.04 Y153.839
G1 F1200 X61.144 Y80.943 E260.08641
G0 F6000 X61.144 Y80.378
G1 F1200 X134.606 Y153.839 E263.54181
G0 F6000 X135.171 Y153.839
G1 F1200 X61.144 Y79.812 E267.02381
G0 F6000 X61.144 Y79.246
G1 F1200 X135.737 Y153.839 E270.53244
G0 F6000 X136.303 Y153.839
G1 F1200 X61.144 Y78.681 E274.06767
G0 F6000 X61.144 Y78.115
G1 F1200 X136.869 Y153.839 E277.62951
G0 F6000 X137.434 Y153.839
G1 F1200 X61.144 Y77.549 E281.21796
G0 F6000 X61.144 Y76.984
G1 F1200 X138 Y153.839 E284.83301
G0 F6000 X138.566 Y153.839
G1 F1200 X61.144 Y76.418 E288.47468
G0 F6000 X61.144 Y75.852
G1 F1200 X139.131 Y153.839 E292.14295
G0 F6000 X139.697 Y153.839
G1 F1200 X61.144 Y75.287 E295.83782
G0 F6000 X61.144 Y74.721
G1 F1200 X140.263 Y153.839 E299.55931
G0 F6000 X140.828 Y153.839
G1 F1200 X61.144 Y74.155 E303.3074
G0 F6000 X61.144 Y73.59
G1 F1200 X141.394 Y153.839 E307.08209
G0 F6000 X141.96 Y153.839
G1 F1200 X61.144 Y73.024 E310.8834
G0 F6000 X61.144 Y72.458
G1 F1200 X142.525 Y153.839 E314.71132
G0 F6000 X143.091 Y153.839
G1 F1200 X61.144 Y71.892 E318.56585
G0 F6000 X61.144 Y71.327
G1 F1200 X143.657 Y153.839 E322.44699
G0 F6000 X144.222 Y153.839
G1 F1200 X61.144 Y70.761 E326.35472
G0 F6000 X61.144 Y70.195
G1 F1200 X144.788 Y153.839 E330.28908
G0 F6000 X145.354 Y153.839
G1 F1200 X61.144 Y69.63 E334.25004
G0 F6000 X61.144 Y69.064
G1 F1200 X145.919 Y153.839 E338.23759
G0 F6000 X146.485 Y153.839
G1 F1200 X61.144 Y68.498 E342.25177
G0 F6000 X61.144 Y67.933
G1 F1200 X147.051 Y153.839 E346.29255
G0 F6000 X147.617 Y153.839
G1 F1200 X61.144 Y67.367 E350.35995
G0 F6000 X61.144 Y66.801
G1 F1200 X148.182 Y153.839 E354.45395
G0 F6000 X148.748 Y153.839
G1 F1200 X61.144 Y66.236 E358.57455
G0 F6000 X61.634 Y66.159
G1 F1200 X149.314 Y153.839 E362.69875
G0 F6000 X149.879 Y153.839
G1 F1200 X62.199 Y66.159 E366.82295
G0 F6000 X62.765 Y66.159
G1 F1200 X150.445 Y153.839 E370.94715
G0 F6000 X151.011 Y153.839
G1 F1200 X63.331 Y66.159 E375.07134
G0 F6000 X63.896 Y66.159
G1 F1200 X151.576 Y153.839 E379.19554
G0 F6000 X152.142 Y153.839
G1 F1200 X64.462 Y66.159 E383.31974
G0 F6000 X65.028 Y66.159
G1 F1200 X152.708 Y153.839 E387.44394
G0 F6000 X153.273 Y153.839
G1 F1200 X65.594 Y66.159 E391.56811
G0 F6000 X66.159 Y66.159
G1 F1200 X153.839 Y153.839 E395.69231
G0 F6000 X154.405 Y153.839
G1 F1200 X66.725 Y66.159 E399.81651
G0 F6000 X67.291 Y66.159
G1 F1200 X154.97 Y153.839 E403.94069
G0 F6000 X155.536 Y153.839
G1 F1200 X67.856 Y66.159 E408.06488
G0 F6000 X68.422 Y66.159
G1 F1200 X156.102 Y153.839 E412.18908
G0 F6000 X156.667 Y153.839
G1 F1200 X68.988 Y66.159 E416.31326
G0 F6000 X69.553 Y66.159
G1 F1200 X157.233 Y153.839 E420.43746
G0 F6000 X157.799 Y153.839
G1 F1200 X70.119 Y66.159 E424.56165
G0 F6000 X70.685 Y66.159
G1 F1200 X158.365 Y153.839 E428.68585
G0 F6000 X158.824 Y153.733
G1 F1200 X71.25 Y66.159 E432.80507
G0 F6000 X71.816 Y66.159
G1 F1200 X158.824 Y153.167 E436.89765
G0 F6000 X158.824 Y152.602
G1 F1200 X72.382 Y66.159 E440.96364
G0 F6000 X72.947 Y66.159
G1 F1200 X158.824 Y152.036 E445.00304
G0 F6000 X158.824 Y151.47
G1 F1200 X73.513 Y66.159 E449.0158
G0 F6000 X74.079 Y66.159
G1 F1200 X158.824 Y150.905 E453.00197
G0 F6000 X158.824 Y150.339
G1 F1200 X74.645 Y66.159 E456.96152
G0 F6000 X75.21 Y66.159
G1 F1200 X158.824 Y149.773 E460.89446
G0 F6000 X158.824 Y149.208
G1 F1200 X75.776 Y66.159 E464.80081
G0 F6000 X76.342 Y66.159
G1 F1200 X158.824 Y148.642 E468.68053
G0 F6000 X158.824 Y148.076
G1 F1200 X76.907 Y66.159 E472.53366
G0 F6000 X77.473 Y66.159
G1 F1200 X158.824 Y147.51 E476.36016
G0 F6000 X158.824 Y146.945
G1 F1200 X78.039 Y66.159 E480.16006
G0 F6000 X78.604 Y66.159
G1 F1200 X158.824 Y146.379 E483.93337
G0 F6000 X158.824 Y145.813
G1 F1200 X79.17 Y66.159 E487.68005
G0 F6000 X79.736 Y66.159
G1 F1200 X158.824 Y145.248 E491.40013
G0 F6000 X158.824 Y144.682
G1 F1200 X80.301 Y66.159 E495.09361
G0 F6000 X80.867 Y66.159
G1 F1200 X158.824 Y144.116 E498.76047
G0 F6000 X158.824 Y143.551
G1 F1200 X81.433 Y66.159 E502.40072
G0 F6000 X81.998 Y66.159
G1 F1200 X158.824 Y142.985 E506.01438
G0 F6000 X158.824 Y142.419
G1 F1200 X82.564 Y66.159 E509.60142
G0 F6000 X83.13 Y66.159
G1 F1200 X158.824 Y141.854 E513.16186
G0 F6000 X158.824 Y141.288
G1 F1200 X83.695 Y66.159 E516.6957
G0 F6000 X84.261 Y66.159
G1 F1200 X158.824 Y140.722 E520.20291
G0 F6000 X158.824 Y140.157
G1 F1200 X84.827 Y66.159 E523.68353
G0 F6000 X85.393 Y66.159
G1 F1200 X158.824 Y139.591 E527.13752
G0 F6000 X158.824 Y139.025
G1 F1200 X85.958 Y66.159 E530.56491
G0 F6000 X86.524 Y66.159
G1 F1200 X158.824 Y138.459 E533.96568
G0 F6000 X158.824 Y137.894
G1 F1200 X87.09 Y66.159 E537.33985
G0 F6000 X87.655 Y66.159
G1 F1200 X158.824 Y137.328 E540.68742
G0 F6000 X158.824 Y136.762
G1 F1200 X88.221 Y66.159 E544.00837
G0 F6000 X88.787 Y66.159
G1 F1200 X158.824 Y136.197 E547.30272
G0 F6000 X158.824 Y135.631
G1 F1200 X89.352 Y66.159 E550.57047
G0 F6000 X89.918 Y66.159
G1 F1200 X158.824 Y135.065 E553.8116
G0 F6000 X158.824 Y134.5
G1 F1200 X90.484 Y66.159 E557.02613
G0 F6000 X91.049 Y66.159
G1 F1200 X158.824 Y133.934 E560.21406
G0 F6000 X158.824 Y133.368
G1 F1200 X91.615 Y66.159 E563.37536
G0 F6000 X92.181 Y66.159
G1 F1200 X158.824 Y132.803 E566.51007
G0 F6000 X158.824 Y132.237
G1 F1200 X92.746 Y66.159 E569.61817
G0 F6000 X93.312 Y66.159
G1 F1200 X158.824 Y131.671 E572.69966
G0 F6000 X158.824 Y131.106
G1 F1200 X93.878 Y66.159 E575.75454
G0 F6000 X94.444 Y66.159
G1 F1200 X158.824 Y130.54 E578.7828
G0 F6000 X158.824 Y129.974
G1 F1200 X95.009 Y66.159 E581.78446
G0 F6000 X95.575 Y66.159
G1 F1200 X158.824 Y129.409 E584.75953
G0 F6000 X158.824 Y128.843
G1 F1200 X96.141 Y66.159 E587.70797
G0 F6000 X96.706 Y66.159
G1 F1200 X158.824 Y128.277 E590.62981
G0 F6000 X158.824 Y127.711
G1 F1200 X97.272 Y66.159 E593.52502
G0 F6000 X97.838 Y66.159
G1 F1200 X158.824 Y127.146 E596.39364
G0 F6000 X158.824 Y126.58
G1 F1200 X98.403 Y66.159 E599.23566
G0 F6000 X98.969 Y66.159
G1 F1200 X158.824 Y126.014 E602.05106
G0 F6000 X158.824 Y125.449
G1 F1200 X99.535 Y66.159 E604.83985
G0 F6000 X100.1 Y66.159
G1 F1200 X158.824 Y124.883 E607.60205
G0 F6000 X158.824 Y124.317
G1 F1200 X100.666 Y66.159 E610.33762
G0 F6000 X101.232 Y66.159
G1 F1200 X158.824 Y123.752 E613.0466
G0 F6000 X158.824 Y123.186
G1 F1200 X101.797 Y66.159 E615.72897
G0 F6000 X102.363 Y66.159
G1 F1200 X158.824 Y122.62 E618.38473
G0 F6000 X158.824 Y122.055
G1 F1200 X102.929 Y66.159 E621.01388
G0 F6000 X103.494 Y66.159
G1 F1200 X158.824 Y121.489 E623.61643
G0 F6000 X158.824 Y120.923
