;FLAVOR:Marlin
;TIME:658
;Filament used: 0.387315m
;Layer height: 0.2
;MINX:131.747
;MINY:142.504
;MINZ:0.2
;MAXX:168.253
;MAXY:157.535
;MAXZ:4.8
;Generated with Cura_SteamEngine 4.10.0
M140 S60
M105
M190 S60
M104 S200
M105
M109 S200
M82 ;absolute extrusion mode
; Ender 3 Custom Start G-code
G92 E0 ; Reset Extruder
G28 ; Home all axes
G1 Z2.0 F3000 ; Move Z Axis up little to prevent scratching of Heat Bed
G1 X0.1 Y20 Z0.3 F5000.0 ; Move to start position
G1 X0.1 Y200.0 Z0.3 F1500.0 E15 ; Draw the first line
G1 X0.4 Y200.0 Z0.3 F5000.0 ; Move to side a little
G1 X0.4 Y20 Z0.3 F1500.0 E30 ; Draw the second line
G92 E0 ; Reset Extruder
G1 Z2.0 F3000 ; Move Z Axis up little to prevent scratching of Heat Bed
G1 X5 Y20 Z0.3 F5000.0 ; Move over to prevent blob squish
G92 E0
G92 E0
G1 F1500 E-6.5
;LAYER_COUNT:25
;LAYER:0
M107
;MESH:test_motor_t9chira.STL
G0 F1200 X150 Y151.607 Z0.2
;TYPE:WALL-INNER
G1 F1500 E0
G1 F1200 X150.55 Y151.511 E0.01857
G1 X151.033 Y151.231 E0.03714
G1 X151.392 Y150.803 E0.05572
G1 X151.583 Y150.28 E0.07424
G1 X151.583 Y149.72 E0.09286
G1 X151.392 Y149.197 E0.11138
G1 X151.033 Y148.769 E0.12996
G1 X150.55 Y148.489 E0.14853
G1 X150 Y148.393 E0.1671
G1 X149.45 Y148.489 E0.18567
G1 X148.967 Y148.769 E0.20424
G1 X148.608 Y149.197 E0.22282
G1 X148.417 Y149.72 E0.24134
G1 X148.417 Y150.28 E0.25996
G1 X148.608 Y150.803 E0.27848
G1 X148.967 Y151.231 E0.29706
G1 X149.45 Y151.511 E0.31563
G1 X150 Y151.607 E0.3342
G0 X150 Y151.201
;TYPE:WALL-OUTER
G1 X150.411 Y151.129 E0.34808
G1 X150.772 Y150.92 E0.36195
G1 X151.04 Y150.6 E0.37584
G1 X151.183 Y150.209 E0.38968
G1 X151.183 Y149.791 E0.40359
G1 X151.04 Y149.4 E0.41743
G1 X150.772 Y149.08 E0.43132
G1 X150.411 Y148.871 E0.44519
G1 X150 Y148.799 E0.45907
G1 X149.589 Y148.871 E0.47295
G1 X149.228 Y149.08 E0.48682
G1 X148.96 Y149.4 E0.5007
G1 X148.817 Y149.791 E0.51455
G1 X148.817 Y150.209 E0.52845
G1 X148.96 Y150.6 E0.5423
G1 X149.228 Y150.92 E0.55618
G1 X149.589 Y151.129 E0.57006
G1 X150 Y151.201 E0.58393
G0 X150 Y151.641
G1 F1500 E-5.91607
G0 F1200 X150 Y150.323
G0 X149.114 Y157.535
G0 X149.335 Y156.097
G0 X150 Y156.393
;TYPE:WALL-INNER
G1 F1500 E0.58393
G1 F1200 X134.071 Y153.935 E1.12001
G1 X133.553 Y153.46 E1.14338
G1 X133.03 Y152.8 E1.17139
G1 X132.626 Y152.077 E1.19894
G1 X132.337 Y151.29 E1.22682
G1 X132.178 Y150.472 E1.25454
G1 X132.149 Y149.629 E1.28259
G1 X132.253 Y148.803 E1.31028
G1 X132.488 Y148 E1.33811
G1 X132.85 Y147.24 E1.36611
G1 X133.322 Y146.555 E1.39378
G1 X133.791 Y146.064 E1.41636
G1 X150 Y143.607 E1.96163
G1 X166.208 Y146.063 E2.50687
G1 X166.677 Y146.554 E2.52945
G1 X167.149 Y147.239 E2.55712
G1 X167.511 Y147.999 E2.58512
G1 X167.746 Y148.802 E2.61294
G1 X167.851 Y149.627 E2.64061
G1 X167.823 Y150.471 E2.66869
G1 X167.664 Y151.289 E2.69641
G1 X167.375 Y152.076 E2.72429
G1 X166.971 Y152.799 E2.75184
G1 X166.448 Y153.459 E2.77985
G1 X165.93 Y153.934 E2.80322
G1 X150 Y156.393 E3.33933
G0 X150 Y156.797
;TYPE:WALL-OUTER
G1 X133.89 Y154.311 E3.8815
G1 X133.258 Y153.732 E3.91
G1 X132.698 Y153.025 E3.94
G1 X132.262 Y152.246 E3.96969
G1 X131.949 Y151.394 E3.99988
G1 X131.779 Y150.517 E4.0296
G1 X131.748 Y149.611 E4.05975
G1 X131.86 Y148.722 E4.08955
G1 X132.113 Y147.858 E4.11949
G1 X132.502 Y147.04 E4.14962
G1 X133.011 Y146.302 E4.17944
G1 X133.596 Y145.689 E4.20762
G1 X150 Y143.203 E4.75945
G1 X166.403 Y145.688 E5.31124
G1 X166.988 Y146.301 E5.33942
G1 X167.497 Y147.039 E5.36924
G1 X167.886 Y147.857 E5.39937
G1 X168.139 Y148.721 E5.42931
G1 X168.252 Y149.609 E5.45908
G1 X168.222 Y150.516 E5.48927
G1 X168.052 Y151.393 E5.51898
G1 X167.739 Y152.245 E5.54917
G1 X167.303 Y153.024 E5.57886
G1 X166.743 Y153.731 E5.60886
G1 X166.111 Y154.31 E5.63737
G1 X150 Y156.797 E6.17957
G0 X150 Y156.357
G0 X150 Y155.998
;TYPE:SKIN
G1 X134.245 Y153.567 E6.70978
G1 X133.843 Y153.198 E6.72793
G1 X133.358 Y152.586 E6.7539
G1 X132.98 Y151.909 E6.77969
G1 X132.714 Y151.184 E6.80538
G1 X132.567 Y150.428 E6.83099
G1 X132.539 Y149.64 E6.85722
G1 X132.635 Y148.885 E6.88253
G1 X132.851 Y148.148 E6.90808
G1 X133.193 Y147.429 E6.93456
G1 X133.623 Y146.806 E6.95974
G1 X133.981 Y146.43 E6.977
G1 X150 Y144.002 E7.51588
G1 X166.018 Y146.429 E8.05472
G1 X166.376 Y146.805 E8.07199
G1 X166.806 Y147.428 E8.09717
G1 X167.148 Y148.147 E8.12365
G1 X167.364 Y148.885 E8.14923
G1 X167.461 Y149.638 E8.17448
G1 X167.434 Y150.427 E8.20074
G1 X167.287 Y151.183 E8.22635
G1 X167.021 Y151.908 E8.25204
G1 X166.643 Y152.585 E8.27783
G1 X166.158 Y153.197 E8.3038
G1 X165.756 Y153.566 E8.32195
G1 X150 Y155.998 E8.8522
G1 F1500 E2.3522
G0 F1200 X149.957 Y156.273
G0 X149.323 Y156.095
G0 X149.102 Y157.533
G0 X150 Y150.323
G0 X150 Y151.8
G0 X150 Y152.003
G1 F1500 E8.8522
G1 F1200 X150.685 Y151.883 E8.87533
G1 X151.288 Y151.534 E8.8985
G1 X151.735 Y151.002 E8.92161
G1 X151.973 Y150.349 E8.94473
G1 X151.973 Y149.651 E8.96795
G1 X151.735 Y148.998 E8.99106
G1 X151.288 Y148.466 E9.01417
G1 X150.685 Y148.117 E9.03735
G1 X150 Y147.997 E9.06048
G1 X149.315 Y148.117 E9.08361
G1 X148.712 Y148.466 E9.10678
G1 X148.265 Y148.998 E9.12989
G1 X148.027 Y149.651 E9.15301
G1 X148.027 Y150.349 E9.17622
G1 X148.265 Y151.002 E9.19934
G1 X148.712 Y151.534 E9.22245
G1 X149.315 Y151.883 E9.24562
G1 X150 Y152.003 E9.26875
G1 F1500 E2.76875
G0 F1200 X150 Y151.719
G0 X148.44 Y150.9
G0 X149.721 Y150.164
G0 X147.455 Y157.279
G0 X147.676 Y155.841
G0 X134.758 Y153.928
G0 X134.826 Y153.493
G1 F1500 E9.26875
G1 F1200 X133.099 Y151.767 E9.34996
G0 X132.827 Y150.929
G1 X135.495 Y153.597 E9.47546
G0 X136.164 Y153.7
G1 X132.721 Y150.257 E9.63741
G0 X132.699 Y149.67
G1 X136.832 Y153.802 E9.83179
G0 X137.501 Y153.906
G1 X132.76 Y149.165 E10.05479
G0 X132.857 Y148.696
G1 X138.17 Y154.009 E10.3047
G0 X138.839 Y154.112
G1 X132.985 Y148.259 E10.58003
G0 X133.16 Y147.868
G1 X139.507 Y154.215 E10.87857
G0 X140.176 Y154.318
G1 X133.346 Y147.488 E11.19983
G0 X133.577 Y147.153
G1 X140.845 Y154.422 E11.54172
G0 X141.514 Y154.525
G1 X133.819 Y146.83 E11.90367
G0 X134.124 Y146.569
G1 X142.183 Y154.628 E12.28274
G0 X142.852 Y154.731
G1 X134.616 Y146.495 E12.67014
G0 X135.106 Y146.42
G1 X143.52 Y154.834 E13.0659
G0 X144.189 Y154.937
G1 X135.598 Y146.346 E13.47
G0 X136.089 Y146.272
G1 X144.858 Y155.04 E13.88244
G0 X145.527 Y155.144
G1 X136.581 Y146.197 E14.30326
G0 X137.072 Y146.123
G1 X146.196 Y155.247 E14.73242
G0 X146.865 Y155.35
G1 X137.563 Y146.048 E15.16996
G0 X138.054 Y145.974
G1 X147.534 Y155.453 E15.61585
G0 X148.203 Y155.557
G1 X138.546 Y145.9 E16.07008
G0 X139.037 Y145.825
G1 X148.872 Y155.66 E16.53269
G0 X149.541 Y155.763
G1 X139.529 Y145.751 E17.00363
G0 X140.019 Y145.676
G1 X150.153 Y155.81 E17.4803
G0 X150.643 Y155.734
G1 X140.511 Y145.602 E17.95688
G0 X141.002 Y145.528
G1 X151.133 Y155.658 E18.43338
G0 X151.623 Y155.583
G1 X141.494 Y145.453 E18.90984
G0 X141.985 Y145.379
G1 X152.113 Y155.507 E19.38623
G0 X152.603 Y155.431
G1 X149.134 Y151.962 E19.54941
G0 X149.881 Y152.144
G1 X153.093 Y155.356 E19.70049
G0 X153.583 Y155.28
G1 X150.398 Y152.095 E19.8503
G0 X150.844 Y151.975
G1 X154.073 Y155.204 E20.00218
G0 X154.564 Y155.13
G1 X151.202 Y151.768 E20.16032
G0 X151.513 Y151.513
G1 X155.054 Y155.054 E20.32688
G0 X155.544 Y154.978
G1 X151.771 Y151.205 E20.50435
G0 X151.965 Y150.833
G1 X156.034 Y154.903 E20.69577
G0 X156.524 Y154.827
G1 X152.116 Y150.419 E20.9031
G0 X152.132 Y149.869
G1 X157.014 Y154.751 E21.13274
G0 X157.504 Y154.676
G1 X151.948 Y149.12 E21.39408
G0 X151.537 Y149.269
G0 X150.643 Y148.415
G0 X150.864 Y148.036
G1 X147.389 Y144.56 E21.55755
G0 X147.88 Y144.486
G1 X157.994 Y154.6 E22.03328
G0 X158.484 Y154.524
G1 X148.372 Y144.412 E22.50892
G0 X148.863 Y144.338
G1 X158.974 Y154.449 E22.98451
G0 X159.464 Y154.373
G1 X149.355 Y144.263 E23.46003
G0 X149.845 Y144.188
G1 X159.954 Y154.297 E23.93553
G0 X160.444 Y154.222
G1 X150.458 Y144.235 E24.40526
G0 X151.124 Y144.336
G1 X160.935 Y154.147 E24.86674
G0 X161.425 Y154.071
G1 X151.791 Y144.437 E25.3199
G0 X152.457 Y144.538
G1 X161.915 Y153.995 E25.76475
G0 X162.405 Y153.92
G1 X153.124 Y144.639 E26.2013
G0 X153.79 Y144.739
G1 X162.895 Y153.844 E26.62957
G0 X163.385 Y153.768
G1 X154.457 Y144.84 E27.04951
G0 X155.124 Y144.942
G1 X163.875 Y153.693 E27.46113
G0 X164.365 Y153.617
G1 X155.791 Y145.043 E27.86443
G0 X156.457 Y145.143
G1 X164.855 Y153.541 E28.25945
G0 X165.345 Y153.466
G1 X157.124 Y145.244 E28.64616
G0 X157.79 Y145.345
G1 X165.775 Y153.33 E29.02175
G0 X166.065 Y153.054
G1 X158.457 Y145.446 E29.37961
G0 X159.123 Y145.547
G1 X166.315 Y152.739 E29.7179
G0 X166.554 Y152.412
G1 X159.79 Y145.648 E30.03605
G0 X160.457 Y145.749
G1 X166.756 Y152.049 E30.33236
G0 X166.938 Y151.665
G1 X161.124 Y145.85 E30.60586
G0 X161.79 Y145.951
G1 X167.09 Y151.251 E30.85516
G0 X167.199 Y150.794
G1 X162.457 Y146.052 E31.0782
G0 X163.123 Y146.153
G1 X167.277 Y150.306 E31.27357
G0 X167.297 Y149.76
G1 X163.79 Y146.254 E31.43851
G0 X164.456 Y146.354
G1 X167.234 Y149.132 E31.56918
G0 X167.048 Y148.38
G1 X165.123 Y146.455 E31.65972
G0 X165.79 Y146.557
G1 X166.496 Y147.262 E31.69291
G1 F1500 E25.19291
G0 F1200 X166.86 Y147.014
G0 X166.106 Y146.26
G0 X166.325 Y144.802
G0 X150.279 Y149.836
G0 X151.56 Y149.1
G0 X150.041 Y148.288
G0 X150.117 Y147.854
G1 F1500 E31.69291
G1 F1200 X146.898 Y144.635 E31.84432
G0 X146.407 Y144.71
G1 X149.6 Y147.903 E31.99451
G0 X149.154 Y148.023
G1 X145.915 Y144.784 E32.14686
G0 X145.424 Y144.858
G1 X148.796 Y148.23 E32.30547
G0 X148.486 Y148.486
G1 X144.932 Y144.932 E32.47264
G0 X144.442 Y145.007
G1 X148.227 Y148.793 E32.6507
G0 X148.034 Y149.165
G1 X143.95 Y145.082 E32.84277
G0 X143.459 Y145.156
G1 X147.882 Y149.579 E33.05082
G0 X147.866 Y150.129
G1 X142.967 Y145.23 E33.28125
G0 X142.476 Y145.304
G1 X148.05 Y150.878 E33.54343
G0 X148.378 Y150.759
;MESH:NONMESH
G0 F300 X148.378 Y150.759 Z0.4
G0 F1200 X148.463 Y150.729
G0 X150 Y151.607
;TIME_ELAPSED:74.796909
;LAYER:1
M106 S85
;TYPE:WALL-INNER
;MESH:test_motor_t9chira.STL
G1 X150.55 Y151.511 E33.562
G1 X151.033 Y151.231 E33.58057
G1 X151.392 Y150.803 E33.59915
G1 X151.583 Y150.28 E33.61767
G1 X151.583 Y149.72 E33.6363
G1 X151.392 Y149.197 E33.65482
G1 X151.033 Y148.769 E33.6734
G1 X150.55 Y148.489 E33.69196
G1 X150 Y148.393 E33.71053
G1 X149.45 Y148.489 E33.7291
G1 X148.967 Y148.769 E33.74767
G1 X148.608 Y149.197 E33.76625
G1 X148.417 Y149.72 E33.78477
G1 X148.417 Y150.28 E33.8034
G1 X148.608 Y150.803 E33.82192
G1 X148.967 Y151.231 E33.8405
G1 X149.45 Y151.511 E33.85906
G1 X150 Y151.607 E33.87763
G0 F9000 X150 Y151.201
;TYPE:WALL-OUTER
G1 F1200 X150.411 Y151.129 E33.89151
G1 X150.772 Y150.92 E33.90539
G1 X151.04 Y150.6 E33.91927
G1 X151.183 Y150.209 E33.93312
G1 X151.183 Y149.791 E33.94702
G1 X151.04 Y149.4 E33.96087
G1 X150.772 Y149.08 E33.97475
G1 X150.411 Y148.871 E33.98862
G1 X150 Y148.799 E34.0025
G1 X149.589 Y148.871 E34.01638
G1 X149.228 Y149.08 E34.03025
G1 X148.96 Y149.4 E34.04414
G1 X148.817 Y149.791 E34.05798
G1 X148.817 Y150.209 E34.07189
G1 X148.96 Y150.6 E34.08573
G1 X149.228 Y150.92 E34.09962
G1 X149.589 Y151.129 E34.11349
G1 X150 Y151.201 E34.12737
G0 F9000 X150 Y151.641
G1 F1500 E27.62737
G0 F9000 X150 Y150.323
G0 X149.114 Y157.535
G0 X149.335 Y156.097
G0 X150 Y156.393
;TYPE:WALL-INNER
G1 F1500 E34.12737
G1 F1200 X134.071 Y153.935 E34.66344
G1 X133.553 Y153.46 E34.68682
G1 X133.032 Y152.802 E34.71473
G1 X132.624 Y152.073 E34.74252
G1 X132.336 Y151.289 E34.7703
G1 X132.177 Y150.471 E34.79801
G1 X132.148 Y149.628 E34.82607
G1 X132.253 Y148.803 E34.85373
G1 X132.488 Y148 E34.88156
G1 X132.85 Y147.24 E34.90955
G1 X133.322 Y146.555 E34.93722
G1 X133.792 Y146.063 E34.95985
G1 X150 Y143.607 E35.50509
G1 X166.208 Y146.063 E36.05032
G1 X166.678 Y146.555 E36.07295
G1 X167.15 Y147.24 E36.10062
G1 X167.512 Y148 E36.12862
G1 X167.747 Y148.803 E36.15645
G1 X167.852 Y149.628 E36.18411
G1 X167.823 Y150.471 E36.21216
G1 X167.664 Y151.289 E36.23988
G1 X167.376 Y152.073 E36.26766
G1 X166.968 Y152.802 E36.29544
G1 X166.447 Y153.46 E36.32336
G1 X165.929 Y153.935 E36.34673
G1 X150 Y156.393 E36.88281
G0 F9000 X150 Y156.797
;TYPE:WALL-OUTER
G1 F1200 X133.89 Y154.311 E37.42497
G1 X133.258 Y153.732 E37.45348
G1 X132.698 Y153.025 E37.48347
G1 X132.261 Y152.245 E37.51321
G1 X131.948 Y151.393 E37.5434
G1 X131.778 Y150.516 E37.57311
G1 X131.747 Y149.61 E37.60326
G1 X131.86 Y148.722 E37.63304
G1 X132.113 Y147.858 E37.66298
G1 X132.502 Y147.04 E37.69311
G1 X133.011 Y146.302 E37.72293
G1 X133.597 Y145.688 E37.75116
G1 X150 Y143.203 E38.30295
G1 X166.403 Y145.688 E38.85474
G1 X166.989 Y146.302 E38.88297
G1 X167.498 Y147.04 E38.91279
G1 X167.887 Y147.858 E38.94291
G1 X168.14 Y148.722 E38.97286
G1 X168.253 Y149.61 E39.00263
G1 X168.222 Y150.516 E39.03278
G1 X168.052 Y151.393 E39.06249
G1 X167.739 Y152.245 E39.09268
G1 X167.302 Y153.025 E39.12242
G1 X166.742 Y153.732 E39.15242
G1 X166.11 Y154.311 E39.18092
G1 X150 Y156.797 E39.72309
G0 F9000 X150 Y156.357
G0 X150 Y155.998
;TYPE:SKIN
G1 F2400 X134.245 Y153.567 E40.2533
G1 X133.843 Y153.198 E40.27145
G1 X133.36 Y152.588 E40.29733
G1 X132.978 Y151.905 E40.32336
G1 X132.713 Y151.183 E40.34894
G1 X132.566 Y150.427 E40.37455
G1 X132.538 Y149.639 E40.40078
G1 X132.635 Y148.886 E40.42603
G1 X132.851 Y148.148 E40.45161
G1 X133.193 Y147.429 E40.47809
G1 X133.625 Y146.802 E40.50341
G1 X133.981 Y146.429 E40.52056
G1 X150 Y144.002 E41.05944
G1 X166.019 Y146.429 E41.59831
G1 X166.375 Y146.802 E41.61546
G1 X166.807 Y147.429 E41.64079
G1 X167.149 Y148.148 E41.66727
G1 X167.365 Y148.886 E41.69284
G1 X167.462 Y149.639 E41.7181
G1 X167.434 Y150.427 E41.74432
G1 X167.287 Y151.183 E41.76994
G1 X167.022 Y151.905 E41.79552
G1 X166.64 Y152.588 E41.82155
G1 X166.157 Y153.198 E41.84742
G1 X165.755 Y153.567 E41.86557
G1 X150 Y155.998 E42.39579
G1 F1500 E35.89579
G0 F9000 X149.957 Y156.273
G0 X149.323 Y156.095
G0 X149.102 Y157.533
G0 X150 Y150.323
G0 X150 Y151.8
G0 X150 Y152.003
G1 F1500 E42.39579
G1 F2400 X150.685 Y151.883 E42.41892
G1 X151.288 Y151.534 E42.44209
G1 X151.735 Y151.002 E42.4652
G1 X151.973 Y150.349 E42.48832
G1 X151.973 Y149.651 E42.51153
G1 X151.735 Y148.998 E42.53465
G1 X151.288 Y148.466 E42.55776
G1 X150.685 Y148.117 E42.58093
G1 X150 Y147.997 E42.60406
G1 X149.315 Y148.117 E42.62719
G1 X148.712 Y148.466 E42.65037
G1 X148.265 Y148.998 E42.67348
G1 X148.027 Y149.651 E42.6966
G1 X148.027 Y150.349 E42.71981
G1 X148.265 Y151.002 E42.74293
G1 X148.712 Y151.534 E42.76604
G1 X149.315 Y151.883 E42.78921
G1 X150 Y152.003 E42.81234
G1 F1500 E36.31234
G0 F9000 X150 Y151.719
G0 X151.56 Y150.9
G0 X150.279 Y150.164
G0 X166.059 Y155.193
G0 X165.834 Y153.737
G0 X166.686 Y152.98
G0 X166.341 Y152.704
G1 F1500 E42.81234
G1 F2400 X165.62 Y153.425 E42.84626
G0 F9000 X164.951 Y153.529
G1 F2400 X167.009 Y151.471 E42.94306
G0 F9000 X167.217 Y150.697
G1 F2400 X164.282 Y153.632 E43.08111
G0 F9000 X163.613 Y153.735
G1 F2400 X167.285 Y150.063 E43.25383
G0 F9000 X167.282 Y149.501
G1 F2400 X162.945 Y153.838 E43.45783
G0 F9000 X162.276 Y153.941
G1 F2400 X167.216 Y149.001 E43.69019
G0 F9000 X167.099 Y148.553
G1 F2400 X161.607 Y154.044 E43.9485
G0 F9000 X160.938 Y154.147
G1 F2400 X166.959 Y148.126 E44.2317
G0 F9000 X166.778 Y147.742
G1 F2400 X160.269 Y154.251 E44.53787
G0 F9000 X159.601 Y154.354
G1 F2400 X166.577 Y147.378 E44.866
G0 F9000 X166.345 Y147.044
G1 F2400 X158.932 Y154.457 E45.21468
G0 F9000 X158.263 Y154.56
G1 F2400 X166.088 Y146.735 E45.58275
G0 F9000 X165.713 Y146.545
G1 F2400 X157.595 Y154.663 E45.96459
G0 F9000 X156.926 Y154.766
G1 F2400 X165.222 Y146.47 E46.35481
G0 F9000 X164.731 Y146.395
G1 F2400 X156.257 Y154.869 E46.7534
G0 F9000 X155.588 Y154.973
G1 F2400 X164.239 Y146.321 E47.16034
G0 F9000 X163.748 Y146.247
G1 F2400 X154.919 Y155.076 E47.57563
G0 F9000 X154.25 Y155.179
G1 F2400 X163.256 Y146.173 E47.99925
G0 F9000 X162.766 Y146.098
G1 F2400 X153.582 Y155.282 E48.43123
G0 F9000 X152.913 Y155.385
G1 F2400 X162.274 Y146.023 E48.87157
G0 F9000 X161.783 Y145.949
G1 F2400 X152.244 Y155.488 E49.32025
G0 F9000 X151.575 Y155.591
G1 F2400 X161.291 Y145.875 E49.77727
G0 F9000 X160.801 Y145.8
G1 F2400 X150.906 Y155.695 E50.2427
G0 F9000 X150.237 Y155.798
G1 F2400 X160.309 Y145.726 E50.71645
G0 F9000 X159.818 Y145.651
